ncols        226
nrows        225
xllcorner    772985.000000000000
yllcorner    2485015.000000000000
cellsize     30.000000000000
NODATA_value -9999
0 111 111 111 111 111 111 111 111 111 111 111 111 111 111 111 111 111 111 111 111 111 111 111 111 111 111 111 111 111 111 111 111 111 111 111 111 111 111 111 111 111 111 111 111 111 111 111 111 111 111 111 111 111 111 111 111 111 111 111 111 111 111 111 111 111 111 111 111 111 111 111 111 111 111 111 111 111 111 111 111 111 111 111 111 111 111 111 111 111 111 111 111 111 111 111 111 111 111 111 111 111 111 111 111 111 111 111 111 111 111 111 111 111 111 111 111 111 111 111 111 111 111 111 111 111 111 111 111 111 111 111 111 111 111 111 111 111 111 111 111 111 111 111 111 111 111 111 111 111 111 111 111 111 111 111 111 111 111 111 111 111 111 111 111 111 111 111 111 111 111 111 111 111 111 111 111 111 111 111 111 111 111 111 111 111 111 111 111 111 111 111 111 111 111 111 111 111 111 111 111 111 111 111 111 111 111 111 111 111 111 111 111 111 111 111 111 111 111 111 111 111 111 111 111 111 
0 111 111 111 111 111 111 111 111 111 111 111 111 111 111 111 111 111 111 111 111 111 111 111 111 111 111 111 111 111 111 111 111 111 111 111 111 111 111 111 111 111 111 111 111 111 111 111 111 111 111 111 111 111 111 111 111 111 111 111 111 111 111 111 111 111 111 111 111 111 111 111 111 111 111 111 111 111 111 111 111 111 111 111 111 111 111 111 111 111 111 111 111 111 111 111 111 111 111 111 111 111 111 111 111 111 111 111 111 111 111 111 111 111 111 111 111 111 111 111 111 111 111 111 111 111 111 111 111 111 111 111 111 111 111 111 111 111 111 111 111 111 111 111 111 111 111 111 111 111 111 111 111 111 111 111 111 111 111 111 111 111 111 111 111 111 111 111 111 111 111 111 111 111 111 111 111 111 111 111 111 111 111 111 111 111 111 111 111 111 111 111 111 111 111 111 111 111 111 111 111 111 111 111 111 111 111 111 111 111 111 111 111 111 111 111 111 111 111 111 111 111 111 111 111 111 
0 111 111 111 111 111 111 111 111 111 111 111 111 111 111 111 111 111 111 111 111 111 111 111 111 111 111 111 111 111 111 111 111 111 111 111 111 111 111 111 111 111 111 111 111 111 111 111 111 111 111 111 111 111 111 111 111 111 111 111 111 111 111 111 111 111 111 111 111 111 111 111 111 111 111 111 111 111 111 111 111 111 111 111 111 111 111 111 111 111 111 111 111 111 111 111 111 111 111 111 111 111 111 111 111 111 111 111 111 111 111 111 111 111 111 111 111 111 111 111 111 111 111 111 111 111 111 111 111 111 111 111 111 111 111 111 111 111 111 111 111 111 111 111 111 111 111 111 111 111 111 111 111 111 111 111 111 111 111 111 111 111 111 111 111 111 111 111 111 111 111 111 111 111 111 111 111 111 111 111 111 111 111 111 111 111 111 111 111 111 111 111 111 111 111 111 111 111 111 111 111 111 111 111 111 111 111 111 111 111 111 111 111 111 111 111 111 111 111 111 111 111 111 111 111 111 
0 111 111 111 111 111 111 111 111 111 111 111 111 111 111 111 111 111 111 111 111 111 111 111 111 111 111 111 111 111 111 111 111 111 111 111 111 111 111 111 111 111 111 111 111 111 111 111 111 111 111 111 111 111 111 111 111 111 111 111 111 111 111 111 111 111 111 111 111 111 111 111 111 111 111 111 111 111 111 111 111 111 111 111 111 111 111 111 111 111 111 111 111 111 111 111 111 111 111 111 111 111 111 111 111 111 111 111 111 111 111 111 111 111 111 111 111 111 111 111 111 111 111 111 111 111 111 111 111 111 111 111 111 111 111 111 111 111 111 111 111 111 111 111 111 111 111 111 111 111 111 111 111 111 111 111 111 111 111 111 111 111 111 111 111 111 111 111 111 111 111 111 111 111 111 111 111 111 111 111 111 111 111 111 111 111 111 111 111 111 111 111 111 111 111 111 111 111 111 111 111 111 111 111 111 111 111 111 111 111 111 111 111 111 111 111 111 111 111 111 111 111 111 111 111 111 
0 111 111 111 111 111 111 111 111 111 111 111 111 111 111 111 111 111 111 111 111 111 111 111 111 111 111 111 111 111 111 111 111 111 111 111 111 111 111 111 111 111 111 111 111 111 111 111 111 111 111 111 111 111 111 111 111 111 111 111 111 111 111 111 111 111 111 111 111 111 111 111 111 111 111 111 111 111 111 111 111 111 111 111 111 111 111 111 111 111 111 111 111 111 111 111 111 111 111 111 111 111 111 111 111 111 111 111 111 111 111 111 111 111 111 111 111 111 111 111 111 111 111 111 111 111 111 111 111 111 111 111 111 111 111 111 111 111 111 111 111 111 111 111 111 111 111 111 111 111 111 111 111 111 111 111 111 111 111 111 111 111 111 111 111 111 111 111 111 111 111 111 111 111 111 111 111 111 111 111 111 111 111 111 111 111 111 111 111 111 111 111 111 111 111 111 111 111 111 111 111 111 111 111 111 111 111 111 111 111 111 111 111 111 111 111 111 111 111 111 111 111 111 111 111 111 
0 111 111 111 111 111 111 111 111 111 111 111 111 111 111 111 111 111 111 111 111 111 111 111 111 111 111 111 111 111 111 111 111 111 111 111 111 111 111 111 111 111 111 111 111 111 111 111 111 111 111 111 111 111 111 111 111 111 111 111 111 111 111 111 111 111 111 111 111 111 111 111 111 111 111 111 111 111 111 111 111 111 111 111 111 111 111 111 111 111 111 111 111 111 111 111 111 111 111 111 111 111 111 111 111 111 111 111 111 111 111 111 111 111 111 111 111 111 111 111 111 111 111 111 111 111 111 111 111 111 111 111 111 111 111 111 111 111 111 111 111 111 111 111 111 111 111 111 111 111 111 111 111 111 111 111 111 111 111 111 111 111 111 111 111 111 111 111 111 111 111 111 111 111 111 111 111 111 111 111 111 111 111 111 111 111 111 111 111 111 111 111 111 111 111 111 111 111 111 111 111 111 111 111 111 111 111 111 111 111 111 111 111 111 111 111 111 111 111 111 111 111 111 111 111 111 
0 111 111 111 111 111 111 111 111 111 111 111 111 111 111 111 111 111 111 111 111 111 111 111 111 111 111 111 111 111 111 111 111 111 111 111 111 111 111 111 111 111 111 111 111 111 111 111 111 111 111 111 111 111 111 111 111 111 111 111 111 111 111 111 111 111 111 111 111 111 111 111 111 111 111 111 111 111 111 111 111 111 111 111 111 111 111 111 111 111 111 111 111 111 111 111 111 111 111 111 111 111 111 111 111 111 111 111 111 111 111 111 111 111 111 111 111 111 111 111 111 111 111 111 111 111 111 111 111 111 111 111 111 111 111 111 111 111 111 111 111 111 111 111 111 111 111 111 111 111 111 111 111 111 111 111 111 111 111 111 111 111 111 111 111 111 111 111 111 111 111 111 111 111 111 111 111 111 111 111 111 111 111 111 111 111 111 111 111 111 111 111 111 111 111 111 111 111 111 111 111 111 111 111 111 111 111 111 111 111 111 111 111 111 111 111 111 111 111 111 111 111 111 111 111 111 
0 111 111 111 111 111 111 111 111 111 111 111 111 111 111 111 111 111 111 111 111 111 111 111 111 111 111 111 111 111 111 111 111 111 111 111 111 111 111 111 111 111 111 111 111 111 111 111 111 111 111 111 111 111 111 111 111 111 111 111 111 111 111 111 111 111 111 111 111 111 111 111 111 111 111 111 111 111 111 111 111 111 111 111 111 111 111 111 111 111 111 111 111 111 111 111 111 111 111 111 111 111 111 111 111 111 111 111 111 111 111 111 111 111 111 111 111 111 111 111 111 111 111 111 111 111 111 111 111 111 111 111 111 111 111 111 111 111 111 111 111 111 111 111 111 111 111 111 111 111 111 111 111 111 111 111 111 111 111 111 111 111 111 111 111 111 111 111 111 111 111 111 111 111 111 111 111 111 111 111 111 111 111 111 111 111 111 111 111 111 111 111 111 111 111 111 111 111 111 111 111 111 111 111 111 111 111 111 111 111 111 111 111 111 111 111 111 111 111 111 111 111 111 111 111 111 
0 111 111 111 111 111 111 111 111 111 111 111 111 111 111 111 111 111 111 111 111 111 111 111 111 111 111 111 111 111 111 111 111 111 111 111 111 111 111 111 111 111 111 111 111 111 111 111 111 111 111 111 111 111 111 111 111 111 111 111 111 111 111 111 111 111 111 111 111 111 111 111 111 111 111 111 111 111 111 111 111 111 111 111 111 111 111 111 111 111 111 111 111 111 111 111 111 111 111 111 111 111 111 111 131 111 111 131 131 131 111 111 111 111 111 111 111 111 111 111 111 111 111 111 111 111 111 111 111 111 111 111 111 111 111 111 111 111 111 111 111 111 111 111 111 111 111 111 111 111 111 111 111 111 111 111 111 111 111 111 111 111 111 111 111 111 111 111 111 111 111 111 111 111 111 111 111 111 111 111 111 111 111 111 111 111 111 111 111 111 111 111 111 111 111 111 111 111 111 111 111 111 111 111 111 111 111 111 111 111 111 111 111 111 111 111 111 111 111 111 111 111 111 111 111 111 
0 111 111 111 111 111 111 111 111 111 111 111 111 111 111 111 111 111 111 111 111 111 111 111 111 111 111 111 111 111 111 111 111 111 111 111 111 111 111 111 111 111 111 111 111 111 111 111 111 111 111 111 111 111 111 111 111 111 111 111 111 111 111 111 111 111 111 111 111 111 111 111 111 111 111 111 111 111 111 111 111 111 111 111 111 111 111 111 111 111 111 111 111 111 111 111 111 111 111 111 111 111 111 111 131 131 131 152 122 131 131 131 111 111 111 111 111 111 111 111 111 111 111 111 111 111 111 111 111 111 111 111 111 111 111 111 111 111 111 111 111 111 111 111 111 111 111 111 111 111 111 111 111 111 111 111 111 111 111 111 111 111 111 111 111 111 111 111 111 111 111 111 111 111 111 111 111 111 111 111 111 111 111 111 111 111 111 111 111 111 111 111 111 111 111 111 111 111 111 111 111 111 111 111 111 111 111 111 111 111 111 111 111 111 111 111 111 111 111 111 111 111 111 111 111 111 
0 111 111 111 111 111 111 111 111 111 111 111 111 111 111 111 111 111 111 111 111 111 111 111 111 111 111 111 111 111 111 111 111 111 111 111 111 111 111 111 111 111 111 111 111 111 111 111 111 111 111 111 111 111 111 111 111 111 111 111 111 111 111 111 111 111 111 111 111 111 111 111 111 111 111 111 111 111 111 111 111 111 111 111 111 111 111 111 111 111 111 111 111 111 111 111 111 111 111 111 111 111 131 131 141 152 143 141 143 143 42 131 131 111 111 111 111 111 111 111 111 111 111 111 111 111 111 111 111 111 111 111 111 111 111 111 111 111 111 111 111 111 111 111 111 111 111 111 111 111 111 111 111 111 111 111 111 111 111 111 111 111 111 111 111 111 111 111 111 111 111 111 111 111 111 111 111 111 111 111 111 111 111 111 111 111 111 111 111 111 111 111 111 111 111 111 111 111 111 111 111 111 111 111 111 111 111 111 111 111 111 111 111 111 111 111 111 111 111 111 111 111 111 111 111 111 
0 111 111 111 111 111 111 111 111 111 111 111 111 111 111 111 111 111 111 111 111 111 111 111 111 111 111 111 111 111 111 111 111 111 111 111 111 111 111 111 111 111 111 111 111 111 111 111 111 111 111 111 111 111 111 111 111 111 111 111 111 111 111 111 111 111 111 111 111 111 111 111 111 111 111 111 111 111 111 111 111 111 111 111 111 111 111 111 111 111 111 111 111 111 111 111 111 111 111 131 131 122 121 143 143 143 141 143 141 143 152 176 131 131 111 111 111 111 111 111 111 111 111 111 111 111 111 111 111 111 111 111 111 111 111 111 111 111 111 111 111 111 111 111 111 111 111 111 111 111 111 111 111 111 111 111 111 111 111 111 111 111 111 111 111 111 111 111 111 111 111 111 111 111 111 111 111 111 111 111 111 111 111 111 111 111 111 111 111 111 111 111 111 111 111 111 111 111 111 111 111 111 111 111 111 111 111 111 111 111 111 111 111 111 111 111 111 111 111 111 111 111 111 111 111 111 
0 111 111 111 111 111 111 111 111 111 111 111 111 111 111 111 111 111 111 111 111 111 111 111 111 111 111 111 111 111 111 111 111 111 111 111 111 111 111 111 111 111 111 111 111 111 111 111 111 111 111 111 111 111 111 111 111 111 111 111 111 111 111 111 111 111 111 111 111 111 111 111 111 111 111 111 111 111 111 111 111 111 111 111 111 111 111 111 111 111 111 111 111 111 111 111 111 111 131 121 142 143 143 143 143 143 143 141 143 143 143 143 152 122 131 111 111 111 111 111 111 111 111 111 111 111 111 111 111 111 111 111 111 111 111 111 111 111 111 111 111 111 111 111 111 111 111 111 111 111 111 111 111 111 111 111 111 111 111 111 111 111 111 111 111 111 111 111 111 111 111 111 111 111 111 111 111 111 111 111 111 111 111 111 111 111 111 111 111 111 111 111 111 111 111 111 111 111 111 111 111 111 111 111 111 111 111 111 111 111 111 111 111 111 111 111 111 111 111 111 111 111 111 111 111 111 
0 111 111 111 111 111 111 111 111 111 111 111 111 111 111 111 111 111 111 111 111 111 111 111 111 111 111 111 111 111 111 111 111 111 111 111 111 111 111 111 111 111 111 111 111 111 111 111 111 111 111 111 111 111 111 111 111 111 111 111 111 111 111 111 111 111 111 111 111 111 111 111 111 111 111 111 111 111 111 111 111 111 111 111 111 111 111 111 111 111 111 111 111 111 131 131 152 152 142 142 143 143 143 143 143 143 143 141 141 143 143 143 141 121 123 131 131 131 111 111 111 111 111 111 111 111 111 111 111 111 111 111 111 111 111 111 111 111 111 111 111 111 111 111 111 111 111 111 111 111 111 111 111 111 111 111 111 111 111 111 111 111 111 111 111 111 111 111 111 111 111 111 111 111 111 111 111 111 111 111 111 111 111 111 111 111 111 111 111 111 111 111 111 111 111 111 111 111 111 111 111 111 111 111 111 111 111 111 111 111 111 111 111 111 111 111 111 111 111 111 111 111 111 111 111 111 
0 111 111 111 111 111 111 111 111 111 111 111 111 111 111 111 111 111 111 111 111 111 111 111 111 111 111 111 111 111 111 111 111 111 111 111 111 111 111 111 111 111 111 111 111 111 111 111 111 111 111 111 111 111 111 111 111 111 111 111 111 111 111 111 111 111 111 111 111 111 111 111 111 111 111 111 111 111 111 111 111 111 111 111 111 111 111 111 111 111 111 131 131 131 131 142 142 143 143 143 143 143 143 141 143 143 141 143 141 141 141 141 141 141 141 123 131 131 131 111 111 111 111 111 111 111 111 111 111 111 111 111 111 111 111 111 111 111 111 111 111 111 111 111 111 111 111 111 111 111 111 111 111 111 111 111 111 111 111 111 111 111 111 111 111 111 111 111 111 111 111 111 111 111 111 111 111 111 111 111 111 111 111 111 111 111 111 111 111 111 111 111 111 111 111 111 111 111 111 111 111 111 111 111 111 111 111 111 111 111 111 111 111 111 111 111 111 111 111 111 111 111 111 111 111 111 
0 111 111 111 111 111 111 111 111 111 111 111 111 111 111 111 111 111 111 111 111 111 111 111 111 111 111 111 111 111 111 111 111 111 111 111 111 111 111 111 111 111 111 111 111 111 111 111 111 111 111 111 111 111 111 111 111 111 111 111 111 111 111 111 111 111 111 111 111 111 111 111 111 111 111 111 111 111 111 111 111 111 111 111 111 111 111 111 111 131 131 152 152 152 195 143 143 143 143 141 141 141 143 143 143 143 143 141 141 141 141 141 141 141 143 141 141 195 131 131 111 111 111 111 111 111 111 111 111 111 111 111 111 111 111 111 111 111 111 111 111 111 111 111 111 111 111 111 111 111 111 111 111 111 111 111 111 111 111 111 111 111 111 111 111 111 111 111 111 111 111 111 111 111 111 111 111 111 111 111 111 111 111 111 111 111 111 111 111 111 111 111 111 111 111 111 111 111 111 111 111 111 111 111 111 111 111 111 111 111 111 111 111 111 111 111 111 111 111 111 111 111 111 111 111 111 
0 111 111 111 111 111 111 111 111 111 111 111 111 111 111 111 111 111 111 111 111 111 111 111 111 111 111 111 111 111 111 111 111 111 111 111 111 111 111 111 111 111 111 111 111 111 111 111 111 111 111 111 111 111 111 111 111 111 111 111 111 111 111 111 111 111 111 111 111 111 111 111 111 111 111 111 111 111 111 111 111 111 111 111 111 111 111 131 131 131 142 142 143 143 143 141 141 141 143 141 141 141 141 141 141 141 141 143 143 141 141 141 141 141 141 141 141 152 141 131 131 111 111 111 111 111 111 111 111 111 111 111 111 111 111 111 111 111 111 111 111 111 111 111 111 111 111 111 111 111 111 111 111 111 111 111 111 111 111 111 111 111 111 111 111 111 111 111 111 111 111 111 111 111 111 111 111 111 111 111 111 111 111 111 111 111 111 111 111 111 111 111 111 111 111 111 111 111 111 111 111 111 111 111 111 111 111 111 111 111 111 111 111 111 111 111 111 111 111 111 111 111 111 111 111 111 
0 111 111 111 111 111 111 111 111 111 111 111 111 111 111 111 111 111 111 111 111 111 111 111 111 111 111 111 111 111 111 111 111 111 111 111 111 111 111 111 111 111 111 111 111 111 111 111 111 111 111 111 111 111 111 111 111 111 111 111 111 111 111 111 111 111 111 111 111 111 111 111 111 111 111 111 111 111 111 111 111 111 111 111 111 111 131 131 195 142 142 143 143 143 143 141 141 141 143 141 141 141 141 141 141 141 141 141 141 141 141 141 141 141 141 141 141 152 152 152 195 131 131 131 111 111 111 111 111 111 111 111 111 111 111 111 111 111 111 111 111 111 111 111 111 111 111 111 111 111 111 111 111 111 111 111 111 111 111 111 111 111 111 111 111 111 111 111 111 111 111 111 111 111 111 111 111 111 111 111 111 111 111 111 111 111 111 111 111 111 111 111 111 111 111 111 111 111 111 111 111 111 111 111 111 111 111 111 111 111 111 111 111 111 111 111 111 111 111 111 111 111 111 111 111 111 
0 111 111 111 111 111 111 111 111 111 111 111 111 111 111 111 111 111 111 111 111 111 111 111 111 111 111 111 111 111 111 111 111 111 111 111 111 111 111 111 111 111 111 111 111 111 111 111 111 111 111 111 111 111 111 111 111 111 111 111 111 111 111 111 111 111 111 111 111 111 111 111 111 111 111 111 111 111 111 111 111 111 111 111 131 123 195 142 142 142 143 143 141 141 141 141 141 141 141 141 141 141 141 141 141 141 141 141 143 141 141 141 141 141 141 141 141 152 141 141 141 121 122 195 131 131 131 131 131 131 131 131 111 111 111 111 111 111 111 111 111 111 111 111 111 111 111 111 111 111 111 111 111 111 111 111 111 111 111 111 111 111 111 111 111 111 111 111 111 111 111 111 111 111 111 111 111 111 111 111 111 111 111 111 111 111 111 111 111 111 111 111 111 111 111 111 111 111 111 111 111 111 111 111 111 111 111 111 111 111 111 111 111 111 111 111 111 111 111 111 111 111 111 111 111 111 
0 111 111 111 111 111 111 111 111 111 111 111 111 111 111 111 111 111 111 111 111 111 111 111 111 111 111 111 111 111 111 111 111 111 111 111 111 111 111 111 111 111 111 111 111 111 111 111 111 111 111 111 111 111 111 111 111 111 111 111 111 111 111 111 111 111 111 111 111 111 111 111 111 111 111 111 111 111 111 111 111 111 111 131 123 195 142 143 143 143 141 141 143 143 143 141 141 141 141 141 141 141 141 141 141 141 141 141 141 141 141 141 141 141 141 141 141 141 152 141 141 143 143 143 142 142 131 152 152 176 131 131 131 131 111 111 111 111 111 111 111 111 111 111 111 111 111 111 111 111 111 111 111 111 111 111 111 111 111 111 111 111 111 111 111 111 111 111 111 111 111 111 111 111 111 111 111 111 111 111 111 111 111 111 111 111 111 111 111 111 111 111 111 111 111 111 111 111 111 111 111 111 111 111 111 111 111 111 111 111 111 111 111 111 111 111 111 111 111 111 111 111 111 111 111 111 
0 111 111 111 111 111 111 111 111 111 111 111 111 111 111 111 111 111 111 111 111 111 111 111 111 111 111 111 111 111 111 111 111 111 111 111 111 111 111 111 111 111 111 111 111 111 111 111 111 111 111 111 111 111 111 111 111 111 111 111 111 111 111 111 111 111 111 111 111 111 111 111 111 111 111 111 111 111 111 111 131 131 123 121 142 142 143 141 143 141 141 141 143 141 141 141 141 141 141 141 141 141 141 143 141 141 141 141 141 141 141 141 141 141 141 141 141 141 141 141 141 141 143 143 142 142 143 143 143 143 142 152 131 131 131 131 131 111 111 111 111 111 111 111 111 111 111 111 111 111 111 111 111 111 111 111 111 111 111 111 111 111 111 111 111 111 111 111 111 111 111 111 111 111 111 111 111 111 111 111 111 111 111 111 111 111 111 111 111 111 111 111 111 111 111 111 111 111 111 111 111 111 111 111 111 111 111 111 111 111 111 111 111 111 111 111 111 111 111 111 111 111 111 111 111 111 
0 111 111 111 111 111 111 111 111 111 111 111 111 111 111 111 111 111 111 111 111 111 111 111 111 111 111 111 111 111 111 111 111 111 111 111 111 111 111 111 111 111 111 111 111 111 111 111 111 111 111 111 111 111 111 111 111 111 111 111 111 111 111 111 111 111 111 111 111 111 111 111 111 111 111 111 111 111 131 131 131 131 142 142 142 143 141 141 141 141 141 141 141 143 143 141 141 143 141 141 141 141 143 143 141 141 141 141 141 141 141 141 143 141 141 141 141 141 141 141 141 141 143 143 142 143 143 143 141 141 141 141 143 143 152 176 131 123 123 1 131 111 111 111 111 111 111 111 111 111 111 111 111 111 111 111 111 111 111 111 111 111 111 111 111 111 111 111 111 111 111 111 111 111 111 111 111 111 111 111 111 111 111 111 111 111 111 111 111 111 111 111 111 111 111 111 111 111 111 111 111 111 111 111 111 111 111 111 111 111 111 111 111 111 111 111 111 111 111 111 111 111 111 111 111 111 
0 111 111 111 111 111 111 111 111 111 111 111 111 111 111 111 111 111 111 111 111 111 111 111 111 111 111 111 111 111 111 111 111 111 111 111 111 111 111 111 111 111 111 111 111 111 111 111 111 111 111 111 111 111 111 111 111 111 111 111 111 111 111 111 111 111 111 111 111 111 111 111 111 111 111 111 131 131 131 195 142 142 142 142 143 143 141 141 141 143 143 143 143 143 143 141 143 143 141 141 143 141 143 143 141 141 141 141 141 141 141 141 36 141 141 141 141 141 141 141 141 143 141 143 143 143 143 141 141 141 141 141 143 143 143 143 143 143 36 143 42 131 131 111 111 111 111 111 111 111 111 111 111 111 111 111 111 111 111 111 111 111 111 111 111 111 111 111 111 111 111 111 111 111 111 111 111 111 111 111 111 111 111 111 111 111 111 111 111 111 111 111 111 111 111 111 111 111 111 111 111 111 111 111 111 111 111 111 111 111 111 111 111 111 111 111 111 111 111 111 111 111 111 111 111 111 
0 111 111 111 111 111 111 111 111 111 111 111 111 111 111 111 111 111 111 111 111 111 111 111 111 111 111 111 111 111 111 111 111 111 111 111 111 111 111 111 111 111 111 111 111 111 111 111 111 111 111 111 111 111 111 111 111 111 111 111 111 111 111 111 111 111 111 111 111 111 111 111 111 111 111 131 131 131 142 142 142 142 143 143 143 141 143 143 143 143 143 143 143 143 143 143 143 141 141 141 143 143 143 143 141 141 141 141 141 141 141 141 36 152 141 141 152 141 141 152 141 143 143 143 141 143 143 141 141 141 141 141 141 143 143 143 143 143 143 143 143 142 131 131 131 131 131 111 111 111 111 111 111 111 111 111 111 111 111 111 111 111 111 111 111 111 111 111 111 111 111 111 111 111 111 111 111 111 111 111 111 111 111 111 111 111 111 111 111 111 111 111 111 111 111 111 111 111 111 111 111 111 111 111 111 111 111 111 111 111 111 111 111 111 111 111 111 111 111 111 111 111 111 111 111 111 
0 111 111 111 111 111 111 111 111 111 111 111 111 111 111 111 111 111 111 111 111 111 111 111 111 111 111 111 111 111 111 111 111 111 111 111 111 111 111 111 111 111 111 111 111 111 111 111 111 111 111 111 111 111 111 111 111 111 111 111 111 111 111 111 111 111 111 111 111 111 111 111 111 111 111 131 142 142 142 142 142 142 143 143 143 141 143 143 143 143 143 143 141 141 141 143 141 141 143 143 143 143 143 143 141 141 141 141 141 141 141 141 141 141 141 141 152 141 141 141 141 141 141 141 141 141 141 141 141 141 141 141 141 141 141 141 141 141 143 143 143 143 143 143 152 123 131 131 131 131 131 131 131 131 111 111 111 111 111 111 111 111 111 111 111 111 111 111 111 111 111 111 111 111 111 111 111 111 111 111 111 131 131 131 111 111 111 111 111 111 111 111 111 111 111 111 111 111 111 111 111 111 111 111 111 111 111 111 111 111 111 111 111 111 111 111 111 111 111 111 111 111 111 111 111 111 
0 111 111 111 111 111 111 111 111 111 111 111 111 111 111 111 111 111 111 111 111 111 111 111 111 111 111 111 111 111 111 111 111 111 111 111 111 111 111 111 111 111 111 111 111 111 111 111 111 111 111 111 111 111 111 111 111 111 111 111 111 111 111 111 111 111 111 111 111 111 111 131 131 131 131 123 142 142 142 142 142 142 142 143 143 143 143 143 143 143 143 143 143 141 141 141 141 143 141 141 143 143 143 143 141 141 141 141 141 141 141 141 141 141 141 141 141 141 143 143 141 141 141 141 141 141 143 141 141 141 141 141 141 141 141 141 141 141 141 143 143 141 141 143 143 143 143 121 141 1 131 42 1 131 131 131 131 131 131 111 131 131 111 111 111 111 111 111 111 111 111 111 131 111 131 131 131 131 131 131 131 131 111 111 131 131 111 111 111 111 111 111 111 111 111 111 111 111 111 111 111 111 111 111 111 111 111 111 111 111 111 111 111 111 111 111 111 111 111 111 111 111 111 111 111 111 
0 111 111 111 111 111 111 111 111 111 111 111 111 111 111 111 111 111 111 111 111 111 111 111 111 111 111 111 111 111 111 111 111 111 111 111 111 111 111 111 111 111 111 111 111 111 111 111 111 111 111 111 111 111 111 111 111 111 111 111 111 111 111 111 111 111 111 111 111 111 111 131 131 131 131 142 142 142 142 142 142 142 143 143 143 143 143 143 143 143 141 141 141 141 141 141 141 141 141 143 143 143 143 143 141 141 141 143 143 143 143 141 141 141 143 141 141 143 143 143 143 141 141 141 143 143 152 141 152 141 141 141 141 141 141 141 141 141 141 141 141 141 141 141 141 141 143 143 143 176 176 152 143 1 131 1 176 123 131 176 1 131 131 131 131 131 131 131 131 131 131 131 131 131 131 131 131 131 131 131 124 131 131 131 131 111 131 111 111 111 111 111 111 111 111 111 111 111 111 111 111 111 111 111 111 111 111 111 111 111 111 111 111 111 111 111 111 111 111 111 111 111 111 111 111 111 
0 111 111 111 111 111 111 111 111 111 111 111 111 111 111 111 111 111 111 111 111 111 111 111 111 111 111 111 111 111 111 111 111 111 111 111 111 111 111 111 111 111 111 111 111 111 111 111 111 111 111 111 111 111 111 111 111 111 111 111 111 111 111 111 111 111 111 111 111 131 131 131 131 176 131 142 142 142 142 142 142 142 143 143 143 143 143 143 143 143 143 143 141 141 141 141 143 141 143 143 143 143 143 143 143 143 143 143 143 143 143 141 141 141 141 141 141 141 141 143 141 141 141 152 141 152 152 152 176 141 143 141 141 141 141 141 176 131 152 141 141 141 141 141 141 141 143 143 143 152 176 152 152 176 131 36 152 143 142 143 143 190 176 1 131 131 131 131 131 131 131 131 131 131 131 131 131 131 131 131 176 142 152 131 131 131 111 131 131 111 111 111 111 111 111 111 111 111 111 111 111 111 111 111 111 111 111 111 111 111 111 111 111 111 111 111 111 111 111 111 111 111 111 111 111 111 
0 111 111 111 111 111 111 111 111 111 111 111 111 111 111 111 111 111 111 111 111 111 111 111 111 111 111 111 111 111 111 111 111 111 111 111 111 111 111 111 111 111 111 111 111 111 111 111 111 111 111 111 111 111 111 111 111 111 111 111 111 111 111 111 111 111 111 111 131 131 131 176 176 176 176 142 142 142 142 142 142 142 142 143 143 143 36 176 143 143 143 143 143 141 141 141 143 143 141 143 141 141 143 143 143 143 143 143 143 143 141 141 141 141 141 141 141 141 141 141 141 141 141 176 1 176 176 176 176 141 143 143 141 141 141 141 176 176 176 141 141 141 141 141 141 141 143 143 143 152 152 152 152 42 131 176 176 152 143 143 143 143 143 152 176 122 176 131 131 176 36 131 143 143 143 143 143 143 142 142 143 141 141 143 152 131 131 131 131 131 111 111 111 111 111 111 111 111 111 111 111 111 111 111 111 111 111 111 111 111 111 111 111 111 111 111 111 111 111 111 111 111 111 111 111 111 
0 111 111 111 111 111 111 111 111 111 111 111 111 111 111 111 111 111 111 111 111 111 111 111 111 111 111 111 111 111 111 111 111 111 111 111 111 111 111 111 111 111 111 111 111 111 111 111 111 111 111 111 111 111 111 111 111 111 111 111 111 111 111 111 111 111 131 131 131 121 142 142 142 142 195 142 142 142 142 142 142 142 142 142 143 152 176 152 143 143 143 143 143 143 143 141 141 141 141 143 141 141 143 143 143 141 143 143 143 141 141 141 141 141 141 141 143 143 141 141 141 141 176 176 176 131 131 176 152 141 141 141 141 141 141 176 176 176 176 141 141 141 141 141 141 141 152 152 152 152 176 152 152 176 176 176 176 36 152 143 36 152 152 152 152 152 176 176 176 152 143 143 143 143 143 143 143 143 143 143 143 141 141 141 141 141 176 28 131 131 131 111 111 111 111 111 111 111 111 111 111 111 111 111 111 111 111 111 111 111 111 111 111 111 111 111 111 111 111 111 111 111 111 111 111 111 
0 111 111 111 111 111 111 111 111 111 111 111 111 111 111 111 111 111 111 111 111 111 111 111 111 111 111 111 111 111 111 111 111 111 111 111 111 111 111 111 111 111 111 111 111 111 111 111 111 111 111 111 111 111 111 111 111 111 111 111 111 111 111 131 131 131 131 176 176 142 176 176 142 142 142 142 142 142 142 142 142 142 142 142 190 142 142 152 142 143 143 143 143 143 143 141 143 141 143 141 143 143 143 143 143 141 143 141 141 141 141 143 141 141 141 141 141 143 141 141 141 152 176 131 131 176 131 152 141 141 141 141 141 141 152 176 176 176 152 141 141 152 152 152 141 36 152 176 152 176 176 152 176 152 176 176 176 176 176 152 152 152 190 142 142 142 176 176 1 152 143 143 143 143 143 143 141 141 143 143 141 141 141 141 141 141 141 143 36 131 131 131 131 131 111 111 111 111 111 111 111 111 111 111 111 111 111 111 111 111 111 111 111 111 111 111 111 111 111 111 111 111 111 111 111 111 
0 111 111 111 111 111 111 111 111 111 111 111 111 111 111 111 111 111 111 111 111 111 111 111 111 111 111 111 111 111 111 111 111 111 111 111 111 111 111 111 111 111 111 111 111 111 111 111 111 111 111 111 111 111 111 111 111 111 111 111 111 111 131 131 131 1 176 131 176 176 142 1 142 142 142 142 142 142 142 142 142 142 142 142 142 142 142 142 143 143 143 143 143 143 143 143 143 143 143 143 143 143 143 143 141 143 143 143 141 141 141 143 141 141 143 141 141 141 141 141 141 141 152 152 152 176 176 176 141 141 141 141 141 152 176 176 176 176 141 141 141 152 176 141 141 176 176 176 176 176 131 152 131 131 131 131 131 131 176 176 152 152 142 142 142 176 176 131 176 141 143 143 143 143 143 143 141 141 143 141 141 141 141 141 141 141 141 141 141 152 176 1 131 131 131 131 111 111 111 111 111 111 111 111 111 111 111 111 111 111 111 111 111 111 111 111 111 111 111 111 111 111 111 111 111 111 
0 111 111 111 111 111 111 111 111 111 111 111 111 111 111 111 111 111 111 111 111 111 111 111 111 111 111 111 111 111 111 111 111 111 111 111 111 111 111 111 111 111 111 111 111 111 111 111 111 111 111 111 111 111 111 111 111 111 111 111 131 131 131 131 195 131 131 131 131 176 142 176 176 176 142 142 142 142 142 142 142 142 142 142 142 142 142 190 143 143 143 143 143 143 143 143 143 143 143 143 143 143 143 141 143 143 143 143 141 141 141 141 141 141 143 141 141 141 141 141 141 141 141 141 141 141 152 152 141 141 141 141 141 176 152 176 152 152 152 141 141 141 141 141 141 152 152 176 152 176 176 176 131 176 176 131 131 131 131 176 152 190 190 143 143 143 176 176 1 141 141 141 141 141 141 143 141 141 141 141 141 141 141 141 141 141 143 143 143 141 141 141 131 131 131 131 131 111 111 111 111 111 111 111 111 111 111 111 111 111 111 111 111 111 111 111 111 111 111 111 111 111 111 111 111 111 
0 111 111 111 111 111 111 111 111 111 111 111 111 111 111 111 111 111 111 111 111 111 111 111 111 111 111 111 111 111 111 111 111 111 111 111 111 111 111 111 111 111 111 111 111 111 111 111 111 111 111 111 111 111 111 111 131 131 131 131 131 131 42 131 131 176 131 131 176 131 176 176 152 142 142 142 142 142 142 142 142 142 142 142 142 190 142 142 152 176 176 143 143 143 143 141 143 143 143 143 143 143 143 143 143 143 143 143 141 141 143 143 141 141 143 141 141 141 141 141 141 141 141 141 141 141 141 141 141 141 141 141 141 152 152 152 176 176 176 176 176 152 141 141 141 141 141 141 141 152 152 143 152 176 131 131 131 131 131 176 152 152 176 143 143 143 143 176 131 143 143 141 141 141 141 141 141 141 141 141 141 141 141 143 143 143 143 143 143 143 141 143 143 152 152 36 131 131 111 111 111 111 111 111 111 111 111 111 111 111 111 111 111 111 111 111 111 111 111 111 111 111 111 111 111 111 
0 111 111 111 111 111 111 111 111 111 111 111 111 111 111 111 111 111 111 111 111 111 111 111 111 111 111 111 111 111 111 111 111 111 111 111 111 111 111 111 111 111 111 111 111 111 111 111 111 111 111 111 111 111 111 131 131 131 131 176 176 176 131 131 131 131 176 176 176 131 131 176 152 142 142 142 142 142 142 142 142 142 142 142 142 142 142 142 142 142 152 176 143 143 143 141 143 143 143 141 141 143 143 143 143 143 143 143 141 143 143 141 141 141 141 141 141 141 141 141 141 141 141 141 141 141 141 141 141 141 141 141 141 141 141 141 141 152 152 176 176 176 141 141 141 141 141 141 143 141 152 141 152 152 152 176 131 28 176 131 152 152 152 143 176 143 143 143 176 152 152 143 141 141 141 141 141 141 141 141 141 141 141 143 143 143 141 141 141 143 141 141 143 143 143 143 1 131 131 111 111 111 111 111 111 111 111 111 111 111 111 111 111 111 111 111 111 111 111 111 111 111 111 111 111 111 
0 111 111 111 111 111 111 111 111 111 111 111 111 111 111 111 111 111 111 111 111 111 111 111 111 111 111 111 111 111 111 111 111 111 111 111 111 111 111 111 111 111 111 111 111 111 111 111 111 111 111 111 111 111 111 131 131 1 176 176 176 176 131 131 131 131 176 131 176 131 176 176 176 142 142 142 142 142 142 142 142 142 142 142 142 142 142 1 190 152 142 142 141 143 143 143 143 143 143 141 143 143 143 143 143 143 143 141 141 143 143 141 141 141 141 141 141 141 141 141 141 141 141 141 141 141 141 141 141 141 141 141 141 141 141 141 141 152 152 176 176 152 152 141 141 141 141 141 152 152 141 141 141 152 143 152 176 152 152 190 152 152 152 190 152 176 152 152 176 176 152 143 141 143 143 143 141 141 141 141 141 141 143 143 143 141 141 141 141 141 141 143 143 143 143 141 143 152 131 131 111 111 111 111 111 111 111 111 111 111 111 111 111 111 111 111 111 111 111 111 111 111 111 111 111 111 
0 111 111 111 111 111 111 111 111 111 111 111 111 111 111 111 111 111 111 111 111 111 111 111 111 111 111 111 111 111 111 111 111 111 111 111 111 111 111 111 111 111 111 111 111 111 111 111 111 111 111 111 111 111 131 131 131 131 5 176 176 176 131 131 131 131 176 176 176 176 176 176 142 142 142 142 142 142 142 143 143 143 142 142 142 142 142 152 152 152 152 143 143 143 143 143 143 143 143 143 143 143 143 143 143 143 143 141 141 143 141 141 141 141 141 141 141 141 141 141 141 141 141 141 141 141 141 141 141 141 141 141 141 141 141 141 141 152 152 152 176 176 152 152 141 141 121 152 152 141 141 141 141 141 141 121 152 152 143 141 176 143 152 176 176 152 176 152 176 176 152 143 143 143 143 143 143 141 141 141 141 141 143 143 143 141 143 141 141 141 143 143 143 143 143 143 141 143 36 131 131 111 111 111 111 111 111 111 111 111 111 111 111 111 111 111 111 111 111 111 111 111 111 111 111 111 
0 111 111 111 111 111 111 111 111 111 111 111 111 111 111 111 111 111 111 111 111 111 111 111 111 111 111 111 111 111 111 111 111 111 111 111 111 111 111 111 111 111 111 111 111 111 111 111 111 111 111 111 111 111 131 131 131 131 176 131 131 131 131 131 131 176 176 176 176 176 176 176 142 142 142 142 142 142 142 142 143 143 143 143 142 142 142 142 190 176 176 176 143 143 143 143 142 143 143 143 143 143 143 143 143 143 143 143 141 143 143 141 141 141 141 141 141 141 141 141 141 141 141 141 141 141 141 141 141 141 141 141 141 141 141 141 141 176 176 176 176 176 176 152 152 176 176 176 176 152 141 141 141 141 141 141 141 141 141 143 141 152 152 176 176 152 152 176 176 176 141 143 143 143 141 143 143 143 141 141 141 141 143 141 141 143 141 143 143 143 143 143 141 141 143 143 143 141 143 1 131 131 111 111 111 111 111 111 111 111 111 111 111 111 111 111 111 111 111 111 111 111 111 111 111 111 
0 111 111 111 111 111 111 111 111 111 111 111 111 111 111 111 111 111 111 111 111 111 111 111 111 111 111 111 111 111 111 111 111 111 111 111 111 111 111 111 111 111 111 111 111 111 111 111 111 111 111 111 111 131 131 131 131 131 131 176 131 131 131 131 131 131 176 176 176 176 176 176 176 142 142 142 142 143 143 143 143 143 143 143 143 143 142 142 142 142 152 143 143 143 143 142 142 143 143 143 143 143 143 143 143 143 141 141 141 143 143 143 141 141 141 141 141 141 141 141 141 141 141 141 141 141 141 141 141 141 141 141 141 141 141 141 141 152 176 176 176 176 176 190 152 176 176 176 176 36 141 176 152 141 141 141 141 141 141 143 141 141 152 152 152 152 152 152 152 141 141 143 143 143 143 143 143 143 143 143 143 141 141 141 141 141 143 143 143 143 143 143 141 141 143 143 143 143 143 143 131 131 111 111 111 111 111 111 111 111 111 111 111 111 111 111 111 111 111 111 111 111 111 111 111 111 
0 111 111 111 111 111 111 111 111 111 111 111 111 111 111 111 111 111 111 111 111 111 111 111 111 111 111 111 111 111 111 111 111 111 111 111 111 111 111 111 111 111 111 111 111 111 111 111 111 111 111 111 131 131 131 131 131 131 131 131 131 131 131 131 131 176 131 176 176 131 176 176 176 142 142 142 142 143 143 143 143 143 143 143 143 143 143 142 142 176 142 143 143 143 143 142 143 143 143 143 143 143 143 143 143 143 141 143 143 141 143 143 141 141 141 141 141 141 141 141 141 141 141 141 141 141 141 141 141 141 141 141 141 141 141 141 141 141 152 176 176 143 152 176 176 152 152 176 176 176 176 176 152 141 141 141 141 141 141 141 141 141 141 141 152 152 152 152 141 141 141 141 143 143 143 143 141 143 143 143 143 143 143 143 143 143 143 143 190 143 143 143 143 143 143 143 143 143 143 143 152 131 131 111 111 111 111 111 111 111 111 111 111 111 111 111 111 111 111 111 111 111 111 111 111 111 
0 111 111 111 111 111 111 111 111 111 111 111 111 111 111 111 111 111 111 111 111 111 111 111 111 111 111 111 111 111 111 111 111 111 111 111 111 111 111 111 111 111 111 111 111 111 111 111 111 111 111 131 131 131 131 131 131 131 131 131 131 131 131 131 131 131 131 131 131 176 176 176 142 142 142 142 142 142 143 143 143 143 143 143 143 143 143 143 142 176 152 143 143 143 143 142 143 143 143 143 143 143 143 143 143 143 143 143 143 143 143 141 141 141 141 141 141 141 141 143 143 141 141 141 141 141 141 141 141 141 141 141 141 141 141 141 141 141 141 141 141 143 141 152 176 152 152 176 176 176 121 176 152 141 141 141 141 141 141 152 141 141 141 152 141 152 152 141 141 141 141 141 141 143 143 143 141 141 141 143 143 143 143 143 143 143 141 143 143 143 143 143 143 143 143 143 143 143 141 143 143 131 131 131 131 111 111 111 111 111 111 111 111 111 111 111 111 111 111 111 111 111 111 111 111 111 
0 111 111 111 111 111 111 111 111 111 111 111 111 111 111 111 111 111 111 111 111 111 111 111 111 111 111 111 111 111 111 111 111 111 111 111 111 111 111 111 111 111 111 111 111 111 111 111 111 111 131 131 131 131 131 131 131 131 131 131 131 176 176 176 131 131 131 131 176 176 176 176 142 176 176 142 143 143 143 143 143 143 143 143 143 143 143 143 143 176 141 143 143 143 143 143 143 142 142 142 142 142 143 143 143 143 143 143 143 143 143 141 141 141 141 141 141 143 141 141 141 141 141 141 141 141 141 141 141 141 141 141 141 141 141 141 141 141 141 141 143 143 143 141 143 152 152 176 176 131 131 176 152 141 141 141 141 141 152 152 143 152 141 152 152 152 141 141 141 141 141 141 143 143 143 143 141 141 143 143 143 143 143 141 141 141 141 141 141 143 141 143 143 143 143 143 143 143 141 143 143 143 131 131 131 131 111 111 111 111 111 111 111 111 111 111 111 111 111 111 111 111 111 111 111 111 
0 111 111 111 111 111 111 111 111 111 111 111 111 111 111 111 111 111 111 111 111 111 111 111 111 111 111 111 111 111 111 111 111 111 111 111 111 111 111 111 111 111 111 111 111 111 111 111 131 131 131 131 131 131 131 131 131 131 131 131 131 131 131 131 131 131 131 131 176 176 176 176 176 1 190 142 142 143 143 143 141 143 143 143 143 143 143 143 143 141 141 143 143 142 142 143 142 142 142 142 142 143 143 143 141 143 141 141 143 143 141 141 141 143 141 141 141 141 141 141 141 141 141 141 141 141 141 141 141 141 141 141 143 141 141 141 141 141 143 143 142 190 190 190 143 143 143 176 176 131 176 176 176 152 141 141 141 152 176 176 152 152 152 36 152 176 152 141 141 141 141 141 143 143 141 141 141 141 141 141 141 141 141 141 141 141 141 141 141 143 143 143 143 143 143 143 143 143 143 143 143 143 143 131 131 131 131 111 111 111 111 111 111 111 111 111 111 111 111 111 111 111 111 111 111 111 
0 111 111 111 111 111 111 111 111 111 111 111 111 111 111 111 111 111 111 111 111 111 111 111 111 111 111 111 111 111 111 111 111 111 111 111 111 111 111 111 111 111 111 111 111 111 111 111 131 131 131 131 131 131 131 131 131 131 131 131 176 176 131 131 131 131 176 176 176 176 176 176 142 142 142 142 142 143 143 143 143 143 143 143 143 143 143 143 143 143 143 143 143 142 142 143 143 143 143 143 143 143 142 141 141 141 141 141 141 141 143 141 141 141 141 143 141 141 141 141 141 141 141 141 143 143 141 141 141 141 141 143 141 141 141 141 141 142 142 190 142 142 142 190 143 143 141 152 176 176 176 152 152 141 141 141 152 176 176 176 152 152 152 176 152 152 141 141 141 141 141 143 143 141 143 143 143 143 141 141 141 141 141 141 141 141 141 141 141 143 143 143 143 143 143 143 143 143 143 143 143 143 143 143 122 131 131 131 131 111 111 111 111 111 111 111 111 111 111 111 111 111 111 111 111 111 
0 111 111 111 111 111 111 111 111 111 111 111 111 111 111 111 111 111 111 111 111 111 111 111 111 111 111 111 111 111 111 111 111 111 111 111 111 111 111 111 111 111 111 111 111 111 111 131 131 131 131 131 131 131 131 131 131 131 131 131 176 131 131 131 176 176 176 176 176 176 176 142 142 142 143 143 143 143 143 143 143 143 143 143 143 143 143 143 142 142 142 142 142 142 143 143 143 143 143 143 143 143 143 141 141 141 141 141 141 141 141 141 141 141 141 141 141 141 141 141 141 141 141 141 141 141 141 141 141 141 143 141 141 152 152 152 143 142 142 142 142 142 143 143 142 141 141 143 152 152 141 152 176 143 141 141 141 152 176 152 152 152 176 176 176 176 141 141 141 141 141 141 143 141 141 141 143 143 143 141 141 141 141 141 141 141 141 141 141 143 143 143 141 143 143 141 143 143 143 143 143 143 143 143 142 1 131 131 131 111 111 111 111 111 111 111 111 111 111 111 111 111 111 111 111 111 
0 111 111 111 111 111 111 111 111 111 111 111 111 111 111 111 111 111 111 111 111 111 111 111 111 111 111 111 111 111 111 111 111 111 111 111 111 111 111 111 111 111 111 111 111 111 111 131 131 176 131 131 131 131 131 131 131 131 176 176 176 176 131 176 1 176 176 176 176 176 142 142 142 143 143 143 143 143 143 143 143 141 141 141 143 143 143 143 143 143 143 143 141 143 143 141 143 143 143 143 141 141 141 141 141 141 141 141 141 141 141 141 141 141 141 141 141 141 141 141 141 141 141 141 141 141 141 141 141 141 141 152 152 152 152 152 143 142 142 142 142 143 143 141 141 141 141 141 141 141 141 141 143 143 143 143 143 143 143 152 152 152 141 152 152 152 152 121 141 141 141 141 141 141 141 141 141 141 141 141 141 141 141 141 141 141 141 141 143 143 143 143 143 141 143 141 143 141 143 143 143 143 143 143 142 36 131 131 131 131 111 111 111 111 111 111 111 111 111 111 111 111 111 111 111 111 
0 111 111 111 111 111 111 111 111 111 111 111 111 111 111 111 111 111 111 111 111 111 111 111 111 111 111 111 111 111 111 111 111 111 111 111 111 111 111 111 111 111 111 111 111 111 111 131 131 131 131 131 131 131 131 131 131 131 176 176 131 131 131 176 142 142 176 176 176 176 142 142 143 143 143 143 141 141 143 143 143 141 141 141 143 141 143 143 143 142 143 143 143 143 143 143 143 143 143 143 141 141 141 141 141 141 141 141 141 141 141 141 141 141 141 141 141 141 141 141 141 141 141 141 141 141 141 141 141 141 141 141 152 152 152 143 190 143 142 142 143 141 141 143 141 141 141 141 141 141 141 141 190 143 143 143 143 143 141 141 141 152 152 141 141 141 141 141 143 143 141 141 141 141 141 141 141 141 141 141 141 141 141 141 141 141 141 141 143 143 143 143 141 141 141 141 141 143 143 143 143 143 143 143 143 142 1 131 131 124 111 111 111 111 111 111 111 111 111 111 111 111 111 111 111 111 
0 111 111 111 111 111 111 111 111 111 111 111 111 111 111 111 111 111 111 111 111 111 111 111 111 111 111 111 111 111 111 111 111 111 111 111 111 111 111 111 111 111 111 111 111 111 111 131 131 131 131 131 131 131 131 131 131 131 131 131 176 131 131 176 142 142 176 142 142 142 142 142 142 143 143 143 143 143 143 141 141 141 141 141 141 141 143 143 143 143 141 143 143 143 141 143 141 141 141 143 141 141 141 141 141 141 141 141 141 141 141 141 141 141 141 141 141 141 141 141 141 141 141 141 141 141 141 141 141 141 141 141 141 141 141 141 143 190 143 141 143 141 141 141 141 141 143 143 141 143 141 141 143 190 143 143 143 143 143 141 143 143 143 141 141 141 141 141 141 141 141 141 141 143 141 141 141 141 141 141 143 141 141 141 141 141 143 143 143 143 141 141 141 141 141 143 143 143 143 143 143 143 142 142 142 142 142 121 1 131 131 111 111 111 111 111 111 111 111 111 111 111 111 111 111 111 
0 111 111 111 111 111 111 111 111 111 111 111 111 111 111 111 111 111 111 111 111 111 111 111 111 111 111 111 111 111 111 111 111 111 111 111 111 111 111 111 111 111 111 111 111 111 111 131 131 131 131 131 131 131 131 131 131 176 176 176 176 176 176 176 176 1 176 142 142 142 142 143 142 143 143 143 141 143 143 143 143 141 141 141 141 141 141 141 143 143 143 141 141 143 143 143 141 141 141 141 141 141 141 141 141 141 141 141 141 141 141 141 141 143 141 141 141 141 141 141 141 141 141 141 141 141 141 141 141 141 141 141 152 141 141 143 143 143 143 141 141 141 141 141 141 141 143 143 141 141 141 141 190 143 143 143 143 143 143 143 190 190 143 141 143 143 143 143 141 141 141 141 141 141 141 141 141 141 141 143 143 143 141 141 141 141 143 143 143 143 143 143 143 143 143 143 143 143 143 143 143 143 143 142 143 143 142 190 36 131 131 111 111 111 111 111 111 111 111 111 111 111 111 111 111 111 
0 111 111 111 111 111 111 111 111 111 111 111 111 111 111 111 111 111 111 111 111 111 111 111 111 111 111 111 111 111 111 111 111 111 111 111 111 111 111 111 111 111 111 111 111 111 111 111 131 131 131 131 131 131 131 131 131 131 176 176 176 176 176 142 176 176 176 176 176 190 142 143 143 143 143 141 143 143 143 143 143 141 141 141 141 141 141 141 141 141 143 141 141 141 143 141 141 141 141 141 141 141 141 141 141 141 141 141 141 141 141 141 141 141 143 141 141 141 141 141 141 141 141 141 141 141 141 141 141 141 141 141 141 152 143 152 152 152 141 141 141 141 141 141 141 143 141 141 141 141 141 141 143 143 143 143 143 143 190 143 143 190 143 141 143 143 141 143 141 141 141 141 141 141 143 143 141 141 141 143 143 143 143 141 141 141 141 143 143 143 143 143 143 143 143 143 143 142 143 143 142 143 143 143 143 143 143 143 143 176 131 131 111 111 111 111 111 111 111 111 111 111 111 111 111 111 
0 111 111 111 111 111 111 111 111 111 111 111 111 111 111 111 111 111 111 111 111 111 111 111 111 111 111 111 111 111 111 111 111 111 111 111 111 111 111 111 111 111 111 111 111 111 111 131 131 131 131 131 131 131 131 131 131 131 176 176 176 176 176 176 1 176 176 176 176 142 142 143 143 143 143 143 143 143 141 141 143 143 141 141 141 141 141 141 141 141 141 141 141 141 141 141 141 141 141 141 141 141 141 141 141 141 141 141 143 141 141 141 141 141 141 141 143 141 141 141 141 141 141 141 141 141 141 141 141 141 141 141 152 152 152 152 141 141 141 141 141 141 143 141 143 143 143 141 141 141 141 141 141 141 141 143 143 141 141 190 190 142 143 143 143 143 141 141 141 141 141 141 143 143 143 143 143 143 143 143 190 190 143 143 143 143 141 141 143 143 143 143 143 143 143 143 143 143 143 143 142 143 143 143 143 143 143 143 143 176 131 131 131 111 111 111 111 111 111 111 111 111 111 111 111 111 
0 111 111 111 111 111 111 111 111 111 111 111 111 111 111 111 111 111 111 111 111 111 111 111 111 111 111 111 111 111 111 111 111 111 111 111 111 111 111 111 111 111 111 111 111 111 111 131 131 131 131 131 131 131 131 131 131 131 176 176 131 176 176 176 195 152 142 142 142 142 142 142 143 141 143 143 143 141 141 141 141 141 143 141 141 141 141 141 141 141 141 141 141 141 141 141 141 141 141 141 141 141 141 141 141 141 141 141 141 141 141 141 141 141 141 141 141 141 141 141 141 141 141 141 141 141 141 141 141 141 141 141 152 152 152 152 141 141 141 141 141 141 141 141 143 143 143 143 141 141 141 141 141 141 141 141 141 141 141 143 141 143 143 141 141 141 141 141 141 141 141 141 143 143 190 143 143 143 143 143 190 143 143 143 143 143 143 141 143 142 143 143 143 143 143 143 142 143 143 143 142 143 142 143 143 143 143 143 142 142 131 131 131 111 111 111 111 111 111 111 111 111 111 111 111 111 
0 111 111 111 111 111 111 111 111 111 111 111 111 111 111 111 111 111 111 111 111 111 111 111 111 111 111 111 111 111 111 111 111 111 111 111 111 111 111 111 111 111 111 111 111 111 131 131 131 131 131 131 131 131 131 131 131 131 176 131 131 176 176 142 176 176 142 142 142 142 143 142 143 143 143 143 143 141 141 141 141 141 143 143 141 141 141 143 141 141 141 141 141 141 141 141 141 141 141 141 141 141 141 141 141 141 141 141 141 141 141 141 141 141 143 141 141 141 141 141 141 141 141 141 141 141 141 141 141 143 141 141 152 152 152 152 141 141 141 141 141 141 141 141 141 141 143 143 141 143 141 141 141 141 141 141 141 141 141 141 141 143 143 141 141 141 141 141 141 143 143 143 143 190 143 143 143 143 190 190 142 143 143 143 143 143 143 143 143 143 143 143 143 143 143 143 143 143 143 143 142 143 142 143 143 142 143 142 142 142 142 131 131 131 111 111 111 111 111 111 111 111 111 111 111 111 
0 111 111 111 111 111 111 111 111 111 111 111 111 111 111 111 111 111 111 111 111 111 111 111 111 111 111 111 111 111 111 111 111 111 111 111 111 111 111 111 111 111 111 111 111 111 131 131 131 131 131 131 131 131 131 131 131 176 176 131 176 176 195 142 176 176 142 142 143 143 143 143 143 143 143 143 143 141 141 141 141 141 141 141 141 141 143 143 141 141 141 141 141 141 141 141 141 141 141 141 141 141 141 141 141 141 141 141 141 141 141 141 141 141 141 141 141 141 141 141 141 141 141 141 141 141 141 141 141 141 152 141 152 141 152 141 141 141 141 141 141 141 141 141 141 141 141 141 143 143 141 141 141 141 141 141 141 141 141 143 143 141 143 143 143 143 143 141 141 141 143 143 143 143 143 143 143 143 142 190 190 143 143 143 143 143 143 143 142 143 143 143 143 142 143 1 36 176 36 143 36 36 143 142 142 142 142 142 142 142 142 123 131 131 111 111 111 111 111 111 111 111 111 111 111 111 
0 111 111 111 111 111 111 111 111 111 111 111 111 111 111 111 111 111 111 111 111 111 111 111 111 111 111 111 111 111 111 111 111 111 111 111 111 111 111 111 111 111 111 111 111 111 131 131 131 131 131 131 131 131 131 131 131 176 176 131 131 131 176 152 195 142 142 142 143 143 141 143 143 143 141 143 143 141 141 141 141 141 141 141 141 141 141 141 141 141 141 141 141 141 141 141 141 141 141 141 141 141 141 141 141 141 141 141 141 141 141 141 141 141 141 141 141 141 141 141 141 141 141 141 141 141 141 141 141 141 152 141 141 141 141 141 141 141 141 141 143 141 141 141 141 141 141 141 143 143 141 141 141 141 141 141 141 141 143 141 141 143 143 143 143 141 143 143 141 141 143 143 143 143 143 143 143 143 143 143 143 143 143 143 143 143 143 143 143 143 143 143 143 36 37 131 176 176 1 1 131 1 176 176 142 142 142 142 142 142 190 131 176 131 111 111 111 111 111 111 111 111 111 111 111 111 
0 111 111 111 111 111 111 111 111 111 111 111 111 111 111 111 111 111 111 111 111 111 111 111 111 111 111 111 111 111 111 111 111 111 111 111 111 111 111 111 111 111 111 111 111 111 131 131 131 131 131 131 131 131 131 131 131 176 176 131 176 176 176 142 176 142 142 142 142 143 143 141 143 143 143 143 143 143 143 141 141 141 141 141 141 141 141 141 141 141 141 141 141 141 141 141 141 141 141 141 141 141 141 141 141 141 141 141 141 141 141 141 141 141 141 141 141 141 141 141 141 141 141 141 141 141 141 141 141 141 141 141 141 141 141 141 141 141 141 141 143 141 141 141 141 141 141 141 143 143 141 141 141 141 141 141 141 141 143 143 143 143 143 143 143 143 143 141 141 141 143 143 143 143 143 143 143 143 143 143 143 143 143 143 143 143 143 143 143 142 142 143 143 1 131 131 131 131 131 131 131 131 131 152 142 190 142 142 190 142 142 190 152 131 131 131 111 111 111 111 111 111 111 111 111 111 
0 111 111 111 111 111 111 111 111 111 111 111 111 111 111 111 111 111 111 111 111 111 111 111 111 111 111 111 111 111 111 111 111 111 111 111 111 111 111 111 111 111 111 111 111 111 131 131 131 131 131 131 131 131 131 131 131 176 131 176 176 176 176 142 142 142 142 142 143 141 141 141 141 141 141 143 143 143 143 141 141 141 141 141 141 176 141 152 141 141 141 141 141 141 141 141 141 141 141 141 141 141 141 141 141 141 141 141 141 141 141 141 141 141 141 141 141 141 141 141 141 141 141 141 141 141 141 141 143 141 141 141 141 141 141 141 141 141 141 141 143 141 141 141 141 141 141 141 141 141 141 143 141 143 141 143 143 143 143 143 143 143 143 143 143 141 141 141 141 141 143 143 143 143 143 143 143 143 143 143 143 143 143 143 143 143 143 142 142 143 143 143 195 131 131 131 131 176 195 176 142 195 176 195 190 142 142 142 142 142 142 142 152 176 131 131 131 111 111 111 111 111 111 111 111 111 
0 111 111 111 111 111 111 111 111 111 111 111 111 111 111 111 111 111 111 111 111 111 111 111 111 111 111 111 111 111 111 111 111 111 111 111 111 111 111 111 111 111 111 111 111 131 131 131 131 131 131 131 131 131 131 131 176 176 131 176 142 142 142 142 142 142 142 143 143 143 141 143 143 141 141 141 141 141 141 141 141 141 141 141 152 152 152 152 141 141 141 141 141 141 141 141 141 141 141 141 141 141 141 141 141 141 141 141 141 141 141 141 141 141 141 143 141 141 141 141 141 141 141 141 141 143 141 141 141 141 141 141 141 141 152 152 152 152 141 141 141 141 141 141 141 141 141 141 141 141 141 143 143 141 141 143 143 143 143 143 143 143 143 143 141 141 141 141 141 143 143 143 143 143 143 143 143 143 143 143 143 143 143 143 143 143 142 143 176 142 176 195 131 131 131 131 176 142 142 142 190 142 142 195 142 142 142 142 190 143 142 152 176 176 176 131 131 111 111 111 111 111 111 111 111 111 
0 111 111 111 111 111 111 111 111 111 111 111 111 111 111 111 111 111 111 111 111 111 111 111 111 111 111 111 111 111 111 111 111 111 111 111 111 111 111 111 111 111 111 111 111 131 131 131 131 131 131 131 131 131 131 131 176 176 131 176 142 142 142 142 142 142 142 143 143 143 143 143 141 141 141 141 141 141 143 143 143 143 143 143 141 152 176 176 152 141 141 141 141 141 141 141 141 141 141 141 141 141 141 141 141 141 141 141 141 141 141 141 141 141 143 143 143 141 141 141 141 141 141 141 141 143 141 141 141 141 141 141 141 152 152 152 152 152 152 141 141 141 143 141 141 141 141 143 143 143 141 143 143 143 143 143 143 141 143 143 143 143 143 143 143 141 141 141 143 143 143 143 143 143 143 143 143 143 143 143 143 143 142 143 142 142 176 176 131 131 131 131 131 131 176 176 142 142 142 195 195 176 195 195 142 142 142 142 142 190 152 176 176 176 195 131 131 131 111 111 111 111 111 111 111 111 
0 111 111 111 111 111 111 111 111 111 111 111 111 111 111 111 111 111 111 111 111 111 111 111 111 111 111 111 111 111 111 111 111 111 111 111 111 111 111 111 111 111 111 111 111 111 131 131 131 131 131 131 131 131 131 131 176 176 176 131 142 142 142 142 142 142 143 143 143 143 141 141 141 141 141 141 141 141 141 141 143 141 143 141 141 152 152 152 141 141 141 143 141 141 141 141 141 141 143 141 141 141 141 141 141 141 141 141 141 141 141 141 141 141 141 143 143 141 141 141 141 141 141 141 141 141 141 141 141 141 141 141 141 152 152 152 152 152 141 141 141 143 143 141 141 141 141 141 141 143 143 141 143 143 143 143 141 141 143 143 143 143 143 143 143 141 141 143 143 143 143 143 143 143 143 143 143 143 143 143 176 176 176 131 176 176 131 131 131 131 176 176 176 131 176 176 152 1 176 131 1 131 1 176 195 190 176 176 176 176 176 131 131 176 176 131 131 131 131 111 111 111 111 111 111 111 
0 111 111 111 111 111 111 111 111 111 111 111 111 111 111 111 111 111 111 111 111 111 111 111 111 111 111 111 111 111 111 111 111 111 111 111 111 111 111 111 111 111 111 111 111 131 131 131 131 131 131 131 131 131 131 131 176 176 176 176 142 142 142 142 142 142 142 143 143 143 143 141 141 141 141 141 141 141 141 141 143 141 143 141 141 143 141 152 152 141 141 141 143 141 141 141 141 141 143 143 143 141 141 141 141 141 141 141 141 141 141 141 141 141 141 143 141 141 141 141 141 141 141 141 141 143 141 141 141 141 141 141 141 141 141 141 152 141 141 141 141 143 141 141 141 141 141 143 143 143 143 141 143 143 143 141 143 143 143 143 143 143 143 143 143 143 141 143 143 143 143 143 143 143 143 143 143 143 121 131 131 131 131 131 131 131 131 131 131 131 131 131 131 131 131 131 131 131 131 131 131 131 131 131 131 131 131 131 131 131 131 131 131 176 131 131 131 131 131 111 111 111 111 111 111 111 
0 111 111 111 111 111 111 111 111 111 111 111 111 111 111 111 111 111 111 111 111 111 111 111 111 111 111 111 111 111 111 111 111 111 111 111 111 111 111 111 111 111 111 111 111 131 131 131 131 131 131 131 131 131 131 131 176 176 176 142 142 142 142 142 142 142 143 143 142 143 143 143 141 141 143 141 141 141 141 141 141 141 141 141 143 143 141 141 141 141 141 141 141 141 141 141 141 143 141 141 143 143 141 141 141 141 141 141 143 141 141 141 141 141 141 143 141 141 141 141 141 141 141 141 141 141 141 141 141 141 141 141 141 141 141 141 141 141 141 152 141 141 141 141 141 141 143 143 143 143 143 141 141 143 141 141 141 143 143 143 143 143 143 143 143 143 143 143 143 141 143 143 143 143 143 190 176 176 131 131 131 176 131 131 131 131 131 131 131 131 131 131 131 131 131 131 111 111 131 131 131 131 131 131 131 131 131 131 131 131 131 131 131 131 131 131 131 131 131 111 111 111 111 111 111 111 
0 111 111 111 111 111 111 111 111 111 111 111 111 111 111 111 111 111 111 111 111 111 111 111 111 111 111 111 111 111 111 111 111 111 111 111 111 111 111 111 111 111 111 111 111 131 131 131 131 131 131 131 131 131 131 176 131 176 176 142 142 142 142 142 142 142 143 142 142 143 143 143 141 143 143 141 141 143 143 143 143 141 141 141 143 143 141 141 141 141 141 141 141 143 141 141 141 143 141 141 143 143 143 141 141 141 141 141 143 141 141 141 141 141 141 141 141 141 141 141 141 141 141 141 141 141 141 141 141 141 141 141 141 141 141 141 141 141 141 141 141 143 141 141 141 141 141 141 143 143 143 141 141 143 143 143 141 143 143 143 141 143 190 143 143 143 143 143 143 143 141 141 143 143 176 176 131 131 131 131 131 131 131 131 111 111 111 111 111 111 111 111 111 111 111 111 111 111 111 111 111 111 111 111 131 131 131 131 131 131 131 131 131 131 131 131 131 131 131 131 111 111 111 111 111 111 
0 111 111 111 111 111 111 111 111 111 111 111 111 111 111 111 111 111 111 111 111 111 111 111 111 111 111 111 111 111 111 111 111 111 111 111 111 111 111 111 111 111 111 111 111 131 131 131 131 131 131 131 131 131 176 176 131 176 176 142 142 142 142 142 142 142 143 142 142 143 143 143 141 141 141 141 141 141 143 143 143 141 141 141 143 143 141 141 141 141 141 141 141 141 143 141 143 143 141 141 141 141 141 141 141 141 141 141 141 141 141 141 141 141 141 141 141 141 141 141 141 141 141 141 141 141 141 141 141 141 141 141 141 141 141 141 141 141 141 141 141 143 141 141 141 141 141 143 143 143 143 141 143 143 143 143 143 143 143 143 143 143 143 143 143 143 143 143 141 141 141 141 143 143 176 131 131 131 131 131 131 111 111 111 111 111 111 111 111 111 111 111 111 111 111 111 111 111 111 111 111 111 111 111 111 111 111 111 111 111 111 131 131 131 131 131 131 131 131 131 111 111 111 111 111 111 
0 111 111 111 111 111 111 111 111 111 111 111 111 111 111 111 111 111 111 111 111 111 111 111 111 111 111 111 111 111 111 111 111 111 111 111 111 111 111 111 111 111 111 111 111 131 131 131 131 131 131 131 131 131 131 176 131 176 176 142 142 142 142 142 142 143 143 143 143 143 143 143 141 141 141 141 141 143 143 142 143 141 141 141 143 143 141 141 141 141 141 141 141 143 142 143 143 141 141 141 141 141 141 141 141 141 141 141 141 141 141 141 141 141 141 141 141 141 141 141 141 143 143 141 143 141 141 141 141 141 141 143 141 141 141 141 141 141 141 141 141 141 141 141 141 152 152 141 143 141 143 143 143 143 143 143 143 143 143 143 143 143 143 143 143 143 143 141 141 141 141 143 152 176 131 131 131 131 123 111 111 111 111 111 111 111 111 111 111 111 111 111 111 111 111 111 111 111 111 111 111 111 111 111 111 111 111 111 111 111 111 111 111 111 111 111 111 131 131 131 131 111 111 111 111 111 
0 111 111 111 111 111 111 111 111 111 111 111 111 111 111 111 111 111 111 111 111 111 111 111 111 111 111 111 111 111 111 111 111 111 111 111 111 111 111 111 111 111 111 111 111 131 131 131 131 131 131 131 131 131 176 131 176 176 176 142 142 142 142 142 142 143 143 141 141 141 141 143 141 141 141 141 141 143 141 143 143 141 141 141 143 143 141 141 141 141 141 141 141 143 142 143 141 141 141 141 141 141 141 141 141 141 141 141 141 141 141 141 141 141 141 143 141 141 141 141 141 143 143 143 141 141 141 141 141 141 141 141 141 141 141 141 141 141 141 141 141 141 141 141 141 141 152 141 141 143 143 143 143 143 143 143 143 143 143 143 143 143 143 143 143 143 143 143 141 141 143 152 152 131 131 131 131 111 111 111 111 111 111 111 111 111 111 111 111 111 111 111 111 111 111 111 111 111 111 111 111 111 111 111 111 111 111 111 111 111 111 111 111 111 111 111 111 111 131 111 131 111 111 111 111 111 
0 111 111 111 111 111 111 111 111 111 111 111 111 111 111 111 111 111 111 111 111 111 111 111 111 111 111 111 111 111 111 111 111 111 111 111 111 111 111 111 111 111 111 111 131 131 131 131 131 131 131 131 131 131 176 176 176 142 142 142 142 142 142 142 143 143 142 141 141 141 141 141 141 141 141 141 141 143 143 143 143 141 141 141 141 141 141 141 141 141 141 141 141 141 143 143 141 141 141 141 141 141 141 141 141 141 141 141 141 141 141 141 141 141 141 141 141 141 141 141 141 141 141 141 141 141 141 141 141 141 141 141 141 141 152 152 141 141 141 141 141 141 141 141 141 141 141 141 141 143 143 143 143 143 143 143 143 143 143 143 143 143 143 143 143 143 143 143 143 143 176 176 131 131 131 111 111 111 111 111 111 111 111 111 111 111 111 111 111 111 111 111 111 111 111 111 111 111 111 111 111 111 111 111 111 111 111 111 111 111 111 111 111 111 111 111 111 111 111 111 111 111 111 111 111 111 
0 111 111 111 111 111 111 111 111 111 111 111 111 111 111 111 111 111 111 111 111 111 111 111 111 111 111 111 111 111 111 111 111 111 111 111 111 111 111 111 111 111 111 111 131 131 131 131 131 131 131 131 131 131 176 131 176 142 142 142 142 142 142 142 143 143 143 143 143 143 143 141 141 141 141 143 143 143 142 143 141 141 143 143 141 141 141 141 143 141 141 141 141 141 141 141 141 141 141 141 141 141 141 141 141 141 141 141 141 141 143 141 141 141 141 141 141 141 141 141 141 141 141 141 141 141 141 141 141 141 141 141 152 152 152 152 152 141 141 143 143 141 141 141 141 143 143 141 141 141 143 143 143 143 143 143 143 143 143 143 143 143 143 143 143 143 142 143 143 190 195 131 131 131 111 111 111 111 111 111 111 111 111 111 111 111 111 111 111 111 111 111 111 111 111 111 111 111 111 111 111 111 111 111 111 111 111 111 111 111 111 111 111 111 111 111 111 111 111 111 111 111 111 111 111 111 
0 111 111 111 111 111 111 111 111 111 111 111 111 111 111 111 111 111 111 111 111 111 111 111 111 111 111 111 111 111 111 111 111 111 111 111 111 111 111 111 111 111 111 111 131 131 131 131 131 131 131 131 131 131 176 176 176 142 142 142 142 142 142 143 143 143 143 143 141 141 141 143 143 141 143 143 143 141 141 141 141 141 141 141 141 141 141 141 141 141 141 141 143 141 141 141 141 143 141 141 141 141 141 141 141 141 141 141 141 141 141 141 141 141 141 141 141 141 141 141 141 141 141 141 141 141 141 141 141 141 141 152 141 152 152 152 152 152 141 143 143 141 141 141 141 143 143 141 141 141 143 190 143 143 143 143 143 143 143 143 143 143 143 143 143 143 143 143 142 176 131 131 131 111 111 111 111 111 111 111 111 111 111 111 111 111 111 111 111 111 111 111 111 111 111 111 111 111 111 111 111 111 111 111 111 111 111 111 111 111 111 111 111 111 111 111 111 111 111 111 111 111 111 111 111 111 
0 111 111 111 111 111 111 111 111 111 111 111 111 111 111 111 111 111 111 111 111 111 111 111 111 111 111 111 111 111 111 111 111 111 111 111 111 111 111 111 111 111 111 111 131 131 131 131 131 131 131 131 131 176 176 176 176 176 142 142 142 142 142 143 143 143 143 141 141 141 141 141 141 143 143 143 141 143 141 141 141 141 141 141 141 141 141 141 141 141 143 143 143 152 143 141 141 143 141 141 141 141 143 141 141 141 141 141 141 141 141 141 141 141 141 143 143 141 141 141 141 141 141 141 141 141 141 141 141 152 152 141 141 141 152 152 152 141 141 143 141 141 141 141 143 143 143 143 141 143 143 143 143 143 143 143 143 143 143 143 143 143 143 143 143 143 143 142 176 131 131 131 111 111 111 111 111 111 111 111 111 111 111 111 111 111 111 111 111 111 111 111 111 111 111 111 111 111 111 111 111 111 111 111 111 111 111 111 111 111 111 111 111 111 111 111 111 111 111 111 111 111 111 111 111 111 
0 111 111 111 111 111 111 111 111 111 111 111 111 111 111 111 111 111 111 111 111 111 111 111 111 111 111 111 111 111 111 111 111 111 111 111 111 111 111 111 111 111 111 131 131 131 131 131 131 131 131 131 131 176 176 176 152 142 142 142 142 142 142 143 143 141 141 143 141 141 141 141 141 143 143 143 143 143 143 141 141 141 141 141 141 141 141 141 141 141 143 143 143 152 141 141 141 152 141 143 141 141 141 141 141 141 141 143 141 141 141 141 141 141 141 143 143 141 141 141 141 141 141 141 141 141 141 141 152 152 143 141 141 152 152 152 141 141 143 143 141 141 141 143 143 143 143 141 143 143 143 143 143 141 143 143 143 143 143 143 143 143 143 143 143 143 142 142 131 131 111 111 111 111 111 111 111 111 111 111 111 111 111 111 111 111 111 111 111 111 111 111 111 111 111 111 111 111 111 111 111 111 111 111 111 111 111 111 111 111 111 111 111 111 111 111 111 111 111 111 111 111 111 111 111 111 
0 111 111 111 111 111 111 111 111 111 111 111 111 111 111 111 111 111 111 111 111 111 111 111 111 111 111 111 111 111 111 111 111 111 111 111 111 111 111 111 111 111 111 131 131 131 131 131 131 131 131 131 131 176 176 176 176 142 142 142 142 142 142 143 143 143 141 141 141 141 141 141 141 141 143 143 141 141 143 143 141 141 141 141 141 141 141 141 141 141 143 143 152 152 152 152 152 152 141 141 141 143 143 141 141 141 141 143 143 143 141 141 141 141 141 141 141 141 141 141 141 141 141 152 141 141 141 152 152 143 152 141 152 152 152 152 141 143 143 143 141 141 141 143 143 143 141 141 143 143 190 143 143 143 143 190 143 143 143 143 143 143 143 143 143 142 142 131 131 131 111 111 111 111 111 111 111 111 111 111 111 111 111 111 111 111 111 111 111 111 111 111 111 111 111 111 111 111 111 111 111 111 111 111 111 111 111 111 111 111 111 111 111 111 111 111 111 111 111 111 111 111 111 111 111 111 
0 111 111 111 111 111 111 111 111 111 111 111 111 111 111 111 111 111 111 111 111 111 111 111 111 111 111 111 111 111 111 111 111 111 111 111 111 111 111 111 111 111 111 131 131 131 131 131 131 131 131 131 131 131 176 176 176 142 142 142 142 142 142 143 143 143 141 141 141 141 141 141 141 141 141 141 141 141 141 141 141 141 141 141 141 141 141 141 152 141 143 143 152 152 152 152 152 152 141 141 143 141 141 141 141 141 141 141 141 143 141 141 141 141 141 141 141 141 141 141 141 141 152 152 152 141 141 152 152 152 152 152 143 190 152 152 141 141 141 141 141 141 143 143 143 143 143 143 143 142 143 190 143 143 143 143 143 143 143 142 143 143 143 143 143 142 131 131 111 111 111 111 111 111 111 111 111 111 111 111 111 111 111 111 111 111 111 111 111 111 111 111 111 111 111 111 111 111 111 111 111 111 111 111 111 111 111 111 111 111 111 111 111 111 111 111 111 111 111 111 111 111 111 111 111 111 
0 111 111 111 111 111 111 111 111 111 111 111 111 111 111 111 111 111 111 111 111 111 111 111 111 111 111 111 111 111 111 111 111 111 111 111 111 111 111 111 111 111 111 131 131 131 131 131 131 131 131 131 131 131 176 176 142 142 142 142 142 142 143 143 143 143 141 141 141 141 141 141 141 141 141 143 143 141 143 141 141 141 141 141 141 141 152 152 152 152 141 143 152 152 152 152 152 152 143 141 143 143 141 141 141 141 141 141 141 141 141 141 141 141 141 141 141 141 141 141 141 141 152 176 176 152 143 143 190 176 152 152 143 142 143 141 141 141 143 143 143 143 143 143 143 141 143 143 142 142 190 142 142 142 190 143 190 143 143 143 143 143 143 143 142 176 131 131 111 111 111 111 111 111 111 111 111 111 111 111 111 111 111 111 111 111 111 111 111 111 111 111 111 111 111 111 111 111 111 111 111 111 111 111 111 111 111 111 111 111 111 111 111 111 111 111 111 111 111 111 111 111 111 111 111 111 
0 111 111 111 111 111 111 111 111 111 111 111 111 111 111 111 111 111 111 111 111 111 111 111 111 111 111 111 111 111 111 111 111 111 111 111 111 111 111 111 111 111 131 131 131 131 131 131 131 131 131 131 131 176 176 176 142 142 142 142 142 142 143 143 141 143 143 141 141 141 141 141 143 143 141 141 143 143 141 141 141 141 143 141 141 141 152 152 152 152 152 141 141 152 152 152 152 152 141 143 141 141 141 141 141 143 143 141 141 141 141 141 141 141 141 141 141 141 141 141 141 141 152 176 176 152 152 143 143 152 152 152 142 142 142 143 141 143 141 143 143 143 143 143 143 141 143 143 142 143 142 142 142 142 143 142 190 142 142 143 143 143 143 190 142 131 131 111 111 111 111 111 111 111 111 111 111 111 111 111 111 111 111 111 111 111 111 111 111 111 111 111 111 111 111 111 111 111 111 111 111 111 111 111 111 111 111 111 111 111 111 111 111 111 111 111 111 111 111 111 111 111 111 111 111 111 
0 111 111 111 111 111 111 111 111 111 111 111 111 111 111 111 111 111 111 111 111 111 111 111 111 111 111 111 111 111 111 111 111 111 111 111 111 111 111 111 111 111 131 131 131 131 131 131 131 131 131 131 176 176 176 176 142 142 142 142 142 142 141 143 143 143 141 141 141 141 141 141 141 141 141 143 143 141 141 143 141 141 141 141 141 141 152 141 152 152 152 141 141 152 152 152 152 152 141 141 141 143 141 141 141 143 141 143 143 141 141 141 141 141 141 141 141 141 141 141 141 152 152 152 143 143 152 143 143 152 143 142 152 152 143 141 143 143 143 143 143 143 141 143 143 141 143 142 142 143 143 142 142 143 142 142 142 142 142 143 143 143 143 190 123 131 131 111 111 111 111 111 111 111 111 111 111 111 111 111 111 111 111 111 111 111 111 111 111 111 111 111 111 111 111 111 111 111 111 111 111 111 111 111 111 111 111 111 111 111 111 111 111 111 111 111 111 111 111 111 111 111 111 111 111 111 
0 111 111 111 111 111 111 111 111 111 111 111 111 111 111 111 111 111 111 111 111 111 111 111 111 111 111 111 111 111 111 111 111 111 111 111 111 111 111 111 111 111 131 131 131 131 131 131 131 131 131 176 176 176 176 176 176 176 142 142 142 142 142 142 143 143 141 141 141 141 141 141 141 141 141 143 141 141 141 141 141 141 141 141 141 152 141 141 152 152 152 152 152 152 152 152 152 152 141 141 141 141 143 143 143 143 141 143 141 141 141 141 141 141 141 141 141 141 141 141 143 143 152 143 143 143 152 152 152 152 190 142 190 152 141 141 141 143 143 142 143 143 143 143 141 143 143 142 143 143 142 143 143 142 142 142 142 142 143 143 143 143 190 142 131 131 111 111 111 111 111 111 111 111 111 111 111 111 111 111 111 111 111 111 111 111 111 111 111 111 111 111 111 111 111 111 111 111 111 111 111 111 111 111 111 111 111 111 111 111 111 111 111 111 111 111 111 111 111 111 111 111 111 111 111 111 
0 111 111 111 111 111 111 111 111 111 111 111 111 111 111 111 111 111 111 111 111 111 111 111 111 111 111 111 111 111 111 111 111 111 111 111 111 111 111 111 111 131 131 131 131 131 131 131 131 152 152 142 142 176 152 176 176 176 142 142 142 142 142 143 143 143 143 141 141 141 141 141 141 141 141 141 141 141 141 141 141 141 141 143 152 152 152 152 152 152 152 152 152 152 152 152 152 152 141 141 141 141 141 141 141 143 143 143 141 141 141 141 141 141 141 141 141 141 152 152 142 190 143 152 152 152 152 152 152 190 142 152 152 152 141 143 143 143 142 142 143 143 143 143 143 143 142 142 142 143 142 142 143 143 142 142 190 143 143 143 143 190 142 142 131 111 111 111 111 111 111 111 111 111 111 111 111 111 111 111 111 111 111 111 111 111 111 111 111 111 111 111 111 111 111 111 111 111 111 111 111 111 111 111 111 111 111 111 111 111 111 111 111 111 111 111 111 111 111 111 111 111 111 111 111 111 
0 111 111 111 111 111 111 111 111 111 111 111 111 111 111 111 111 111 111 111 111 111 111 111 111 111 111 111 111 111 111 111 111 111 111 111 111 111 111 111 111 131 131 131 131 131 131 131 1 143 143 143 142 142 142 1 176 176 176 142 142 142 142 143 143 143 143 143 141 141 141 141 141 141 141 141 141 141 141 141 141 141 141 141 152 152 152 152 141 152 152 152 152 152 152 152 152 152 141 141 141 141 141 141 141 141 141 141 141 141 141 141 141 141 141 141 152 152 152 152 143 152 143 143 152 152 152 152 152 152 142 152 190 152 143 143 143 143 143 143 143 143 143 190 143 143 142 142 143 143 143 142 143 142 142 142 142 143 143 143 190 142 142 131 131 111 111 111 111 111 111 111 111 111 111 111 111 111 111 111 111 111 111 111 111 111 111 111 111 111 111 111 111 111 111 111 111 111 111 111 111 111 111 111 111 111 111 111 111 111 111 111 111 111 111 111 111 111 111 111 111 111 111 111 111 111 
0 111 111 111 111 111 111 111 111 111 111 111 111 111 111 111 111 111 111 111 111 111 111 111 111 111 111 111 111 111 111 111 111 111 111 111 111 111 111 111 111 131 131 131 131 131 131 176 142 143 143 142 142 142 142 142 176 176 176 142 142 142 142 143 143 143 143 141 141 141 141 141 141 141 141 141 141 141 141 141 141 141 141 141 141 141 152 152 141 143 152 152 152 152 152 152 152 152 152 143 141 141 141 141 141 143 143 143 141 141 141 141 141 141 141 141 152 152 152 152 152 152 152 152 152 152 152 152 152 152 152 152 190 142 143 143 143 143 143 143 143 143 143 143 143 143 142 142 142 143 142 142 143 142 142 142 142 143 143 143 190 142 142 131 111 111 111 111 111 111 111 111 111 111 111 111 111 111 111 111 111 111 111 111 111 111 111 111 111 111 111 111 111 111 111 111 111 111 111 111 111 111 111 111 111 111 111 111 111 111 111 111 111 111 111 111 111 111 111 111 111 111 111 111 111 111 
0 111 111 111 111 111 111 111 111 111 111 111 111 111 111 111 111 111 111 111 111 111 111 111 111 111 111 111 111 111 111 111 111 111 111 111 111 111 111 111 131 131 131 131 131 131 131 131 143 142 142 142 142 142 142 152 176 176 142 142 142 142 143 143 143 143 143 141 143 143 141 141 141 141 141 141 141 141 141 141 141 141 141 141 141 141 152 152 143 152 152 152 152 152 152 152 152 152 152 141 141 141 143 141 141 141 141 141 141 141 141 141 141 141 141 141 152 152 152 152 152 152 152 152 152 152 152 152 152 152 152 152 142 142 190 143 190 190 143 190 143 143 142 143 143 190 142 143 190 190 142 143 142 143 143 143 143 143 143 142 190 142 152 131 131 111 111 111 111 111 111 111 111 111 111 111 111 111 111 111 111 111 111 111 111 111 111 111 111 111 111 111 111 111 111 111 111 111 111 111 111 111 111 111 111 111 111 111 111 111 111 111 111 111 111 111 111 111 111 111 111 111 111 111 111 111 
0 111 111 111 111 111 111 111 111 111 111 111 111 111 111 111 111 111 111 111 111 111 111 111 111 111 111 111 111 111 111 111 111 111 111 111 111 111 111 111 131 131 131 131 131 131 131 131 176 143 142 142 142 142 142 152 176 176 142 142 142 142 142 143 143 141 143 141 143 141 141 143 141 141 141 141 141 141 141 141 141 141 141 141 141 143 152 152 152 152 152 152 152 152 152 152 152 152 152 141 143 141 141 141 141 143 141 141 141 141 141 141 141 141 152 152 152 152 152 152 152 152 152 152 143 152 152 143 152 152 152 152 152 190 142 143 190 190 152 143 143 142 143 190 142 143 143 190 190 142 143 190 142 142 142 142 142 143 143 190 143 152 131 131 111 111 111 111 111 111 111 111 111 111 111 111 111 111 111 111 111 111 111 111 111 111 111 111 111 111 111 111 111 111 111 111 111 111 111 111 111 111 111 111 111 111 111 111 111 111 111 111 111 111 111 111 111 111 111 111 111 111 111 111 111 111 
0 111 111 111 111 111 111 111 111 111 111 111 111 111 111 111 111 111 111 111 111 111 111 111 111 111 111 111 111 111 111 111 111 111 111 111 111 111 111 111 131 131 131 131 131 131 131 131 176 176 142 142 142 142 142 176 176 176 142 142 142 142 143 143 143 143 143 143 141 141 141 143 143 143 141 141 141 141 141 141 141 141 141 141 141 143 141 152 152 152 152 152 152 152 152 152 152 152 152 141 141 141 141 141 141 141 141 141 141 141 141 141 141 141 141 152 152 152 152 152 152 152 152 152 190 152 152 152 143 176 190 152 143 142 142 143 143 143 142 142 142 142 142 142 142 190 142 143 143 143 143 142 142 142 142 142 143 143 143 190 190 176 131 131 111 111 111 111 111 111 111 111 111 111 111 111 111 111 111 111 111 111 111 111 111 111 111 111 111 111 111 111 111 111 111 111 111 111 111 111 111 111 111 111 111 111 111 111 111 111 111 111 111 111 111 111 111 111 111 111 111 111 111 111 111 111 
0 111 111 111 111 111 111 111 111 111 111 111 111 111 111 111 111 111 111 111 111 111 111 111 111 111 111 111 111 111 111 111 111 111 111 111 111 111 111 111 131 131 131 131 131 131 131 131 176 176 176 190 142 142 142 152 176 142 142 142 142 143 143 143 143 143 143 143 141 141 143 143 143 141 141 141 141 141 141 141 141 141 141 141 141 143 141 141 152 152 152 152 152 152 152 152 152 152 152 141 141 141 141 141 141 141 141 141 141 141 141 141 141 141 152 152 152 152 152 152 152 152 152 152 152 152 152 152 143 176 152 190 142 176 190 190 143 190 142 142 142 142 142 142 142 142 190 143 190 143 142 142 142 142 142 142 143 143 190 152 190 131 131 111 111 111 111 111 111 111 111 111 111 111 111 111 111 111 111 111 111 111 111 111 111 111 111 111 111 111 111 111 111 111 111 111 111 111 111 111 111 111 111 111 111 111 111 111 111 111 111 111 111 111 111 111 111 111 111 111 111 111 111 111 111 111 
0 111 111 111 111 111 111 111 111 111 111 111 111 111 111 111 111 111 111 111 111 111 111 111 111 111 111 111 111 111 111 111 111 111 111 111 111 111 111 111 131 131 131 131 131 131 131 131 176 131 131 176 142 142 143 176 142 142 142 143 143 143 143 143 143 143 143 143 143 143 143 143 143 141 143 141 141 143 141 141 141 141 141 143 143 143 141 141 152 152 152 152 152 176 143 152 190 143 143 141 143 141 141 141 141 141 141 141 141 143 141 141 141 141 152 152 152 152 152 152 152 152 152 152 152 143 141 152 143 142 143 190 152 152 143 143 143 190 142 142 190 142 190 142 142 142 142 142 142 142 142 142 142 190 142 142 143 143 152 152 176 131 131 111 111 111 111 111 111 111 111 111 111 111 111 111 111 111 111 111 111 111 111 111 111 111 111 111 111 111 111 111 111 111 111 111 111 111 111 111 111 111 111 111 111 111 111 111 111 111 111 111 111 111 111 111 111 111 111 111 111 111 111 111 111 111 
0 111 111 111 111 111 111 111 111 111 111 111 111 111 111 111 111 111 111 111 111 111 111 111 111 111 111 111 111 111 111 111 111 111 111 111 111 111 111 131 131 131 131 131 131 131 131 131 176 176 131 176 176 176 176 176 142 142 142 143 143 143 143 143 143 143 143 143 143 143 143 141 141 141 143 141 141 141 141 141 141 141 141 141 142 143 143 141 141 152 152 152 152 36 143 143 143 143 143 143 141 141 141 141 143 141 141 141 141 143 141 141 141 152 152 152 152 152 152 152 152 152 152 152 152 152 152 152 152 142 143 152 143 152 143 143 143 143 143 190 142 142 142 142 142 142 142 142 142 142 142 142 143 143 142 142 142 142 143 142 131 131 111 111 111 111 111 111 111 111 111 111 111 111 111 111 111 111 111 111 111 111 111 111 111 111 111 111 111 111 111 111 111 111 111 111 111 111 111 111 111 111 111 111 111 111 111 111 111 111 111 111 111 111 111 111 111 111 111 111 111 111 111 111 111 111 
0 111 111 111 111 111 111 111 111 111 111 111 111 111 111 111 111 111 111 111 111 111 111 111 111 111 111 111 111 111 111 111 111 111 111 111 111 111 111 131 131 131 131 131 131 131 131 131 176 176 131 131 176 176 176 176 143 142 142 143 141 143 143 143 143 143 143 141 143 143 141 141 143 143 143 141 141 141 141 141 141 141 141 141 141 141 141 141 141 152 152 176 176 176 143 143 143 143 143 143 143 141 141 141 141 141 141 141 141 141 141 141 141 152 152 152 152 152 152 152 152 152 152 152 152 152 152 152 176 143 152 152 143 176 152 143 141 142 142 142 142 142 142 142 142 142 142 142 143 142 143 142 143 190 142 142 142 142 142 131 131 131 111 111 111 111 111 111 111 111 111 111 111 111 111 111 111 111 111 111 111 111 111 111 111 111 111 111 111 111 111 111 111 111 111 111 111 111 111 111 111 111 111 111 111 111 111 111 111 111 111 111 111 111 111 111 111 111 111 111 111 111 111 111 111 111 
0 111 111 111 111 111 111 111 111 111 111 111 111 111 111 111 111 111 111 111 111 111 111 111 111 111 111 111 111 111 111 111 111 111 111 111 111 111 131 131 131 131 131 131 131 131 131 131 176 176 176 176 131 131 131 176 176 176 142 142 141 143 143 143 143 141 143 143 143 143 141 141 143 143 143 143 143 141 141 143 143 141 141 141 141 141 141 141 141 143 152 176 176 176 141 141 143 143 143 141 143 143 143 141 141 141 141 141 143 143 141 141 141 152 152 152 152 152 152 152 152 152 152 152 152 152 152 152 152 152 152 143 190 190 141 141 141 143 143 142 142 142 142 142 142 190 190 143 142 142 142 142 143 142 142 190 190 142 152 131 131 131 111 111 111 111 111 111 111 111 111 111 111 111 111 111 111 111 111 111 111 111 111 111 111 111 111 111 111 111 111 111 111 111 111 111 111 111 111 111 111 111 111 111 111 111 111 111 111 111 111 111 111 111 111 111 111 111 111 111 111 111 111 111 111 111 
0 111 111 111 111 111 111 111 111 111 111 111 111 111 111 111 111 111 111 111 111 111 111 111 111 111 111 111 111 111 111 111 111 111 111 111 111 111 131 131 131 131 131 131 131 131 131 131 176 176 176 176 176 176 131 131 131 176 142 142 143 143 143 143 141 141 143 143 143 141 141 143 143 143 143 143 143 141 141 143 143 141 141 143 141 141 141 141 141 141 141 152 36 121 152 141 143 143 152 143 143 143 143 141 141 141 141 141 141 141 141 141 141 152 152 152 152 152 152 152 152 152 152 152 152 152 152 176 176 190 152 143 176 152 141 141 141 143 143 143 142 142 142 142 142 142 142 142 142 142 142 142 142 142 142 142 190 142 142 131 131 111 111 111 111 111 111 111 111 111 111 111 111 111 111 111 111 111 111 111 111 111 111 111 111 111 111 111 111 111 111 111 111 111 111 111 111 111 111 111 111 111 111 111 111 111 111 111 111 111 111 111 111 111 111 111 111 111 111 111 111 111 111 111 111 111 
0 111 111 111 111 111 111 111 111 111 111 111 111 111 111 111 111 111 111 111 111 111 111 111 111 111 111 111 111 111 111 111 111 111 111 111 111 111 131 131 131 131 131 131 131 131 131 131 176 176 176 176 142 176 176 176 131 176 142 142 143 143 143 143 141 143 143 143 143 141 143 143 143 143 143 143 143 141 141 143 143 141 141 143 141 141 141 143 143 141 143 141 141 141 176 176 152 141 152 143 143 143 143 141 141 141 141 141 141 141 141 141 141 152 152 152 152 152 152 143 152 152 152 152 152 152 176 122 152 190 152 143 152 176 141 141 141 143 143 143 142 142 142 142 142 142 142 142 142 142 142 142 190 143 142 142 190 142 152 195 131 111 111 111 111 111 111 111 111 111 111 111 111 111 111 111 111 111 111 111 111 111 111 111 111 111 111 111 111 111 111 111 111 111 111 111 111 111 111 111 111 111 111 111 111 111 111 111 111 111 111 111 111 111 111 111 111 111 111 111 111 111 111 111 111 111 
0 111 111 111 111 111 111 111 111 111 111 111 111 111 111 111 111 111 111 111 111 111 111 111 111 111 111 111 111 111 111 111 111 111 111 111 111 111 131 131 131 131 131 131 131 131 131 176 176 131 176 176 142 176 131 131 131 176 142 142 143 143 143 143 143 143 143 143 143 143 143 143 143 143 143 143 143 143 141 143 143 141 141 141 141 141 143 143 141 141 141 141 141 141 141 141 141 141 141 141 143 143 143 143 141 141 141 141 141 141 141 141 141 152 152 152 152 152 152 152 152 152 152 152 143 152 152 176 152 143 152 142 142 152 141 141 143 143 143 143 142 143 142 142 142 142 142 142 142 142 142 190 190 143 143 142 190 142 190 5 131 111 111 111 111 111 111 111 111 111 111 111 111 111 111 111 111 111 111 111 111 111 111 111 111 111 111 111 111 111 111 111 111 111 111 111 111 111 111 111 111 111 111 111 111 111 111 111 111 111 111 111 111 111 111 111 111 111 111 111 111 111 111 111 111 111 
0 111 111 111 111 111 111 111 111 111 111 111 111 111 111 111 111 111 111 111 111 111 111 111 111 111 111 111 111 111 111 111 111 111 111 111 111 111 131 131 131 131 131 131 131 131 131 176 176 176 176 176 176 176 176 131 131 131 142 142 143 143 143 143 143 143 143 143 143 143 143 143 143 143 143 143 143 143 141 141 141 141 141 141 141 141 141 141 141 141 143 141 141 141 143 142 141 141 141 141 143 141 143 143 143 143 143 143 143 141 141 141 141 152 152 152 152 152 176 152 152 152 152 152 152 152 176 176 152 143 143 143 190 143 141 141 143 143 142 143 143 143 142 142 143 142 142 143 142 142 142 190 142 143 142 142 142 142 142 131 131 111 111 111 111 111 111 111 111 111 111 111 111 111 111 111 111 111 111 111 111 111 111 111 111 111 111 111 111 111 111 111 111 111 111 111 111 111 111 111 111 111 111 111 111 111 111 111 111 111 111 111 111 111 111 111 111 111 111 111 111 111 111 111 111 111 
0 111 111 111 111 111 111 111 111 111 111 111 111 111 111 111 111 111 111 111 111 111 111 111 111 111 111 111 111 111 111 111 111 111 111 111 111 131 131 131 131 131 131 131 131 131 131 176 131 131 176 131 131 131 176 176 131 131 176 142 143 143 143 190 142 142 142 143 143 143 143 143 143 143 143 143 143 143 141 141 141 141 141 141 141 141 141 141 141 141 141 143 141 141 143 143 141 141 141 141 143 141 141 141 141 143 143 141 141 141 141 141 141 152 152 152 152 152 152 152 152 152 152 152 152 152 152 176 141 143 143 143 143 143 143 143 143 143 143 143 143 143 143 143 142 142 142 142 142 142 142 190 190 142 142 142 142 142 195 131 131 111 111 111 111 111 111 111 111 111 111 111 111 111 111 111 111 111 111 111 111 111 111 111 111 111 111 111 111 111 111 111 111 111 111 111 111 111 111 111 111 111 111 111 111 111 111 111 111 111 111 111 111 111 111 111 111 111 111 111 111 111 111 111 111 111 
0 111 111 111 111 111 111 111 111 111 111 111 111 111 111 111 111 111 111 111 111 111 111 111 111 111 111 111 111 111 111 111 111 111 111 111 111 131 131 131 131 131 131 131 131 131 131 131 176 131 176 131 176 131 131 176 131 1 131 176 143 176 176 176 176 36 176 176 131 176 131 143 143 143 143 143 143 143 141 141 141 141 141 141 141 141 141 152 141 141 143 143 143 141 143 143 141 143 141 141 141 141 141 141 141 141 143 141 141 141 141 141 141 152 152 152 152 152 152 152 152 152 152 152 141 141 152 152 143 143 143 143 143 143 143 143 143 142 143 143 143 143 143 143 143 142 142 142 143 190 142 142 142 142 142 142 142 142 122 131 111 111 111 111 111 111 111 111 111 111 111 111 111 111 111 111 111 111 111 111 111 111 111 111 111 111 111 111 111 111 111 111 111 111 111 111 111 111 111 111 111 111 111 111 111 111 111 111 111 111 111 111 111 111 111 111 111 111 111 111 111 111 111 111 111 111 
0 111 111 111 111 111 111 111 111 111 111 111 111 111 111 111 111 111 111 111 111 111 111 111 111 111 111 111 111 111 111 111 111 111 111 111 131 131 131 131 131 131 131 131 131 131 131 131 176 176 131 131 176 176 131 176 131 131 131 131 176 176 131 176 176 131 131 131 131 131 152 152 143 143 143 143 143 143 141 141 141 141 141 141 141 141 141 141 141 141 141 143 143 143 143 142 141 141 141 141 141 141 141 141 141 141 141 141 141 141 141 141 152 152 152 152 152 152 152 152 152 152 152 152 141 141 152 152 143 143 143 143 143 143 143 143 143 143 142 142 143 143 143 143 143 142 142 142 142 142 142 142 142 142 142 142 142 142 123 131 131 111 111 111 111 111 111 111 111 111 111 111 111 111 111 111 111 111 111 111 111 111 111 111 111 111 111 111 111 111 111 111 111 111 111 111 111 111 111 111 111 111 111 111 111 111 111 111 111 111 111 111 111 111 111 111 111 111 111 111 111 111 111 111 111 111 
0 111 111 111 111 111 111 111 111 111 111 111 111 111 111 111 111 111 111 111 111 111 111 111 111 111 111 111 111 111 111 111 111 111 111 111 111 131 131 131 131 131 131 131 131 131 131 176 176 131 131 131 131 176 131 131 131 131 131 176 176 176 176 131 131 131 176 131 176 176 176 176 143 143 143 143 143 141 141 141 141 141 141 141 141 141 141 141 141 141 143 143 143 143 141 143 143 141 141 141 141 141 143 141 141 141 141 141 141 141 141 152 152 152 152 152 152 152 152 152 152 152 152 141 141 141 152 143 143 143 143 143 143 143 143 143 143 143 143 143 143 143 142 143 142 143 143 142 190 142 142 142 142 142 142 142 142 142 122 131 131 111 111 111 111 111 111 111 111 111 111 111 111 111 111 111 111 111 111 111 111 111 111 111 111 111 111 111 111 111 111 111 111 111 111 111 111 111 111 111 111 111 111 111 111 111 111 111 111 111 111 111 111 111 111 111 111 111 111 111 111 111 111 111 111 111 
0 111 111 111 111 111 111 111 111 111 111 111 111 111 111 111 111 111 111 111 111 111 111 111 111 111 111 111 111 111 111 111 111 111 111 111 131 131 131 131 131 131 131 131 131 131 131 176 131 131 131 131 131 131 176 131 131 131 176 131 131 176 131 131 131 131 176 131 131 176 131 176 143 143 143 143 143 141 141 143 141 143 141 141 141 141 141 141 141 141 143 143 141 141 141 143 143 143 141 141 143 141 141 141 141 141 141 141 152 152 152 152 152 152 152 152 152 152 152 152 152 152 152 141 141 152 152 141 143 143 143 143 143 143 143 143 143 143 142 142 143 143 143 142 143 143 142 143 142 142 142 142 142 142 142 142 142 142 123 131 111 111 111 111 111 111 111 111 111 111 111 111 111 111 111 111 111 111 111 111 111 111 111 111 111 111 111 111 111 111 111 111 111 111 111 111 111 111 111 111 111 111 111 111 111 111 111 111 111 111 111 111 111 111 111 111 111 111 111 111 111 111 111 111 111 111 
0 111 111 111 111 111 111 111 111 111 111 111 111 111 111 111 111 111 111 111 111 111 111 111 111 111 111 111 111 111 111 111 111 111 111 131 131 131 131 131 131 131 131 131 131 131 176 176 176 176 176 131 131 131 131 131 131 131 131 131 131 176 131 131 131 131 131 131 176 131 1 152 143 143 143 143 143 141 141 141 141 141 141 141 141 141 141 141 141 143 143 143 141 141 141 143 143 143 143 143 141 141 141 141 141 141 141 141 152 152 152 152 152 152 152 152 152 152 152 152 152 152 152 141 141 141 141 143 143 143 143 143 143 143 143 143 143 143 143 143 143 143 143 143 142 142 142 142 142 142 142 142 142 142 142 142 142 142 131 131 111 111 111 111 111 111 111 111 111 111 111 111 111 111 111 111 111 111 111 111 111 111 111 111 111 111 111 111 111 111 111 111 111 111 111 111 111 111 111 111 111 111 111 111 111 111 111 111 111 111 111 111 111 111 111 111 111 111 111 111 111 111 111 111 111 111 
0 111 111 111 111 111 111 111 111 111 111 111 111 111 111 111 111 111 111 111 111 111 111 111 111 111 111 111 111 111 111 111 111 111 111 131 131 131 131 131 131 131 131 131 131 131 176 176 176 176 142 176 121 176 176 131 131 131 131 176 176 131 131 131 131 176 131 176 176 176 152 143 143 143 143 143 143 141 141 141 143 141 143 141 141 141 141 141 143 36 176 152 141 141 141 143 143 143 143 143 141 141 141 141 141 141 141 141 152 152 152 152 152 152 152 152 152 141 143 152 152 152 152 141 141 141 143 143 142 143 143 143 143 143 143 143 143 143 143 143 143 143 143 143 142 142 190 142 142 142 142 142 142 142 142 142 142 142 131 131 131 111 111 111 111 111 111 111 111 111 111 111 111 111 111 111 111 111 111 111 111 111 111 111 111 111 111 111 111 111 111 111 111 111 111 111 111 111 111 111 111 111 111 111 111 111 111 111 111 111 111 111 111 111 111 111 111 111 111 111 111 111 111 111 111 111 
0 111 111 111 111 111 111 111 111 111 111 111 111 111 111 111 111 111 111 111 111 111 111 111 111 111 111 111 111 111 111 111 111 111 131 131 131 131 131 131 131 131 131 131 176 152 176 143 143 143 143 142 143 142 142 142 176 131 131 176 131 131 131 176 131 1 131 176 190 152 141 143 143 143 143 143 141 141 143 143 143 143 143 143 141 143 141 141 141 152 176 176 141 141 141 143 143 143 143 143 143 143 141 141 141 141 141 141 141 152 152 152 143 152 152 152 152 141 152 152 152 152 141 141 141 141 143 143 143 143 143 143 142 143 143 143 143 143 143 190 190 143 142 143 143 143 142 190 142 142 142 142 142 142 142 142 142 142 131 131 111 111 111 111 111 111 111 111 111 111 111 111 111 111 111 111 111 111 111 111 111 111 111 111 111 111 111 111 111 111 111 111 111 111 111 111 111 111 111 111 111 111 111 111 111 111 111 111 111 111 111 111 111 111 111 111 111 111 111 111 111 111 111 111 111 111 
0 111 111 111 111 111 111 111 111 111 111 111 111 111 111 111 111 111 111 111 111 111 111 111 111 111 111 111 111 111 111 111 111 111 131 131 131 131 131 131 131 131 131 176 142 142 142 143 143 143 143 143 143 143 143 143 176 152 176 176 131 131 131 176 176 123 1 176 141 143 141 141 143 143 143 143 143 141 141 141 143 143 143 143 143 141 142 141 141 141 176 176 176 152 141 143 143 143 143 143 143 143 141 141 141 141 141 141 141 141 152 152 143 143 152 152 152 143 143 141 152 152 141 141 141 141 143 143 143 143 143 143 143 143 143 143 143 143 143 143 190 143 143 143 143 142 190 142 142 142 142 142 142 142 142 142 142 142 142 131 111 111 111 111 111 111 111 111 111 111 111 111 111 111 111 111 111 111 111 111 111 111 111 111 111 111 111 111 111 111 111 111 111 111 111 111 111 111 111 111 111 111 111 111 111 111 111 111 111 111 111 111 111 111 111 111 111 111 111 111 111 111 111 111 111 111 
0 111 111 111 111 111 111 111 111 111 111 111 111 111 111 111 111 111 111 111 111 111 111 111 111 111 111 111 111 111 111 111 111 111 131 131 131 131 131 131 131 131 176 152 142 143 143 143 143 143 143 143 143 143 143 143 141 36 152 36 152 176 131 131 42 176 176 176 152 143 141 141 143 141 143 143 143 141 141 141 141 143 141 143 143 143 143 141 141 141 143 176 176 176 36 141 141 141 143 143 143 143 143 141 141 141 141 141 141 141 141 152 143 143 152 152 143 142 143 141 141 143 143 143 141 152 143 143 143 143 143 143 142 143 143 143 143 143 143 190 143 190 143 143 142 142 142 142 142 142 142 142 142 142 142 142 142 142 176 131 131 111 111 111 111 111 111 111 111 111 111 111 111 111 111 111 111 111 111 111 111 111 111 111 111 111 111 111 111 111 111 111 111 111 111 111 111 111 111 111 111 111 111 111 111 111 111 111 111 111 111 111 111 111 111 111 111 111 111 111 111 111 111 111 111 111 
0 111 111 111 111 111 111 111 111 111 111 111 111 111 111 111 111 111 111 111 111 111 111 111 111 111 111 111 111 111 111 111 111 111 131 131 131 131 131 131 131 131 152 143 143 143 143 143 143 143 143 143 143 143 143 143 143 143 143 141 152 176 176 176 142 141 141 141 143 143 141 141 141 141 143 143 143 141 141 141 141 141 141 143 141 143 143 143 141 141 141 176 176 176 176 152 143 143 143 143 143 143 143 143 141 141 141 141 141 141 152 152 152 141 152 152 143 143 141 141 141 143 143 141 152 143 143 143 143 143 143 143 142 142 143 143 143 143 143 190 143 190 190 143 143 142 142 190 142 142 142 142 143 143 142 142 142 142 142 131 131 111 111 111 111 111 111 111 111 111 111 111 111 111 111 111 111 111 111 111 111 111 111 111 111 111 111 111 111 111 111 111 111 111 111 111 111 111 111 111 111 111 111 111 111 111 111 111 111 111 111 111 111 111 111 111 111 111 111 111 111 111 111 111 111 111 
0 111 111 111 111 111 111 111 111 111 111 111 111 111 111 111 111 111 111 111 111 111 111 111 111 111 111 111 111 111 111 111 111 111 131 131 131 131 131 131 131 176 190 142 143 143 143 143 143 143 143 143 143 143 143 143 143 143 143 143 143 143 176 152 141 141 141 141 141 143 141 141 141 141 141 143 143 141 141 141 141 141 141 143 143 143 143 143 141 141 143 141 141 141 176 176 176 176 141 143 143 143 143 143 143 141 141 141 141 152 152 152 152 152 152 152 143 141 141 141 141 143 143 141 152 141 143 143 143 143 143 143 143 143 143 143 143 190 190 190 143 190 190 143 143 142 190 190 190 152 142 142 142 143 142 142 142 142 176 131 131 111 111 111 111 111 111 111 111 111 111 111 111 111 111 111 111 111 111 111 111 111 111 111 111 111 111 111 111 111 111 111 111 111 111 111 111 111 111 111 111 111 111 111 111 111 111 111 111 111 111 111 111 111 111 111 111 111 111 111 111 111 111 111 111 111 
0 111 111 111 111 111 111 111 111 111 111 111 111 111 111 111 111 111 111 111 111 111 111 111 111 111 111 111 111 111 111 111 111 131 131 131 131 131 131 131 131 176 142 142 143 143 143 143 143 143 143 143 143 143 143 143 143 143 143 143 143 143 143 143 143 143 143 143 143 141 141 143 143 141 141 141 143 141 141 141 141 141 141 141 143 143 143 143 143 141 141 141 141 141 141 152 176 176 152 152 141 141 143 143 143 141 141 141 141 152 152 152 152 152 143 143 143 141 141 143 141 143 143 141 152 190 143 143 143 143 143 143 143 143 143 143 143 190 143 143 143 190 143 190 190 142 190 142 142 142 142 190 142 143 142 142 142 142 176 131 131 111 111 111 111 111 111 111 111 111 111 111 111 111 111 111 111 111 111 111 111 111 111 111 111 111 111 111 111 111 111 111 111 111 111 111 111 111 111 111 111 111 111 111 111 111 111 111 111 111 111 111 111 111 111 111 111 111 111 111 111 111 111 111 111 111 
0 111 111 111 111 111 111 111 111 111 111 111 111 111 111 111 111 111 111 111 111 111 111 111 111 111 111 111 111 111 111 111 111 131 131 131 131 131 131 131 131 176 142 142 143 143 143 143 143 143 143 141 143 143 143 143 143 143 143 143 141 143 143 141 143 143 143 143 143 141 141 141 141 141 141 141 143 141 141 141 141 141 143 141 152 152 143 141 143 143 141 141 141 141 143 141 152 176 176 152 141 141 141 141 141 141 141 141 152 152 152 152 152 143 143 142 142 141 141 141 141 143 143 141 152 190 143 143 143 143 143 143 143 143 143 143 143 143 143 143 190 190 143 190 190 142 142 190 142 143 142 190 190 143 142 142 142 142 122 131 131 111 111 111 111 111 111 111 111 111 111 111 111 111 111 111 111 111 111 111 111 111 111 111 111 111 111 111 111 111 111 111 111 111 111 111 111 111 111 111 111 111 111 111 111 111 111 111 111 111 111 111 111 111 111 111 111 111 111 111 111 111 111 111 111 111 
0 111 111 111 111 111 111 111 111 111 111 111 111 111 111 111 111 111 111 111 111 111 111 111 111 111 111 111 111 111 111 111 131 131 131 131 131 131 131 131 176 142 142 143 143 143 143 143 143 141 141 141 141 143 143 143 143 143 143 143 141 143 141 143 143 143 143 143 143 141 141 141 141 141 141 141 143 143 141 143 141 141 141 141 141 152 143 143 143 143 141 141 141 141 141 141 141 152 176 176 152 143 141 143 143 143 141 141 141 141 152 152 143 142 142 142 141 141 141 141 141 143 143 141 141 143 143 143 143 143 141 143 143 143 143 143 143 143 143 190 190 190 143 143 190 142 190 190 142 152 142 142 143 143 142 142 142 142 142 131 131 111 111 111 111 111 111 111 111 111 111 111 111 111 111 111 111 111 111 111 111 111 111 111 111 111 111 111 111 111 111 111 111 111 111 111 111 111 111 111 111 111 111 111 111 111 111 111 111 111 111 111 111 111 111 111 111 111 111 111 111 111 111 111 111 111 
0 111 111 111 111 111 111 111 111 111 111 111 111 111 111 111 111 111 111 111 111 111 111 111 111 111 111 111 111 111 111 111 131 131 131 131 131 131 131 131 176 142 142 143 143 143 143 143 143 141 141 141 143 143 143 143 143 143 143 143 141 143 143 143 143 141 141 141 141 141 141 141 141 141 141 141 143 141 141 141 141 141 141 141 141 141 152 141 143 143 143 141 141 141 141 141 141 36 176 176 176 141 143 143 141 141 141 141 141 143 143 152 152 190 143 141 141 141 141 141 143 143 143 141 152 141 143 143 143 143 141 143 143 143 143 143 143 143 190 143 143 190 143 143 143 190 190 190 190 142 142 142 142 143 142 142 142 142 142 131 131 111 111 111 111 111 111 111 111 111 111 111 111 111 111 111 111 111 111 111 111 111 111 111 111 111 111 111 111 111 111 111 111 111 111 111 111 111 111 111 111 111 111 111 111 111 111 111 111 111 111 111 111 111 111 111 111 111 111 111 111 111 111 111 111 111 
0 111 111 111 111 111 111 111 111 111 111 111 111 111 111 111 111 111 111 111 111 111 111 111 111 111 111 111 111 111 111 131 131 131 131 131 131 131 131 131 176 142 142 143 143 143 142 143 143 143 143 143 143 143 143 143 143 143 143 143 141 143 143 141 141 141 141 141 141 141 141 141 141 141 141 141 141 141 141 141 141 141 141 141 141 141 141 141 143 143 143 141 141 141 141 141 141 36 176 176 152 141 141 141 141 141 141 141 152 152 152 152 152 141 141 141 141 141 141 141 143 143 143 141 152 143 143 143 143 143 143 142 142 143 143 143 143 143 143 143 190 190 143 143 143 143 190 143 142 152 142 142 142 142 142 142 142 142 195 131 131 111 111 111 111 111 111 111 111 111 111 111 111 111 111 111 111 111 111 111 111 111 111 111 111 111 111 111 111 111 111 111 111 111 111 111 111 111 111 111 111 111 111 111 111 111 111 111 111 111 111 111 111 111 111 111 111 111 111 111 111 111 111 111 111 111 
0 111 111 111 111 111 111 111 111 111 111 111 111 111 111 111 111 111 111 111 111 111 111 111 111 111 111 111 111 111 111 131 131 131 131 131 131 131 131 131 142 142 142 143 143 143 142 143 143 143 143 143 143 143 143 143 143 143 143 143 143 141 143 143 141 141 141 141 141 141 141 141 141 141 141 141 141 141 141 141 143 141 141 141 141 141 141 141 143 143 143 141 141 141 141 141 141 36 176 176 176 141 141 141 141 141 141 141 152 152 152 152 152 141 141 141 141 141 141 143 143 143 143 141 152 143 143 143 143 143 190 142 143 143 143 143 143 143 190 143 190 143 143 143 143 143 143 190 142 143 190 190 190 142 142 142 142 142 142 195 131 111 111 111 111 111 111 111 111 111 111 111 111 111 111 111 111 111 111 111 111 111 111 111 111 111 111 111 111 111 111 111 111 111 111 111 111 111 111 111 111 111 111 111 111 111 111 111 111 111 111 111 111 111 111 111 111 111 111 111 111 111 111 111 111 111 
0 111 111 111 111 111 111 111 111 111 111 111 111 111 111 111 111 111 111 111 111 111 111 111 111 111 111 111 111 111 131 131 131 131 131 131 131 131 131 176 142 142 142 143 143 143 143 143 143 143 143 143 143 143 143 143 143 143 143 143 143 143 141 141 143 141 141 141 141 141 141 141 141 141 141 141 141 141 141 141 141 141 141 141 141 141 141 141 141 141 141 141 141 141 141 141 141 152 176 176 176 141 141 141 141 141 141 141 152 152 152 141 143 143 141 141 141 141 141 143 143 143 143 143 152 152 143 143 143 141 142 142 143 143 141 143 143 190 190 190 190 190 143 143 143 143 143 143 190 152 142 142 190 143 143 142 142 142 142 123 131 131 111 111 111 111 111 111 111 111 111 111 111 111 111 111 111 111 111 111 111 111 111 111 111 111 111 111 111 111 111 111 111 111 111 111 111 111 111 111 111 111 111 111 111 111 111 111 111 111 111 111 111 111 111 111 111 111 111 111 111 111 111 111 111 111 
0 111 111 111 111 111 111 111 111 111 111 111 111 111 111 111 111 111 111 111 111 111 111 111 111 111 111 111 111 111 131 131 131 131 131 131 131 131 131 142 142 142 142 143 143 143 143 143 143 143 141 143 143 143 143 143 143 143 143 143 141 143 143 143 141 141 141 141 141 141 141 141 141 141 141 141 141 141 141 141 141 141 141 141 141 141 141 141 141 141 141 141 141 141 141 141 152 152 176 176 152 141 141 141 152 141 141 141 152 152 141 141 143 143 141 141 143 141 141 143 143 143 143 141 152 152 143 141 141 143 143 142 142 143 142 142 143 143 143 190 190 190 143 143 143 143 143 143 142 142 152 190 190 142 143 142 142 142 142 123 131 131 111 111 111 111 111 111 111 111 111 111 111 111 111 111 111 111 111 111 111 111 111 111 111 111 111 111 111 111 111 111 111 111 111 111 111 111 111 111 111 111 111 111 111 111 111 111 111 111 111 111 111 111 111 111 111 111 111 111 111 111 111 111 111 111 
0 111 111 111 111 111 111 111 111 111 111 111 111 111 111 111 111 111 111 111 111 111 111 111 111 111 111 111 111 131 131 131 131 131 131 131 131 131 176 142 142 142 142 143 143 143 143 143 143 143 141 141 143 143 143 143 143 143 143 143 141 141 141 141 141 141 141 141 141 141 141 141 141 141 141 143 141 141 141 141 141 141 141 141 141 141 141 141 141 141 141 141 141 141 141 152 152 152 152 152 152 141 141 141 141 141 141 152 152 152 152 143 143 143 141 143 143 141 141 141 143 143 143 143 152 152 143 143 143 141 143 143 142 142 142 143 143 143 142 142 142 143 143 143 143 143 143 190 190 143 152 142 142 142 143 142 142 142 142 122 131 131 111 111 111 111 111 111 111 111 111 111 111 111 111 111 111 111 111 111 111 111 111 111 111 111 111 111 111 111 111 111 111 111 111 111 111 111 111 111 111 111 111 111 111 111 111 111 111 111 111 111 111 111 111 111 111 111 111 111 111 111 111 111 111 111 
0 111 111 111 111 111 111 111 111 111 111 111 111 111 111 111 111 111 111 111 111 111 111 111 111 111 111 111 111 131 131 131 131 131 131 131 131 176 142 142 142 142 142 143 143 143 143 143 143 143 143 141 143 143 143 143 143 143 143 141 141 143 141 141 141 141 141 141 141 141 141 141 141 141 141 141 141 141 141 141 141 141 141 141 141 141 143 141 141 141 141 141 141 141 152 141 152 152 152 152 152 141 143 141 141 141 141 141 152 152 141 143 143 143 143 141 143 143 143 143 143 143 143 143 152 152 143 143 143 141 143 143 142 142 142 143 143 142 142 143 190 143 143 143 143 143 143 143 190 190 152 152 142 143 143 142 142 142 142 122 122 131 131 111 111 111 111 111 111 111 111 111 111 111 111 111 111 111 111 111 111 111 111 111 111 111 111 111 111 111 111 111 111 111 111 111 111 111 111 111 111 111 111 111 111 111 111 111 111 111 111 111 111 111 111 111 111 111 111 111 111 111 111 111 111 111 
0 111 111 111 111 111 111 111 111 111 111 111 111 111 111 111 111 111 111 111 111 111 111 111 111 111 111 111 111 131 131 131 131 131 131 131 131 176 142 142 142 142 143 143 143 143 143 176 143 176 176 176 152 143 143 143 143 143 143 143 141 143 141 141 141 141 141 141 141 141 141 141 141 141 141 141 141 141 141 141 141 141 141 141 141 143 143 143 141 141 141 141 141 141 141 152 152 152 152 152 152 141 143 141 141 141 141 141 141 141 141 143 141 143 143 143 143 143 143 143 143 143 143 143 152 152 143 143 143 141 152 142 142 142 142 143 143 143 143 143 143 142 143 143 143 143 143 143 143 143 152 142 142 143 143 143 143 142 142 142 122 131 131 111 111 111 111 111 111 111 111 111 111 111 111 111 111 111 111 111 111 111 111 111 111 111 111 111 111 111 111 111 111 111 111 111 111 111 111 111 111 111 111 111 111 111 111 111 111 111 111 111 111 111 111 111 111 111 111 111 111 111 111 111 111 111 
0 111 111 111 111 111 111 111 111 111 111 111 111 111 111 111 111 111 111 111 111 111 111 111 111 111 111 111 131 131 131 131 131 131 131 131 131 176 142 142 142 143 143 143 143 143 36 131 131 131 176 131 176 143 143 143 143 143 143 141 141 141 141 141 141 141 141 141 141 141 141 141 141 141 141 141 141 141 143 143 143 141 141 141 141 143 143 141 141 141 141 141 141 141 141 141 141 152 152 152 152 141 143 141 141 141 141 141 141 141 141 143 143 143 143 143 143 143 143 143 143 143 141 141 152 152 143 143 143 143 152 142 142 142 143 143 143 143 143 143 143 143 143 143 143 143 143 143 143 143 152 152 190 143 143 143 143 142 142 142 122 131 131 111 111 111 111 111 111 111 111 111 111 111 111 111 111 111 111 111 111 111 111 111 111 111 111 111 111 111 111 111 111 111 111 111 111 111 111 111 111 111 111 111 111 111 111 111 111 111 111 111 111 111 111 111 111 111 111 111 111 111 111 111 111 111 
0 111 111 111 111 111 111 111 111 111 111 111 111 111 111 111 111 111 111 111 111 111 111 111 111 111 111 111 131 131 131 131 131 131 131 131 131 176 142 176 176 176 176 176 176 176 176 176 176 176 176 176 152 141 143 143 143 143 143 141 141 141 141 141 141 141 141 141 141 141 141 141 141 141 141 141 141 141 141 141 143 143 141 141 141 141 141 141 141 141 141 141 141 141 141 141 141 141 141 152 152 141 141 143 141 141 141 141 141 141 141 143 141 143 141 141 143 143 143 143 143 143 143 152 152 152 143 143 143 141 152 142 142 142 143 143 143 143 143 143 143 143 143 143 143 143 143 143 143 143 152 152 190 143 143 143 143 143 142 142 122 123 131 131 111 111 111 111 111 111 111 111 111 111 111 111 111 111 111 111 111 111 111 111 111 111 111 111 111 111 111 111 111 111 111 111 111 111 111 111 111 111 111 111 111 111 111 111 111 111 111 111 111 111 111 111 111 111 111 111 111 111 111 111 111 111 
0 111 111 111 111 111 111 111 111 111 111 111 111 111 111 111 111 111 111 111 111 111 111 111 111 111 111 111 131 131 131 131 131 131 131 131 131 176 176 176 176 176 131 176 131 176 131 176 176 176 176 176 143 143 143 143 141 143 141 141 141 141 141 141 141 141 141 141 141 141 141 141 141 141 141 141 141 141 141 141 141 141 143 143 141 141 141 141 141 141 141 141 141 141 141 141 141 141 141 141 141 141 141 141 141 141 143 143 141 141 141 143 141 143 141 143 143 143 143 143 143 143 143 152 152 142 142 143 143 141 152 142 142 143 143 143 143 143 143 143 143 143 143 143 143 143 143 143 143 143 152 152 143 143 143 143 143 143 143 142 176 123 131 131 111 111 111 111 111 111 111 111 111 111 111 111 111 111 111 111 111 111 111 111 111 111 111 111 111 111 111 111 111 111 111 111 111 111 111 111 111 111 111 111 111 111 111 111 111 111 111 111 111 111 111 111 111 111 111 111 111 111 111 111 111 111 
0 111 111 111 111 111 111 111 111 111 111 111 111 111 111 111 111 111 111 111 111 111 111 111 111 111 111 111 131 131 131 131 131 131 131 131 131 131 131 176 176 176 131 176 131 131 152 152 176 176 152 176 143 143 143 141 141 141 141 141 141 141 141 141 141 141 141 141 141 141 141 141 141 141 141 141 141 141 141 141 141 141 141 143 143 141 141 141 141 141 141 141 141 141 141 141 141 141 141 141 141 141 143 141 141 143 143 143 143 141 141 141 141 143 143 143 143 143 143 143 143 143 152 152 152 143 143 143 141 141 152 142 142 143 143 143 143 143 143 190 143 143 190 143 143 143 143 143 143 143 143 143 143 143 143 143 143 143 143 142 195 123 123 131 131 111 111 111 111 111 111 111 111 111 111 111 111 111 111 111 111 111 111 111 111 111 111 111 111 111 111 111 111 111 111 111 111 111 111 111 111 111 111 111 111 111 111 111 111 111 111 111 111 111 111 111 111 111 111 111 111 111 111 111 111 111 
0 111 111 111 111 111 111 111 111 111 111 111 111 111 111 111 111 111 111 111 111 111 111 111 111 111 111 131 131 131 131 131 131 131 131 131 176 131 131 176 176 176 176 176 131 152 176 176 143 176 176 176 141 143 143 141 141 141 141 141 141 141 141 141 141 141 141 141 141 141 141 141 141 141 141 141 141 141 141 141 141 141 141 143 143 143 143 141 141 141 141 141 141 141 141 141 141 141 141 141 143 141 141 141 141 141 143 143 143 143 143 141 143 143 143 143 143 143 143 143 143 141 141 152 152 143 143 143 143 143 152 143 143 143 143 143 143 143 143 190 143 143 190 143 143 143 143 143 143 143 143 143 143 143 143 143 143 143 143 143 143 142 123 131 131 131 111 111 111 111 111 111 111 111 111 111 111 111 111 111 111 111 111 111 111 111 111 111 111 111 111 111 111 111 111 111 111 111 111 111 111 111 111 111 111 111 111 111 111 111 111 111 111 111 111 111 111 111 111 111 111 111 111 111 111 111 
0 111 111 111 111 111 111 111 111 111 111 111 111 111 111 111 111 111 111 111 111 111 111 111 111 111 111 131 131 131 131 131 131 131 131 131 176 176 176 176 176 176 142 142 176 152 152 176 176 176 152 141 143 143 141 141 141 141 141 141 141 141 141 141 141 141 141 141 141 141 141 141 141 141 141 141 141 141 141 141 141 141 141 141 141 143 143 141 141 141 141 141 141 141 141 141 141 141 143 143 143 141 143 141 141 143 141 141 143 143 143 143 143 143 143 143 143 143 143 143 143 143 141 152 152 143 143 143 143 143 152 152 152 143 143 143 143 143 143 142 190 142 143 143 143 143 143 143 143 143 143 143 190 190 143 143 143 143 143 143 142 142 123 123 131 111 111 111 111 111 111 111 111 111 111 111 111 111 111 111 111 111 111 111 111 111 111 111 111 111 111 111 111 111 111 111 111 111 111 111 111 111 111 111 111 111 111 111 111 111 111 111 111 111 111 111 111 111 111 111 111 111 111 111 111 111 
0 111 111 111 111 111 111 111 111 111 111 111 111 111 111 111 111 111 111 111 111 111 111 111 111 111 131 131 131 131 131 131 131 131 131 176 176 176 142 131 131 142 142 142 142 142 142 152 176 176 141 141 143 143 141 141 141 141 141 141 141 141 141 141 141 141 141 141 141 141 141 141 141 141 141 141 141 141 141 141 141 141 141 141 141 141 143 143 143 141 141 141 141 141 141 141 141 141 143 143 143 143 143 141 141 141 141 143 143 141 143 143 143 143 143 143 143 143 143 143 143 143 143 143 143 143 143 143 143 143 152 152 152 152 143 143 143 143 143 142 190 142 142 190 143 143 143 143 143 143 143 143 143 143 143 143 143 143 143 143 143 142 176 123 131 131 131 111 111 111 111 111 111 111 111 111 111 111 111 111 111 111 111 111 111 111 111 111 111 111 111 111 111 111 111 111 111 111 111 111 111 111 111 111 111 111 111 111 111 111 111 111 111 111 111 111 111 111 111 111 111 111 111 111 111 111 
0 111 111 111 111 111 111 111 111 111 111 111 111 111 111 111 111 111 111 111 111 111 111 111 111 111 124 131 131 131 131 131 131 131 131 1 142 142 142 142 142 142 143 143 143 143 143 152 176 152 141 143 141 141 141 141 143 141 141 141 141 141 141 141 141 141 141 141 141 141 141 141 141 141 141 141 141 141 141 141 141 141 141 141 141 141 141 141 143 143 143 143 143 143 141 141 141 143 143 143 141 141 141 141 141 141 141 141 141 143 143 143 143 143 143 143 143 143 152 121 176 143 143 143 143 143 143 143 143 143 152 152 152 152 143 143 143 143 143 143 142 142 143 190 190 143 143 143 143 143 143 143 143 143 143 143 143 143 143 143 143 142 142 122 123 131 131 111 111 111 111 111 111 111 111 111 111 111 111 111 111 111 111 111 111 111 111 111 111 111 111 111 111 111 111 111 111 111 111 111 111 111 111 111 111 111 111 111 111 111 111 111 111 111 111 111 111 111 111 111 111 111 111 111 111 111 
0 111 111 111 111 111 111 111 111 111 111 111 111 111 111 111 111 111 111 111 111 111 111 111 111 131 131 131 131 131 131 131 131 131 131 142 142 142 142 142 142 142 142 143 143 176 176 143 190 143 143 143 141 141 141 141 141 141 141 141 141 141 141 141 141 141 141 141 141 141 141 141 141 141 141 141 141 141 141 141 141 141 141 141 141 141 141 141 143 143 143 143 141 141 141 141 141 141 141 141 141 141 141 141 141 141 141 141 141 141 141 143 143 143 143 143 143 152 152 152 152 190 152 143 143 143 143 143 143 143 152 152 152 152 143 143 143 143 143 143 190 143 143 143 143 143 143 143 143 143 143 143 143 143 143 143 143 143 143 143 143 190 142 176 123 131 131 131 111 111 111 111 111 111 111 111 111 111 111 111 111 111 111 111 111 111 111 111 111 111 111 111 111 111 111 111 111 111 111 111 111 111 111 111 111 111 111 111 111 111 111 111 111 111 111 111 111 111 111 111 111 111 111 111 111 111 
0 111 111 111 111 111 111 111 111 111 111 111 111 111 111 111 111 111 111 111 111 111 111 111 111 131 131 131 131 131 131 131 131 131 131 142 142 142 142 142 142 142 142 143 143 176 176 152 143 143 143 143 143 141 141 141 141 141 141 141 141 141 141 141 141 141 141 141 141 141 141 141 141 141 141 141 141 141 141 141 141 141 141 141 141 141 141 141 141 141 141 141 141 141 141 141 141 141 141 141 141 141 141 152 141 141 141 141 141 141 143 143 143 143 143 143 141 152 152 190 190 152 152 143 143 143 143 143 143 143 141 152 152 152 143 143 143 143 143 143 190 190 142 143 143 143 143 143 143 143 143 143 143 143 143 143 143 143 143 190 143 190 142 142 123 123 131 131 111 111 111 111 111 111 111 111 111 111 111 111 111 111 111 111 111 111 111 111 111 111 111 111 111 111 111 111 111 111 111 111 111 111 111 111 111 111 111 111 111 111 111 111 111 111 111 111 111 111 111 111 111 111 111 111 111 111 
0 111 111 111 111 111 111 111 111 111 111 111 111 111 111 111 111 111 111 111 111 111 111 111 131 131 131 131 131 131 131 131 131 131 176 142 142 142 142 143 142 142 143 143 176 176 152 143 143 143 143 143 143 143 143 141 141 141 141 141 141 141 141 143 143 143 141 141 141 141 141 141 141 141 141 141 141 141 141 141 141 141 141 141 141 141 141 141 141 141 141 141 141 141 141 141 141 141 141 141 143 141 141 141 141 141 141 141 141 143 143 143 143 143 143 141 141 141 152 190 190 142 142 143 143 143 143 143 143 143 141 152 141 152 143 143 190 142 143 143 143 190 142 142 143 143 143 143 143 143 143 143 143 143 190 143 143 143 143 143 143 143 142 142 123 123 131 131 131 111 111 111 111 111 111 111 111 111 111 111 111 111 111 111 111 111 111 111 111 111 111 111 111 111 111 111 111 111 111 111 111 111 111 111 111 111 111 111 111 111 111 111 111 111 111 111 111 111 111 111 111 111 111 111 111 111 
0 111 111 111 111 111 111 111 111 111 111 111 111 111 111 111 111 111 111 111 111 111 111 111 111 131 131 131 131 131 131 131 131 131 176 142 142 143 143 143 143 142 142 176 176 152 152 152 143 143 143 143 143 143 141 141 141 141 141 141 141 141 143 143 143 143 143 141 141 141 141 141 141 141 141 141 141 141 143 141 141 141 141 141 141 141 141 141 141 141 141 141 141 141 141 141 141 141 143 143 143 143 141 141 141 141 141 141 141 141 143 143 143 141 141 143 143 143 143 152 190 142 143 143 143 143 143 143 143 143 143 141 141 152 143 143 190 190 143 142 143 190 142 142 143 143 143 143 143 143 143 143 143 143 143 143 143 143 143 143 143 143 143 143 122 123 131 131 131 131 111 111 111 111 111 111 111 111 111 111 111 111 111 111 111 111 111 111 111 111 111 111 111 111 111 111 111 111 111 111 111 111 111 111 111 111 111 111 111 111 111 111 111 111 111 111 111 111 111 111 111 111 111 111 111 111 
0 111 111 111 111 111 111 111 111 111 111 111 111 111 111 111 111 111 111 111 111 111 111 111 131 131 131 131 131 131 176 131 131 131 176 142 142 142 143 143 143 142 142 176 176 176 176 152 143 143 143 141 141 141 141 141 141 141 141 141 141 141 141 141 143 143 143 143 141 141 141 141 143 143 141 141 141 141 143 143 141 141 143 141 141 141 141 141 141 141 141 141 141 141 141 141 141 141 141 143 143 143 152 141 141 141 141 141 141 141 141 141 141 141 141 141 141 141 141 143 142 142 143 143 143 143 143 143 143 143 141 141 141 141 141 143 190 143 143 143 142 190 143 143 143 143 143 143 143 143 143 143 143 143 143 143 143 143 143 143 143 143 143 143 176 131 123 131 131 131 111 111 111 111 111 111 111 111 111 111 111 111 111 111 111 111 111 111 111 111 111 111 111 111 111 111 111 111 111 111 111 111 111 111 111 111 111 111 111 111 111 111 111 111 111 111 111 111 111 111 111 111 111 111 111 111 
0 111 111 111 111 111 111 111 111 111 111 111 111 111 111 111 111 111 111 111 111 111 111 111 131 131 131 131 131 131 131 176 131 131 176 131 142 142 143 143 143 142 143 176 176 176 176 143 143 143 143 141 143 141 141 141 141 141 141 141 141 141 141 141 141 143 143 143 143 143 141 141 143 143 141 141 141 141 143 141 143 143 143 141 141 141 141 141 141 141 141 141 141 141 141 141 141 141 141 141 141 141 152 141 141 141 141 141 141 141 141 141 141 143 143 152 152 152 143 142 142 143 143 143 143 143 143 143 143 143 143 141 141 141 143 143 143 142 142 143 143 143 143 142 143 143 143 143 143 143 143 143 143 143 143 143 143 143 143 143 143 143 143 143 142 195 131 123 131 131 131 111 111 111 111 111 111 111 111 111 111 111 111 111 111 111 111 111 111 111 111 111 111 111 111 111 111 111 111 111 111 111 111 111 111 111 111 111 111 111 111 111 111 111 111 111 111 111 111 111 111 111 111 111 111 111 
0 111 111 111 111 111 111 111 111 111 111 111 111 111 111 111 111 111 111 111 111 111 111 111 131 131 131 131 131 131 131 176 131 131 176 176 142 142 143 143 141 143 176 176 176 176 176 143 143 143 143 143 141 143 141 141 141 141 141 141 141 141 141 141 141 141 141 143 143 143 143 141 141 143 143 143 143 141 143 143 143 143 141 141 141 141 141 141 143 141 141 141 141 141 141 141 141 141 141 141 141 152 152 141 141 141 141 141 141 141 141 141 141 143 143 195 111 111 195 142 143 143 143 143 143 143 143 143 143 143 143 141 141 143 143 143 143 190 143 143 143 143 143 142 190 143 143 143 143 143 143 143 143 143 143 143 143 143 143 143 143 143 143 143 143 131 131 131 131 131 131 111 111 111 111 111 111 111 111 111 111 111 111 111 111 111 111 111 111 111 111 111 111 111 111 111 111 111 111 111 111 111 111 111 111 111 111 111 111 111 111 111 111 111 111 111 111 111 111 111 111 111 111 111 111 111 
0 111 111 111 111 111 111 111 111 111 111 111 111 111 111 111 111 111 111 111 111 111 111 111 131 131 131 131 131 131 131 131 131 131 176 190 142 142 142 143 143 143 176 176 176 176 152 28 36 152 42 152 141 141 141 141 141 141 141 141 141 141 141 141 141 141 141 141 141 143 143 143 141 143 143 141 141 141 141 143 141 143 143 143 143 143 143 143 143 141 141 141 141 141 141 141 141 141 141 141 141 141 152 141 141 141 141 141 141 141 141 143 143 143 121 111 111 111 111 142 143 143 143 143 143 143 143 143 143 143 143 143 143 143 143 143 143 190 190 143 143 143 143 143 143 143 143 143 143 143 143 143 143 143 143 143 143 143 143 143 143 143 143 143 143 143 131 131 123 131 131 131 111 111 111 111 111 111 111 111 111 111 111 111 111 111 111 111 111 111 111 111 111 111 111 111 111 111 111 111 111 111 111 111 111 111 111 111 111 111 111 111 111 111 111 111 111 111 111 111 111 111 111 111 111 111 
0 111 111 111 111 111 111 111 111 111 111 111 111 111 111 111 111 111 111 111 111 111 111 131 131 131 131 131 131 131 131 131 176 131 176 142 142 142 143 143 152 28 131 131 176 152 1 131 36 131 131 1 141 141 141 141 141 141 141 141 141 141 141 141 141 141 141 141 141 141 143 143 141 141 141 141 141 141 141 141 141 141 141 141 143 143 143 143 143 143 141 141 141 141 141 141 141 141 141 141 141 141 152 141 141 141 141 141 141 141 141 143 143 143 195 111 111 111 111 195 142 143 143 143 143 143 143 143 143 143 143 143 143 143 143 143 143 190 190 143 143 143 143 143 143 143 190 143 143 143 143 143 143 143 143 143 143 143 143 143 143 143 143 143 143 190 142 176 131 123 131 131 131 111 111 111 111 111 111 111 111 111 111 111 111 111 111 111 111 111 111 111 111 111 111 111 111 111 111 111 111 111 111 111 111 111 111 111 111 111 111 111 111 111 111 111 111 111 111 111 111 111 111 111 111 111 
0 111 111 111 111 111 111 111 111 111 111 111 111 111 111 111 111 111 111 111 111 111 131 131 131 131 131 131 131 131 131 131 176 131 142 142 142 142 143 143 176 176 131 131 176 176 131 131 131 131 131 1 141 141 141 141 141 141 141 141 141 141 141 141 141 141 141 141 141 141 141 141 141 141 141 141 141 141 141 141 143 141 141 141 141 143 141 141 143 143 143 141 141 141 141 141 141 141 141 152 152 152 152 141 141 141 141 141 141 141 141 141 143 143 142 111 111 111 111 195 143 143 143 143 143 143 143 143 143 143 143 143 143 143 143 143 143 143 190 143 143 143 143 143 143 143 143 143 143 143 143 143 143 143 143 143 143 143 143 143 143 143 143 143 143 190 142 195 176 122 131 131 131 131 111 111 111 111 111 111 111 111 111 111 111 111 111 111 111 111 111 111 111 111 111 111 111 111 111 111 111 111 111 111 111 111 111 111 111 111 111 111 111 111 111 111 111 111 111 111 111 111 111 111 111 111 
0 111 111 111 111 111 111 111 111 111 111 111 111 111 111 111 111 111 111 111 111 111 131 131 131 131 131 131 131 131 131 131 176 176 190 142 142 142 143 143 152 176 176 131 131 131 176 131 131 131 131 152 141 141 141 141 141 141 141 141 141 141 141 141 141 141 141 141 141 141 141 141 141 141 141 141 141 143 141 141 141 141 141 141 141 142 143 141 141 141 143 143 143 141 141 141 141 141 141 141 152 152 152 141 141 141 141 141 141 141 141 143 143 142 152 111 111 111 111 111 195 141 143 143 143 143 143 143 143 143 143 143 143 143 143 143 143 143 190 190 143 143 143 143 143 143 143 143 143 143 143 143 143 143 143 143 143 143 143 143 143 143 143 143 143 143 142 176 176 195 123 131 122 131 131 131 111 111 111 111 111 111 111 111 111 111 111 111 111 111 111 111 111 111 111 111 111 111 111 111 111 111 111 111 111 111 111 111 111 111 111 111 111 111 111 111 111 111 111 111 111 111 111 111 111 111 
0 111 111 111 111 111 111 111 111 111 111 111 111 111 111 111 111 111 111 111 111 111 131 131 131 131 131 131 131 131 131 131 176 176 190 142 142 142 143 176 176 176 152 152 176 176 131 176 131 131 131 141 141 141 141 141 141 141 141 141 141 141 141 141 141 141 141 141 141 141 141 141 141 141 141 141 141 141 141 141 141 141 141 141 141 141 141 141 141 141 143 143 143 143 141 141 141 141 141 141 141 152 152 141 141 141 141 141 141 141 143 143 143 143 111 111 111 111 111 111 195 142 143 143 143 143 143 143 143 143 143 143 143 143 143 143 143 143 143 190 143 143 143 143 143 143 143 143 143 143 143 143 143 143 143 143 143 143 143 143 143 143 143 143 143 143 143 142 142 142 131 123 131 131 131 131 131 131 131 131 131 131 111 111 111 111 111 111 111 111 111 111 111 111 111 111 111 111 111 111 111 111 111 111 111 111 111 111 111 111 111 111 111 111 111 111 111 111 111 111 111 111 111 111 111 111 
0 111 111 111 111 111 111 111 111 111 111 111 111 111 111 111 111 111 111 111 111 131 131 131 131 131 131 131 131 131 131 131 131 176 176 142 142 142 142 142 142 142 143 176 176 176 152 176 131 1 1 152 141 141 141 141 141 141 141 141 141 141 141 141 141 141 141 141 141 141 141 141 141 141 141 141 141 141 141 141 141 141 141 141 141 141 141 141 141 141 141 141 143 143 143 141 141 141 141 141 141 152 152 141 141 141 141 141 143 141 143 143 143 190 111 111 111 111 111 111 195 142 142 143 143 143 143 143 143 143 141 143 143 143 143 143 143 143 143 190 143 143 143 143 143 143 143 143 143 143 143 143 143 143 143 143 143 143 143 143 143 143 143 143 143 143 143 143 142 142 142 131 131 131 131 131 131 131 131 131 131 131 111 111 111 111 111 111 111 111 111 111 111 111 111 111 111 111 111 111 111 111 111 111 111 111 111 111 111 111 111 111 111 111 111 111 111 111 111 111 111 111 111 111 111 111 
111 111 111 111 111 111 111 111 111 111 111 111 111 111 111 111 111 111 111 111 111 111 131 131 131 131 131 131 131 131 131 131 131 176 176 176 176 142 142 142 143 176 176 42 42 42 152 42 176 152 152 143 141 141 141 141 141 141 141 141 141 141 141 141 141 141 141 141 141 141 141 141 141 141 141 141 141 141 141 141 141 141 141 141 141 141 141 141 141 141 141 141 143 143 141 141 141 141 141 141 141 152 152 141 141 152 141 141 143 143 143 143 143 195 111 111 111 111 111 111 111 152 142 143 143 143 143 143 143 143 143 143 143 143 143 143 143 143 143 190 190 143 143 143 143 143 143 143 143 190 143 143 143 143 143 143 143 143 143 143 143 143 143 143 143 143 143 143 143 142 142 176 131 131 131 176 131 131 131 131 131 131 131 131 111 111 111 111 111 111 111 111 111 111 111 111 111 111 111 111 111 111 111 111 111 111 111 111 111 111 111 111 111 111 111 111 111 111 111 111 111 111 111 111 111 111 
111 111 111 111 111 111 111 111 111 111 111 111 111 111 111 111 111 111 111 111 111 131 131 131 131 131 131 131 131 131 131 131 131 176 176 176 176 176 176 176 176 176 131 42 176 142 143 152 143 141 143 141 141 141 141 141 141 141 141 141 141 141 141 141 141 141 141 141 141 141 141 141 141 141 141 141 141 141 141 141 141 141 141 141 141 141 141 141 143 141 141 141 141 141 141 141 141 141 141 141 152 143 141 141 141 141 141 141 143 143 143 143 190 111 111 111 111 111 111 111 111 152 142 143 143 143 143 143 143 143 143 143 143 143 143 143 143 143 143 143 190 143 143 143 143 143 143 143 143 143 143 143 143 143 143 143 143 142 142 143 143 143 143 143 143 143 143 143 143 190 142 142 131 131 131 131 131 131 131 131 131 131 131 131 131 111 111 111 111 111 111 111 111 111 111 111 111 111 111 111 111 111 111 111 111 111 111 111 111 111 111 111 111 111 111 111 111 111 111 111 111 111 111 111 111 111 
111 111 111 111 111 111 111 111 111 111 111 111 111 111 111 111 111 111 111 111 111 131 131 131 131 131 131 131 131 131 131 131 131 176 176 176 176 131 131 176 131 131 131 131 152 143 143 143 143 152 141 141 141 141 141 141 141 141 141 141 143 143 141 141 141 141 141 141 141 141 141 141 141 141 141 141 141 141 141 141 141 141 141 141 141 141 141 141 141 141 141 141 141 141 141 141 141 141 141 141 152 152 141 141 141 141 141 143 143 143 143 143 190 111 111 111 111 111 111 111 111 142 143 143 143 141 143 143 143 143 143 143 143 143 143 143 143 143 143 143 143 190 143 143 143 143 143 143 190 190 143 143 143 143 143 143 142 142 143 143 143 143 143 143 143 143 143 143 143 143 143 142 121 123 131 131 131 131 131 176 131 123 195 1 131 131 111 111 111 111 111 111 111 111 111 111 111 111 111 111 111 111 111 111 111 111 111 111 111 111 111 111 111 111 111 111 111 111 111 111 111 111 111 111 111 111 
111 111 111 111 111 111 111 111 111 111 111 111 111 111 111 111 111 111 111 111 111 131 131 131 131 131 131 131 131 131 131 131 131 176 176 176 176 176 176 131 131 131 131 1 143 143 143 143 176 152 141 141 141 141 141 141 141 141 141 141 141 141 143 143 143 141 141 141 141 141 141 141 141 141 141 141 141 141 141 141 141 141 141 141 141 141 141 141 141 141 141 141 141 141 141 141 141 141 141 141 141 152 141 141 141 141 143 141 141 143 143 143 143 195 111 111 111 111 111 111 111 142 143 143 143 141 143 143 143 143 143 143 143 143 143 143 143 143 143 143 143 190 143 143 143 190 143 143 143 143 143 143 143 143 143 143 142 143 143 143 143 143 143 143 143 143 143 143 143 143 143 142 195 176 122 176 131 131 131 131 131 131 122 176 131 131 131 111 111 111 111 111 111 111 111 111 111 111 111 111 111 111 111 111 111 111 111 111 111 111 111 111 111 111 111 111 111 111 111 111 111 111 111 111 111 111 
111 111 111 111 111 111 111 111 111 111 111 111 111 111 111 111 111 111 111 111 111 131 131 131 131 131 131 131 131 131 131 176 131 176 176 176 131 131 176 131 131 131 131 176 176 1 1 176 176 176 141 141 141 141 141 141 141 141 141 141 141 141 141 143 143 143 141 141 141 141 141 141 143 141 141 141 141 141 141 141 141 141 141 141 143 141 141 141 141 141 141 141 141 141 141 141 141 152 141 141 152 141 141 141 141 141 143 141 141 141 143 143 143 195 111 111 111 111 111 111 195 142 143 143 141 143 143 143 143 143 143 143 143 143 143 143 143 143 143 143 143 190 143 143 190 190 143 190 143 143 143 143 143 143 143 143 143 143 143 143 143 143 143 143 143 143 143 143 143 143 143 143 142 142 142 123 142 142 131 123 123 123 195 176 176 176 131 131 111 111 111 111 111 111 111 111 111 111 111 111 111 111 111 111 111 111 111 111 111 111 111 111 111 111 111 111 111 111 111 111 111 111 111 111 111 111 
111 111 111 111 111 111 111 111 111 111 111 111 111 111 111 111 111 111 111 111 131 131 131 131 131 131 131 131 131 131 131 131 176 176 152 176 176 42 1 131 131 131 131 131 131 131 176 176 176 176 152 141 141 141 141 141 141 141 141 141 141 141 141 141 141 141 141 141 141 141 141 142 143 143 141 141 141 141 141 141 141 141 141 141 141 143 143 141 141 141 141 141 141 141 141 141 141 152 152 152 152 141 141 143 143 143 143 141 141 143 143 143 143 195 111 111 111 111 111 195 195 142 143 143 141 141 141 143 143 143 143 143 143 143 143 143 143 143 143 143 143 143 143 143 190 143 143 143 143 143 143 143 143 143 143 143 143 143 143 143 143 143 143 143 143 143 143 143 143 143 143 143 143 143 142 142 142 142 176 131 123 131 195 131 152 121 176 131 131 111 111 111 111 111 111 111 111 111 111 111 111 111 111 111 111 111 111 111 111 111 111 111 111 111 111 111 111 111 111 111 111 111 111 111 111 111 
111 111 111 111 111 111 111 111 111 111 111 111 111 111 111 111 111 111 111 111 131 131 131 131 131 131 131 131 131 131 131 131 131 176 152 152 176 152 131 131 131 131 131 131 131 131 176 176 176 176 152 141 141 141 141 141 141 141 141 141 141 141 141 141 141 141 141 141 141 141 141 143 143 143 143 141 141 141 141 141 141 141 141 141 141 141 141 141 141 141 141 141 141 141 141 141 141 152 152 152 152 141 141 141 141 141 143 143 141 143 143 143 143 195 111 111 111 111 111 195 152 142 143 141 141 141 141 141 143 143 143 143 143 143 143 143 143 143 143 143 143 143 143 143 143 143 143 143 143 143 143 143 143 143 152 152 143 143 141 143 143 143 143 143 143 143 143 143 143 143 143 143 143 143 143 143 122 131 152 195 122 122 122 123 122 152 152 121 131 131 111 111 111 111 111 111 111 111 111 111 111 111 111 111 111 111 111 111 111 111 111 111 111 111 111 111 111 111 111 111 111 111 111 111 111 111 
111 111 111 111 111 111 111 111 111 111 111 111 111 111 111 111 111 111 111 111 131 131 131 131 131 131 131 131 131 131 131 176 176 176 1 121 142 1 131 131 131 131 131 131 131 131 176 176 176 176 152 141 141 141 141 141 141 141 141 141 141 141 141 141 141 141 141 141 141 141 141 141 143 143 143 143 143 141 141 141 141 141 141 141 141 141 141 141 141 141 141 141 141 141 141 141 141 141 152 152 152 141 141 141 141 141 141 143 143 143 143 143 190 111 111 111 111 111 111 195 142 142 143 141 141 141 141 141 143 143 143 143 143 143 143 143 143 143 143 143 143 143 143 143 143 143 143 190 142 143 143 143 143 152 152 152 152 143 152 143 143 143 143 143 143 143 143 143 143 143 143 143 143 143 143 121 176 176 142 142 142 152 122 122 122 152 152 1 131 131 111 111 111 111 111 111 111 111 111 111 111 111 111 111 111 111 111 111 111 111 111 111 111 111 111 111 111 111 111 111 111 111 111 111 111 111 
111 111 111 111 111 111 111 111 111 111 111 111 111 111 111 111 111 111 111 111 131 131 131 131 131 131 131 131 131 131 152 152 176 176 176 190 152 131 131 131 131 131 131 131 131 131 176 176 131 1 141 141 141 141 141 141 141 141 141 141 141 141 141 141 141 141 141 141 141 141 141 141 141 141 143 143 143 141 141 141 141 141 141 141 141 141 141 141 141 141 141 141 141 141 141 141 141 141 141 141 141 152 141 143 143 141 141 141 141 141 143 143 111 111 111 111 111 111 111 195 142 142 143 141 141 141 141 141 141 143 141 143 143 143 143 143 143 143 143 143 143 143 143 143 143 143 143 143 143 143 143 143 190 152 152 152 152 152 143 143 143 143 143 143 143 143 143 142 143 143 143 143 143 143 143 143 195 123 142 142 142 142 121 122 122 142 176 131 131 131 131 111 111 111 111 111 111 111 111 111 111 111 111 111 111 111 111 111 111 111 111 111 111 111 111 111 111 111 111 111 111 111 111 111 111 111 
111 111 111 111 111 111 111 111 111 111 111 111 111 111 111 111 111 111 111 131 131 131 131 131 131 131 131 131 131 131 176 42 42 176 176 176 176 176 131 176 176 131 131 131 131 131 176 131 131 1 141 141 141 141 141 141 141 141 141 141 141 141 141 141 141 141 141 141 141 141 141 141 141 141 141 141 141 141 141 141 141 141 141 141 141 141 141 141 141 141 141 141 141 141 141 141 141 141 141 141 141 141 141 143 143 141 141 141 141 141 143 190 111 111 111 111 111 111 111 142 142 143 143 141 141 141 141 141 143 143 143 141 143 141 143 141 143 143 143 143 143 143 143 143 143 143 143 143 143 143 143 143 143 152 152 152 152 143 143 143 143 143 143 143 142 143 143 190 143 142 143 143 143 143 143 143 176 176 143 142 142 142 142 142 176 122 176 131 131 131 111 111 111 111 111 111 111 111 111 111 111 111 111 111 111 111 111 111 111 111 111 111 111 111 111 111 111 111 111 111 111 111 111 111 111 111 
111 111 111 111 111 111 111 111 111 111 111 111 111 111 111 111 111 111 111 111 131 131 131 131 131 131 131 131 131 131 131 131 131 176 176 176 176 131 176 131 131 131 131 131 176 176 131 176 121 152 141 141 141 141 141 141 141 141 141 141 141 141 141 141 141 141 141 141 143 141 141 141 141 141 141 141 141 141 141 143 141 141 141 141 141 141 141 141 141 141 141 141 141 141 141 141 141 141 141 141 141 141 141 141 143 141 141 141 141 141 143 142 111 111 111 111 111 111 111 142 143 143 143 143 143 143 141 141 141 141 141 152 152 152 152 141 141 143 143 143 143 143 143 143 143 143 143 143 143 143 143 143 143 152 141 141 143 143 143 143 143 143 143 143 190 143 143 143 143 143 143 143 143 143 143 143 143 143 143 143 143 142 142 142 176 123 131 131 131 111 111 111 111 111 111 111 111 111 111 111 111 111 111 111 111 111 111 111 111 111 111 111 111 111 111 111 111 111 111 111 111 111 111 111 111 111 
111 111 111 111 111 111 111 111 111 111 111 111 111 111 111 111 111 111 111 111 131 131 131 131 131 131 131 131 131 131 131 131 131 176 176 176 131 131 131 176 176 131 176 176 176 176 131 131 131 152 143 141 141 141 141 141 141 141 141 141 141 141 141 141 141 141 141 141 141 141 141 141 141 141 141 141 141 141 141 143 143 141 141 141 141 141 141 141 141 141 141 141 141 141 141 141 141 141 141 141 141 141 141 141 143 141 141 141 141 143 143 111 111 111 111 111 111 111 111 190 143 143 143 141 141 141 141 141 141 152 152 152 152 152 152 152 141 141 143 143 143 143 143 143 143 143 141 143 143 143 143 143 143 143 143 143 143 143 143 143 143 143 143 143 143 143 143 143 143 143 143 143 143 143 143 143 143 143 143 143 143 142 142 142 142 123 131 131 131 111 111 111 111 111 111 111 111 111 111 111 111 111 111 111 111 111 111 111 111 111 111 111 111 111 111 111 111 111 111 111 111 111 111 111 111 111 
111 111 111 111 111 111 111 111 111 111 111 111 111 111 111 111 111 111 111 111 131 131 131 131 131 131 131 131 131 131 131 131 131 176 176 176 131 131 195 131 176 176 176 176 176 176 176 131 176 152 143 141 141 141 141 141 141 141 141 141 141 141 141 141 141 141 141 141 141 141 141 141 141 141 141 141 141 141 141 143 143 143 143 141 141 141 141 141 141 141 141 141 141 141 141 141 141 141 141 141 141 143 143 143 141 141 141 143 143 143 143 124 111 111 111 111 111 111 111 195 143 143 152 141 141 141 141 152 152 152 141 141 152 152 152 141 141 141 143 141 143 143 143 143 143 143 143 143 143 143 143 143 143 143 143 143 143 143 143 143 143 143 143 143 143 143 143 190 143 143 143 143 143 143 143 143 143 143 143 143 143 143 190 142 142 131 131 131 111 111 111 111 111 111 111 111 111 111 111 111 111 111 111 111 111 111 111 111 111 111 111 111 111 111 111 111 111 111 111 111 111 111 111 111 111 111 
111 111 111 111 111 111 111 111 111 111 111 111 111 111 111 111 111 111 111 111 131 131 131 131 131 131 131 131 131 131 131 131 131 176 176 176 131 131 131 131 131 176 1 176 176 176 176 176 176 141 143 141 141 141 141 141 141 141 141 141 141 141 141 141 141 141 141 141 141 141 141 141 141 141 141 141 141 141 143 143 143 143 143 141 141 141 141 141 141 141 141 141 141 141 141 141 141 141 141 141 141 143 143 141 141 141 143 143 143 190 190 111 111 111 111 111 111 111 111 195 143 143 152 141 141 141 152 152 152 141 152 152 141 152 141 141 143 143 141 141 141 141 141 143 143 143 143 141 143 143 143 143 143 143 143 143 143 143 143 143 143 143 143 143 143 143 143 143 143 143 143 143 143 143 143 143 143 143 143 143 143 143 143 143 142 131 124 111 111 111 111 111 111 111 111 111 111 111 111 111 111 111 111 111 111 111 111 111 111 111 111 111 111 111 111 111 111 111 111 111 111 111 111 111 111 111 
111 111 111 111 111 111 111 111 111 111 111 111 111 111 111 111 111 111 111 111 131 131 131 131 131 131 131 131 131 131 131 131 176 176 176 176 131 131 131 176 131 131 131 176 176 176 176 176 152 143 143 143 141 141 141 141 141 141 141 141 141 141 141 141 141 141 141 141 141 141 143 141 141 141 141 141 141 141 141 141 141 143 143 143 141 141 141 141 141 141 141 141 141 141 141 141 141 141 141 141 141 141 141 141 141 141 143 143 190 195 111 111 111 111 111 111 111 111 111 142 143 141 152 152 152 141 141 152 152 152 152 141 141 152 141 141 143 141 141 141 141 141 141 143 143 143 143 141 143 143 143 143 143 143 143 143 143 143 143 143 143 143 143 143 143 143 143 143 143 143 143 143 143 143 143 143 143 143 143 143 143 143 143 143 142 131 131 111 111 111 111 111 111 111 111 111 111 111 111 111 111 111 111 111 111 111 111 111 111 111 111 111 111 111 111 111 111 111 111 111 111 111 111 111 111 111 
111 111 111 111 111 111 111 111 111 111 111 111 111 111 111 111 111 111 111 111 131 131 131 131 131 131 131 131 131 131 131 131 176 176 131 176 131 131 131 152 42 42 176 176 176 176 131 176 152 143 143 143 141 141 141 141 141 141 141 141 141 141 141 141 141 141 141 141 141 141 143 141 141 141 141 141 141 141 141 141 141 143 143 143 141 141 141 141 141 141 141 141 141 141 141 141 141 141 141 141 141 141 141 141 141 141 143 190 111 111 111 111 111 111 111 111 111 111 195 142 143 141 141 152 152 152 141 152 152 152 152 141 141 152 152 141 143 141 141 141 143 143 143 143 143 143 143 143 143 143 143 143 143 143 143 143 143 143 143 143 143 143 143 143 143 143 143 143 143 143 143 141 143 143 143 143 143 143 143 143 143 152 143 143 142 122 131 111 111 111 111 111 111 111 111 111 111 111 111 111 111 111 111 111 111 111 111 111 111 111 111 111 111 111 111 111 111 111 111 111 111 111 111 111 111 111 
111 111 111 111 111 111 111 111 111 111 111 111 111 111 111 111 111 111 111 111 131 131 131 131 131 131 131 152 42 28 131 131 176 176 42 176 176 176 176 152 1 131 176 1 176 176 176 176 152 143 143 143 141 143 141 141 141 141 141 141 141 141 141 141 141 141 141 141 141 141 141 141 141 141 141 141 141 141 141 141 141 141 143 143 141 141 141 141 141 141 141 141 141 141 141 141 143 143 141 141 141 141 143 141 141 143 190 111 111 111 111 111 111 111 111 111 111 111 142 143 143 141 152 141 152 152 152 152 143 143 152 141 152 152 152 141 143 143 141 143 143 143 143 141 141 141 143 143 143 143 143 143 143 143 143 143 143 143 143 143 143 143 143 143 143 143 143 143 143 143 143 143 143 143 143 143 143 143 143 143 143 143 190 152 122 176 131 111 111 111 111 111 111 111 111 111 111 111 111 111 111 111 111 111 111 111 111 111 111 111 111 111 111 111 111 111 111 111 111 111 111 111 111 111 111 111 
111 111 111 111 111 111 111 111 111 111 111 111 111 111 111 111 111 111 111 111 131 131 131 131 131 131 1 36 36 28 131 176 176 176 131 176 176 176 176 123 131 131 131 1 176 176 176 176 152 143 143 141 143 143 141 141 141 141 141 141 141 141 141 141 141 141 141 141 141 141 141 141 141 141 141 141 141 141 141 141 141 141 143 143 143 141 141 141 141 141 141 141 141 141 141 141 141 141 141 141 141 141 141 141 141 143 142 111 111 111 111 111 111 111 111 111 111 111 142 143 143 141 141 141 141 141 152 143 143 143 141 152 152 152 152 141 141 141 143 143 143 143 143 141 141 141 141 143 143 143 143 143 143 143 143 143 143 143 143 143 143 143 143 143 143 143 143 143 143 143 143 143 143 143 143 143 143 143 143 143 143 142 142 143 1 131 111 111 111 111 111 111 111 111 111 111 111 111 111 111 111 111 111 111 111 111 111 111 111 111 111 111 111 111 111 111 111 111 111 111 111 111 111 111 111 111 
111 111 111 111 111 111 111 111 111 111 111 111 111 111 111 111 111 111 111 111 131 131 131 131 131 131 131 131 131 131 131 131 176 176 131 176 176 176 176 131 131 131 131 131 176 176 176 152 143 143 141 141 143 143 143 141 141 143 141 141 141 141 141 141 141 141 141 141 143 141 141 141 141 141 141 141 141 141 141 141 141 141 141 141 143 143 141 141 141 141 141 141 141 141 141 141 141 141 141 141 141 143 141 141 143 190 195 111 111 111 111 111 111 111 111 111 111 195 143 141 141 141 152 141 141 141 152 152 152 152 152 152 141 152 152 152 141 141 141 141 143 143 143 141 141 141 143 143 143 143 143 143 143 143 143 143 143 143 143 143 143 143 143 143 143 143 143 143 143 143 143 143 143 143 143 143 143 143 143 143 142 142 190 36 131 131 111 111 111 111 111 111 111 111 111 111 111 111 111 111 111 111 111 111 111 111 111 111 111 111 111 111 111 111 111 111 111 111 111 111 111 111 111 111 111 111 
111 111 111 111 111 111 111 111 111 111 111 111 111 111 111 111 111 111 111 111 131 131 131 131 131 131 131 131 131 131 131 1 176 176 176 176 176 176 176 131 176 176 1 36 176 176 176 190 143 143 143 141 141 141 141 143 143 143 141 141 141 141 141 141 141 141 141 141 141 141 141 141 141 141 141 141 141 141 141 141 141 141 141 141 141 143 143 141 141 141 141 141 141 141 141 141 141 141 141 141 141 141 143 143 143 143 195 111 111 111 111 111 111 111 111 111 111 142 143 143 141 141 141 141 141 141 141 152 152 152 152 152 152 152 141 152 152 141 141 141 143 143 143 141 141 141 141 143 143 143 143 143 143 143 143 143 143 143 143 143 143 143 143 143 143 143 143 143 143 143 143 143 143 143 143 143 143 143 176 152 195 176 1 131 111 111 111 111 111 111 111 111 111 111 111 111 111 111 111 111 111 111 111 111 111 111 111 111 111 111 111 111 111 111 111 111 111 111 111 111 111 111 111 111 111 111 
111 111 111 111 111 111 111 111 111 111 111 111 111 111 111 111 111 111 111 111 111 131 131 131 131 131 131 131 131 131 131 176 176 131 152 176 176 152 152 131 176 176 152 176 152 131 176 152 190 143 143 141 141 141 143 141 141 143 141 141 141 141 141 141 141 141 141 141 141 141 141 141 141 141 141 141 141 143 141 141 141 141 141 141 141 141 143 141 141 141 143 141 141 141 141 141 141 141 141 141 141 141 141 141 143 143 111 111 111 111 111 111 111 111 111 142 142 143 143 143 143 141 141 152 141 152 152 152 152 152 152 152 152 141 141 141 152 141 141 143 143 143 143 143 141 141 141 143 143 143 143 143 143 143 143 143 143 143 143 143 143 143 143 143 143 143 143 143 143 143 143 143 143 143 143 143 143 131 131 131 131 131 131 131 111 111 111 111 111 111 111 111 111 111 111 111 111 111 111 111 111 111 111 111 111 111 111 111 111 111 111 111 111 111 111 111 111 111 111 111 111 111 111 111 111 111 
111 111 111 111 111 111 111 111 111 111 111 111 111 111 111 111 111 111 111 111 131 131 131 131 131 131 131 131 131 131 131 176 176 176 176 176 176 131 131 131 131 131 176 152 152 176 131 152 143 143 143 141 141 141 141 143 141 143 141 141 141 141 141 141 141 141 141 141 141 141 141 141 141 141 141 141 141 141 141 141 141 141 141 141 141 141 141 141 141 141 141 143 141 141 141 141 141 141 141 141 141 141 143 141 141 143 111 111 111 111 111 111 111 142 142 143 143 143 143 143 141 141 141 152 141 152 152 152 152 152 152 152 152 152 141 152 152 141 141 143 143 143 143 143 143 143 143 141 141 143 143 143 143 143 143 143 143 143 143 143 143 143 143 143 143 143 143 143 143 143 143 143 143 143 143 1 131 131 131 131 131 131 111 111 111 111 111 111 111 111 111 111 111 111 111 111 111 111 111 111 111 111 111 111 111 111 111 111 111 111 111 111 111 111 111 111 111 111 111 111 111 111 111 111 111 111 
111 111 111 111 111 111 111 111 111 111 111 111 111 111 111 111 111 111 111 111 131 131 131 131 131 131 131 131 131 131 131 176 176 176 176 176 176 176 131 131 176 131 131 176 152 176 176 152 143 143 143 143 141 141 141 143 141 141 143 141 141 141 141 141 141 141 141 141 141 141 143 141 141 141 141 141 141 141 141 141 141 141 141 141 141 141 141 141 141 141 141 141 141 141 141 141 141 141 141 141 141 141 143 141 141 190 111 111 111 111 111 111 195 142 142 143 143 143 143 143 143 141 141 152 141 141 141 141 152 152 152 152 152 152 141 141 141 141 143 143 143 143 141 141 143 143 143 143 141 143 143 143 143 143 143 143 143 143 143 143 143 143 143 143 143 143 143 143 143 143 190 141 1 131 131 131 131 131 131 131 111 111 111 111 111 111 111 111 111 111 111 111 111 111 111 111 111 111 111 111 111 111 111 111 111 111 111 111 111 111 111 111 111 111 111 111 111 111 111 111 111 111 111 111 111 111 
111 111 111 111 111 111 111 111 111 111 111 111 111 111 111 111 111 111 111 111 111 131 131 131 131 131 131 131 131 131 176 176 176 176 176 176 176 176 176 131 176 131 131 176 152 152 152 143 143 143 143 143 143 141 141 141 141 141 143 143 141 141 141 141 141 141 141 141 141 141 141 141 141 141 141 141 141 141 141 141 141 141 141 141 141 141 141 141 141 141 141 141 141 141 141 141 143 141 141 141 141 143 141 141 141 190 111 111 111 111 111 111 142 143 143 143 143 143 141 141 143 143 141 141 141 141 141 141 141 152 141 141 141 141 143 143 143 141 141 141 141 141 141 141 143 143 141 143 143 143 143 143 143 143 143 143 143 143 143 143 143 143 143 143 143 143 143 143 143 1 131 131 131 131 131 131 131 131 111 111 111 111 111 111 111 111 111 111 111 111 111 111 111 111 111 111 111 111 111 111 111 111 111 111 111 111 111 111 111 111 111 111 111 111 111 111 111 111 111 111 111 111 111 111 111 111 
111 111 111 111 111 111 111 111 111 111 111 111 111 111 111 111 111 111 111 111 111 131 131 131 131 131 131 131 131 131 1 176 176 176 176 176 131 131 131 131 131 131 131 176 143 143 141 143 141 141 141 141 141 141 141 143 141 141 143 143 141 141 141 141 141 141 141 141 141 141 141 141 141 141 141 141 141 141 141 141 141 141 141 141 141 141 141 141 141 141 141 141 141 141 141 141 141 141 141 141 141 143 143 141 141 190 195 111 111 111 111 111 142 143 143 143 143 143 141 141 143 143 143 143 143 141 141 141 143 143 141 143 143 141 143 143 143 141 141 141 141 141 141 141 141 141 141 143 143 141 143 143 143 143 143 143 143 143 143 143 143 143 143 143 143 143 143 36 131 131 131 131 111 111 111 111 111 111 111 111 111 111 111 111 111 111 111 111 111 111 111 111 111 111 111 111 111 111 111 111 111 111 111 111 111 111 111 111 111 111 111 111 111 111 111 111 111 111 111 111 111 111 111 111 111 111 
111 111 111 111 111 111 111 111 111 111 111 111 111 111 111 111 111 111 111 111 111 131 131 131 131 131 131 131 131 131 1 176 176 176 176 131 131 131 131 131 131 131 176 152 141 143 141 141 141 141 141 141 141 141 141 143 141 141 141 141 141 141 141 141 141 141 141 141 141 141 141 141 141 141 141 141 141 141 141 141 141 141 141 141 141 141 141 141 141 141 141 141 141 141 141 141 141 141 141 141 141 141 143 141 141 190 195 111 111 111 111 111 195 143 143 143 143 143 143 143 143 143 143 143 143 143 141 141 143 141 141 141 141 141 141 141 141 141 141 141 141 141 143 141 141 141 141 141 141 141 143 141 143 143 143 143 143 143 143 143 143 143 143 143 143 36 131 131 131 111 111 111 111 111 111 111 111 111 111 111 111 111 111 111 111 111 111 111 111 111 111 111 111 111 111 111 111 111 111 111 111 111 111 111 111 111 111 111 111 111 111 111 111 111 111 111 111 111 111 111 111 111 111 111 111 111 
111 111 111 111 111 111 111 111 111 111 111 111 111 111 111 111 111 111 111 111 111 131 131 131 131 131 131 131 131 131 176 176 131 176 131 131 131 131 176 131 152 176 176 141 143 143 143 141 141 143 141 141 141 141 141 141 141 141 141 141 141 141 141 141 141 141 141 141 141 141 141 141 141 141 141 141 141 141 141 141 141 141 141 141 141 141 141 141 141 141 141 141 141 141 141 141 141 141 141 141 143 143 141 141 143 152 195 111 111 111 111 111 111 143 143 143 143 143 143 143 143 143 142 143 143 143 141 143 143 141 141 141 143 141 141 141 141 141 141 141 141 141 143 143 141 141 141 141 141 141 141 141 141 141 141 143 143 141 141 143 143 143 143 190 1 131 131 131 111 111 111 111 111 111 111 111 111 111 111 111 111 111 111 111 111 111 111 111 111 111 111 111 111 111 111 111 111 111 111 111 111 111 111 111 111 111 111 111 111 111 111 111 111 111 111 111 111 111 111 111 111 111 111 111 111 111 
111 111 111 111 111 111 111 111 111 111 111 111 111 111 111 111 111 111 111 111 111 131 131 131 131 131 131 131 131 176 176 176 131 42 176 131 131 176 131 176 176 176 176 143 143 143 143 143 143 143 141 141 141 141 141 141 141 141 143 143 141 141 141 141 141 141 141 141 141 141 141 141 141 141 141 141 141 141 141 141 141 141 141 143 141 141 141 141 141 141 141 141 141 141 141 141 141 141 141 141 141 141 141 141 143 190 195 111 111 111 111 111 111 142 143 143 143 143 143 143 143 143 143 143 143 143 141 143 141 141 141 141 143 143 143 143 141 141 141 141 141 141 141 141 141 141 141 141 141 141 141 141 141 141 143 143 143 141 141 143 143 143 143 176 131 111 111 111 111 111 111 111 111 111 111 111 111 111 111 111 111 111 111 111 111 111 111 111 111 111 111 111 111 111 111 111 111 111 111 111 111 111 111 111 111 111 111 111 111 111 111 111 111 111 111 111 111 111 111 111 111 111 111 111 111 111 
111 111 111 111 111 111 111 111 111 111 111 111 111 111 111 111 111 111 111 111 111 131 131 131 131 131 131 131 131 176 176 131 131 176 176 176 152 176 131 131 131 176 152 143 143 143 143 141 143 143 143 141 141 141 141 141 141 141 143 141 141 141 141 141 141 141 141 141 141 141 141 141 141 141 141 141 141 141 141 141 141 141 141 141 141 141 141 141 141 141 141 141 141 141 141 141 141 141 141 141 141 141 141 141 143 195 111 111 111 111 111 111 111 142 142 143 143 143 143 143 143 143 143 143 143 141 141 141 143 143 143 143 143 143 143 141 143 141 141 141 141 141 141 141 141 141 141 141 141 141 141 141 143 141 143 143 143 143 143 141 143 190 131 131 111 111 111 111 111 111 111 111 111 111 111 111 111 111 111 111 111 111 111 111 111 111 111 111 111 111 111 111 111 111 111 111 111 111 111 111 111 111 111 111 111 111 111 111 111 111 111 111 111 111 111 111 111 111 111 111 111 111 111 111 111 111 
111 111 111 111 111 111 111 111 111 111 111 111 111 111 111 111 111 111 111 111 111 131 131 131 131 131 131 131 131 176 176 176 176 131 176 176 152 152 176 131 131 176 143 143 143 141 141 141 141 143 141 141 141 141 141 141 141 141 143 143 141 141 141 141 141 141 141 141 141 141 141 141 141 141 141 141 141 141 141 141 141 141 141 141 141 143 141 141 141 141 141 141 141 141 141 141 141 141 141 141 141 141 141 141 190 111 111 111 111 111 111 111 111 142 142 142 143 143 143 143 143 143 143 143 143 143 143 143 143 143 143 143 143 143 143 141 141 141 141 141 141 141 143 141 141 141 141 141 141 141 141 141 141 141 141 141 143 143 141 143 143 131 131 111 111 111 111 111 111 111 111 111 111 111 111 111 111 111 111 111 111 111 111 111 111 111 111 111 111 111 111 111 111 111 111 111 111 111 111 111 111 111 111 111 111 111 111 111 111 111 111 111 111 111 111 111 111 111 111 111 111 111 111 111 111 111 
111 111 111 111 111 111 111 111 111 111 111 111 111 111 111 111 111 111 111 111 111 131 131 131 131 131 131 131 1 176 176 176 176 131 176 152 152 176 176 131 131 152 143 143 143 143 143 141 141 141 143 141 141 141 141 141 141 141 143 143 141 141 141 141 141 141 141 141 141 141 141 141 141 141 141 141 141 141 141 141 141 141 141 141 141 141 141 141 141 141 141 141 141 141 141 141 141 141 141 141 141 141 141 141 143 111 111 111 111 111 111 111 111 142 142 142 143 143 143 143 143 143 143 143 143 143 143 143 143 143 143 143 143 143 143 143 141 141 141 141 141 141 141 143 141 141 141 141 141 141 141 141 141 141 141 141 141 143 143 152 131 131 111 111 111 111 111 111 111 111 111 111 111 111 111 111 111 111 111 111 111 111 111 111 111 111 111 111 111 111 111 111 111 111 111 111 111 111 111 111 111 111 111 111 111 111 111 111 111 111 111 111 111 111 111 111 111 111 111 111 111 111 111 111 111 111 
111 111 111 111 111 111 111 111 111 111 111 111 111 111 111 111 111 111 111 111 111 131 131 131 131 131 131 131 176 176 176 176 176 176 176 1 190 190 176 131 176 152 143 143 143 143 143 143 143 143 143 143 143 141 141 141 141 141 143 143 143 141 141 141 141 141 141 141 141 141 141 141 141 141 141 141 141 141 141 141 141 141 141 141 141 141 141 141 143 141 141 141 141 141 141 141 143 141 141 141 141 141 141 141 143 111 111 111 111 111 111 111 111 142 142 143 143 142 142 143 141 143 141 143 143 143 143 143 143 143 143 143 143 143 141 141 141 141 141 141 141 141 141 141 141 141 141 141 141 141 141 141 141 141 143 141 141 143 143 36 131 111 111 111 111 111 111 111 111 111 111 111 111 111 111 111 111 111 111 111 111 111 111 111 111 111 111 111 111 111 111 111 111 111 111 111 111 111 111 111 111 111 111 111 111 111 111 111 111 111 111 111 111 111 111 111 111 111 111 111 111 111 111 111 111 111 
111 111 111 111 111 111 111 111 111 111 111 111 111 111 111 111 111 111 111 111 111 111 131 131 131 131 131 131 131 131 131 176 176 176 152 152 152 176 176 176 176 143 143 143 143 143 143 143 143 141 141 141 141 141 141 141 141 141 141 143 141 141 141 141 141 141 141 141 141 141 141 141 141 141 141 141 141 141 141 141 141 141 141 141 141 141 141 141 143 141 141 141 141 141 143 141 141 141 141 141 141 141 141 141 141 111 111 111 111 111 111 111 195 142 142 142 142 142 143 141 141 141 141 143 143 143 143 143 143 143 143 143 143 143 141 141 141 141 141 141 141 141 141 141 141 141 141 141 141 152 152 152 152 141 143 141 141 143 176 131 111 111 111 111 111 111 111 111 111 111 111 111 111 111 111 111 111 111 111 111 111 111 111 111 111 111 111 111 111 111 111 111 111 111 111 111 111 111 111 111 111 111 111 111 111 111 111 111 111 111 111 111 111 111 111 111 111 111 111 111 111 111 111 111 111 111 
111 111 111 111 111 111 111 111 111 111 111 111 111 111 111 111 111 111 111 111 111 111 131 131 131 131 131 131 131 131 176 142 142 142 142 142 142 176 176 152 152 143 143 143 143 143 143 143 143 141 141 141 141 141 141 141 141 143 143 141 141 141 141 141 141 141 141 141 141 141 141 141 141 141 141 141 141 141 141 141 141 141 141 141 141 141 141 141 141 141 141 141 141 141 141 143 141 141 141 141 141 141 141 141 141 111 111 111 111 111 111 111 142 142 142 142 142 143 143 141 141 143 141 143 143 143 143 143 143 143 143 143 143 143 141 141 141 141 141 141 141 141 141 143 143 141 141 141 141 152 152 152 141 141 141 141 143 36 131 111 111 111 111 111 111 111 111 111 111 111 111 111 111 111 111 111 111 111 111 111 111 111 111 111 111 111 111 111 111 111 111 111 111 111 111 111 111 111 111 111 111 111 111 111 111 111 111 111 111 111 111 111 111 111 111 111 111 111 111 111 111 111 111 111 111 111 
111 111 111 111 111 111 111 111 111 111 111 111 111 111 111 111 111 111 111 111 111 111 111 131 131 131 131 131 131 176 152 152 142 142 142 142 176 176 131 131 176 143 143 143 143 143 143 143 141 141 141 141 141 143 141 141 141 141 141 141 141 141 141 141 141 141 141 141 141 141 141 141 141 141 141 141 141 143 141 141 141 141 141 141 141 141 141 141 141 141 141 141 141 141 141 141 141 141 141 141 141 141 141 141 141 195 111 111 111 111 111 111 142 142 143 142 142 143 143 141 141 141 143 141 143 143 190 143 143 143 190 190 143 143 141 143 141 141 143 143 141 141 141 143 143 143 141 141 141 141 141 141 141 141 143 143 36 131 111 111 111 111 111 111 111 111 111 111 111 111 111 111 111 111 111 111 111 111 111 111 111 111 111 111 111 111 111 111 111 111 111 111 111 111 111 111 111 111 111 111 111 111 111 111 111 111 111 111 111 111 111 111 111 111 111 111 111 111 111 111 111 111 111 111 111 111 
111 111 111 111 111 111 111 111 111 111 111 111 111 111 111 111 111 111 111 111 111 111 111 131 131 131 131 131 131 176 142 143 143 142 142 142 176 131 131 152 190 143 143 143 143 143 143 143 143 143 143 141 141 143 143 141 141 141 141 141 141 141 143 141 141 141 143 141 141 141 141 141 141 141 141 141 141 143 143 141 141 141 143 141 141 141 141 141 141 141 143 141 141 141 141 141 141 141 141 141 141 141 141 141 141 142 111 111 111 111 111 111 142 143 143 143 143 143 143 141 141 141 141 141 141 143 143 143 141 143 143 143 143 143 143 143 141 141 143 141 143 143 141 141 143 141 143 143 143 141 141 141 141 143 143 36 131 111 111 111 111 111 111 111 111 111 111 111 111 111 111 111 111 111 111 111 111 111 111 111 111 111 111 111 111 111 111 111 111 111 111 111 111 111 111 111 111 111 111 111 111 111 111 111 111 111 111 111 111 111 111 111 111 111 111 111 111 111 111 111 111 111 111 111 111 111 
111 111 111 111 111 111 111 111 111 111 111 111 111 111 111 111 111 111 111 111 111 111 111 131 131 131 131 131 176 142 142 143 143 143 143 143 176 176 176 152 142 143 143 143 143 143 143 143 143 143 143 143 141 143 143 141 141 141 141 141 143 143 141 141 141 141 141 141 141 141 141 141 141 141 141 141 141 141 143 143 143 143 141 141 141 141 141 141 141 141 141 141 141 141 141 141 141 141 141 141 143 143 141 141 141 142 111 111 111 111 111 111 142 143 143 143 141 141 141 141 141 141 141 141 141 143 143 143 141 141 143 143 143 152 141 141 141 141 143 143 143 143 141 141 141 141 143 143 143 141 141 141 141 143 141 131 111 111 111 111 111 111 111 111 111 111 111 111 111 111 111 111 111 111 111 111 111 111 111 111 111 111 111 111 111 111 111 111 111 111 111 111 111 111 111 111 111 111 111 111 111 111 111 111 111 111 111 111 111 111 111 111 111 111 111 111 111 111 111 111 111 111 111 111 111 111 
111 111 111 111 111 111 111 111 111 111 111 111 111 111 111 111 111 111 111 111 111 111 111 131 131 131 131 176 176 142 143 143 143 143 143 143 143 143 152 143 142 143 143 143 143 143 143 143 143 143 143 143 141 143 141 141 141 141 141 141 141 141 143 141 141 141 141 141 141 141 141 141 141 141 141 141 141 141 141 141 141 143 143 143 141 141 141 141 141 141 141 141 141 141 141 141 141 143 141 143 143 141 141 141 141 141 143 195 111 111 111 142 143 143 141 141 141 141 141 141 141 141 141 141 141 141 143 141 141 141 143 143 143 152 141 141 141 143 143 143 143 143 141 141 141 143 143 143 143 143 141 141 143 143 176 131 111 111 111 111 111 111 111 111 111 111 111 111 111 111 111 111 111 111 111 111 111 111 111 111 111 111 111 111 111 111 111 111 111 111 111 111 111 111 111 111 111 111 111 111 111 111 111 111 111 111 111 111 111 111 111 111 111 111 111 111 111 111 111 111 111 111 111 111 111 111 
111 111 111 111 111 111 111 111 111 111 111 111 111 111 111 111 111 111 111 111 111 111 111 131 131 131 131 131 131 37 143 143 143 143 143 143 143 143 143 143 143 143 143 143 143 143 143 143 143 143 143 143 143 141 141 141 141 141 141 141 141 143 141 141 141 141 141 141 141 141 141 141 141 141 141 141 141 141 141 141 141 143 141 141 141 141 141 143 143 141 141 141 141 141 141 141 141 141 141 141 143 143 141 141 141 141 141 152 195 142 143 143 143 141 141 141 141 141 141 141 141 141 141 141 141 141 141 141 141 141 141 143 143 152 152 152 141 141 143 143 143 141 141 141 141 143 143 143 143 143 143 143 143 152 131 111 111 111 111 111 111 111 111 111 111 111 111 111 111 111 111 111 111 111 111 111 111 111 111 111 111 111 111 111 111 111 111 111 111 111 111 111 111 111 111 111 111 111 111 111 111 111 111 111 111 111 111 111 111 111 111 111 111 111 111 111 111 111 111 111 111 111 111 111 111 111 
111 111 111 111 111 111 111 111 111 111 111 111 111 111 111 111 111 111 111 111 111 111 111 131 131 131 131 131 131 1 152 143 143 143 143 143 143 143 143 143 143 143 143 143 143 143 143 143 143 143 143 143 143 143 143 141 141 141 141 141 141 141 141 141 141 141 141 141 141 141 141 141 143 143 143 143 141 141 143 141 141 141 141 141 141 141 143 141 141 141 141 141 141 141 141 141 141 141 141 141 141 141 141 141 141 141 152 141 141 141 143 143 141 141 141 141 141 141 141 141 141 141 141 141 141 141 141 141 141 141 141 143 143 152 152 152 141 141 143 141 141 141 143 141 141 143 143 143 143 143 143 190 36 131 131 111 111 111 111 111 111 111 111 111 111 111 111 111 111 111 111 111 111 111 111 111 111 111 111 111 111 111 111 111 111 111 111 111 111 111 111 111 111 111 111 111 111 111 111 111 111 111 111 111 111 111 111 111 111 111 111 111 111 111 111 111 111 111 111 111 111 111 111 111 111 111 
111 111 111 111 111 111 111 111 111 111 111 111 111 111 111 111 111 111 111 111 111 111 111 111 131 131 131 131 131 42 143 143 143 143 143 143 143 143 143 143 143 143 143 143 143 143 143 143 143 143 143 143 143 143 143 141 141 143 141 141 141 141 141 141 141 141 143 141 141 141 141 141 143 143 141 141 141 141 143 141 141 141 141 141 141 141 141 141 141 141 141 141 141 152 141 141 152 141 141 141 141 143 143 141 141 141 141 141 143 143 143 143 141 141 141 141 141 141 141 141 141 141 141 141 141 141 141 141 141 141 143 143 141 152 152 121 141 141 141 143 143 143 143 143 143 143 143 36 131 1 131 131 131 131 111 111 111 111 111 111 111 111 111 111 111 111 111 111 111 111 111 111 111 111 111 111 111 111 111 111 111 111 111 111 111 111 111 111 111 111 111 111 111 111 111 111 111 111 111 111 111 111 111 111 111 111 111 111 111 111 111 111 111 111 111 111 111 111 111 111 111 111 111 111 111 111 
111 111 111 111 111 111 111 111 111 111 111 111 111 111 111 111 111 111 111 111 111 111 111 111 131 131 131 131 131 142 143 143 143 143 143 143 143 143 143 143 143 143 143 143 143 143 143 143 143 143 143 141 141 141 143 141 141 141 141 141 141 141 141 141 141 141 141 141 141 141 141 141 141 141 141 141 141 141 141 141 141 141 141 141 141 141 141 141 141 141 141 152 152 152 152 141 152 152 152 141 141 143 143 141 141 141 152 152 152 143 143 143 141 141 141 141 141 141 141 141 141 141 141 141 141 141 141 141 141 141 141 141 141 152 152 190 143 141 141 143 143 143 143 143 143 152 131 131 131 131 131 131 131 111 111 111 111 111 111 111 111 111 111 111 111 111 111 111 111 111 111 111 111 111 111 111 111 111 111 111 111 111 111 111 111 111 111 111 111 111 111 111 111 111 111 111 111 111 111 111 111 111 111 111 111 111 111 111 111 111 111 111 111 111 111 111 111 111 111 111 111 111 111 111 111 111 
111 111 111 111 111 111 111 111 111 111 111 111 111 111 111 111 111 111 111 111 111 111 111 111 131 131 131 131 131 36 176 143 143 143 143 143 143 143 143 143 143 143 143 143 143 143 143 143 141 143 143 141 143 143 141 141 141 141 141 141 141 141 141 141 141 141 141 141 141 141 141 141 141 141 141 141 141 141 141 141 141 141 141 141 141 141 141 141 141 141 141 152 152 152 152 152 152 152 152 141 141 143 141 141 141 141 141 141 152 141 141 141 141 141 141 141 141 141 141 141 141 141 141 141 152 141 141 141 143 143 141 143 143 152 122 143 143 141 141 143 143 143 36 36 131 131 131 131 111 111 111 111 111 111 111 111 111 111 111 111 111 111 111 111 111 111 111 111 111 111 111 111 111 111 111 111 111 111 111 111 111 111 111 111 111 111 111 111 111 111 111 111 111 111 111 111 111 111 111 111 111 111 111 111 111 111 111 111 111 111 111 111 111 111 111 111 111 111 111 111 111 111 111 111 111 111 
111 111 111 111 111 111 111 111 111 111 111 111 111 111 111 111 111 111 111 111 111 111 111 131 131 131 131 131 123 176 152 143 142 143 143 143 143 143 143 143 143 143 143 143 143 143 143 143 143 143 143 141 141 141 141 141 141 141 143 141 141 141 141 141 141 141 141 143 141 141 141 141 141 141 141 141 141 141 141 141 141 141 141 141 143 143 141 141 141 141 141 141 152 152 152 152 152 152 152 141 143 143 143 141 143 141 141 143 141 141 141 141 141 141 141 141 141 141 141 141 141 141 141 141 141 152 152 152 143 141 141 143 143 152 152 143 143 141 141 152 195 195 131 131 131 111 111 111 111 111 111 111 111 111 111 111 111 111 111 111 111 111 111 111 111 111 111 111 111 111 111 111 111 111 111 111 111 111 111 111 111 111 111 111 111 111 111 111 111 111 111 111 111 111 111 111 111 111 111 111 111 111 111 111 111 111 111 111 111 111 111 111 111 111 111 111 111 111 111 111 111 111 111 111 111 111 
111 111 111 111 111 111 111 111 111 111 111 111 111 111 111 111 111 111 111 111 111 111 111 131 131 131 131 131 122 131 176 176 142 143 143 143 143 143 143 143 143 143 143 190 143 143 143 143 143 143 143 141 143 143 143 143 141 141 141 141 141 141 141 141 141 141 141 141 141 141 141 141 141 141 141 141 141 141 141 141 141 141 141 141 141 141 141 141 141 141 141 141 141 152 152 152 152 152 152 141 143 143 143 141 143 141 141 141 141 141 141 141 141 141 141 141 141 141 141 141 141 141 141 141 141 141 152 152 143 152 141 143 143 143 152 141 141 141 195 131 111 111 111 111 111 111 111 111 111 111 111 111 111 111 111 111 111 111 111 111 111 111 111 111 111 111 111 111 111 111 111 111 111 111 111 111 111 111 111 111 111 111 111 111 111 111 111 111 111 111 111 111 111 111 111 111 111 111 111 111 111 111 111 111 111 111 111 111 111 111 111 111 111 111 111 111 111 111 111 111 111 111 111 111 111 111 
111 111 111 111 111 111 111 111 111 111 111 111 111 111 111 111 111 111 111 111 111 111 111 111 131 131 176 131 131 131 131 176 143 143 143 142 143 143 143 143 143 143 143 142 143 143 143 143 143 141 143 143 143 143 143 143 141 141 141 141 141 141 141 141 141 141 141 141 143 143 141 141 141 141 141 141 143 141 141 141 141 141 141 141 141 141 141 141 141 141 141 141 141 152 152 152 152 152 152 141 143 143 143 143 143 141 141 141 141 141 141 141 141 141 141 141 141 141 141 141 141 141 141 141 141 152 152 143 143 141 143 143 143 190 190 141 141 152 131 111 111 111 111 111 111 111 111 111 111 111 111 111 111 111 111 111 111 111 111 111 111 111 111 111 111 111 111 111 111 111 111 111 111 111 111 111 111 111 111 111 111 111 111 111 111 111 111 111 111 111 111 111 111 111 111 111 111 111 111 111 111 111 111 111 111 111 111 111 111 111 111 111 111 111 111 111 111 111 111 111 111 111 111 111 111 111 
111 111 111 111 111 111 111 111 111 111 111 111 111 111 111 111 111 111 111 111 111 111 111 111 131 131 131 131 131 131 28 36 143 142 142 142 143 143 143 143 143 143 190 142 142 143 143 143 143 143 143 143 141 143 143 143 141 143 141 141 141 141 141 141 141 141 141 141 141 141 141 141 141 141 141 141 141 143 141 141 143 141 141 141 141 141 141 141 141 141 141 141 143 152 152 152 152 152 143 141 141 143 143 143 143 141 141 141 141 141 141 141 141 141 141 141 141 141 141 141 141 141 141 141 152 152 143 143 143 141 152 141 143 143 143 152 121 131 111 111 111 111 111 111 111 111 111 111 111 111 111 111 111 111 111 111 111 111 111 111 111 111 111 111 111 111 111 111 111 111 111 111 111 111 111 111 111 111 111 111 111 111 111 111 111 111 111 111 111 111 111 111 111 111 111 111 111 111 111 111 111 111 111 111 111 111 111 111 111 111 111 111 111 111 111 111 111 111 111 111 111 111 111 111 111 111 
111 111 111 111 111 111 111 111 111 111 111 111 111 111 111 111 111 111 111 111 111 111 111 111 111 131 131 131 131 121 143 143 176 176 131 131 36 190 190 143 143 143 143 143 143 190 143 143 143 143 143 141 143 141 142 143 143 143 143 141 141 141 141 141 141 141 141 141 141 141 141 141 141 141 141 141 143 141 141 141 143 141 141 141 141 141 141 141 141 141 141 141 143 152 152 152 152 152 143 141 141 143 141 141 141 141 141 141 141 141 141 141 141 141 141 141 141 141 141 141 141 141 141 141 141 143 143 143 141 141 152 141 143 122 36 1 131 111 111 111 111 111 111 111 111 111 111 111 111 111 111 111 111 111 111 111 111 111 111 111 111 111 111 111 111 111 111 111 111 111 111 111 111 111 111 111 111 111 111 111 111 111 111 111 111 111 111 111 111 111 111 111 111 111 111 111 111 111 111 111 111 111 111 111 111 111 111 111 111 111 111 111 111 111 111 111 111 111 111 111 111 111 111 111 111 111 
111 111 111 111 111 111 111 111 111 111 111 111 111 111 111 111 111 111 111 111 111 111 111 111 111 131 131 131 131 142 142 176 176 131 131 131 131 131 1 36 36 190 142 143 143 143 143 143 190 143 143 143 141 141 143 143 143 143 143 141 141 141 141 141 141 141 141 141 143 141 141 141 141 141 141 141 141 141 141 141 143 141 141 141 141 141 141 141 141 141 141 141 152 152 152 152 152 152 143 141 141 141 141 141 141 141 141 141 141 143 143 141 141 141 141 141 141 141 141 141 141 141 141 141 143 143 143 143 141 141 141 143 190 123 131 131 131 131 111 111 111 111 111 111 111 111 111 111 111 111 111 111 111 111 111 111 111 111 111 111 111 111 111 111 111 111 111 111 111 111 111 111 111 111 111 111 111 111 111 111 111 111 111 111 111 111 111 111 111 111 111 111 111 111 111 111 111 111 111 111 111 111 111 111 111 111 111 111 111 111 111 111 111 111 111 111 111 111 111 111 111 111 111 111 111 111 
111 111 111 111 111 111 111 111 111 111 111 111 111 111 111 111 111 111 111 111 111 111 111 111 111 111 131 131 176 142 176 131 123 176 131 131 131 131 131 131 1 176 142 176 176 143 143 143 142 142 141 142 143 141 143 141 143 143 143 143 143 141 141 141 141 141 141 141 141 141 141 141 141 143 141 141 141 141 141 143 141 141 141 141 141 141 141 141 141 141 141 141 141 152 152 152 152 152 152 141 141 141 141 152 152 141 141 141 141 143 143 141 141 141 141 141 141 141 141 141 141 141 141 141 141 143 143 141 141 141 141 143 36 1 131 131 111 111 111 111 111 111 111 111 111 111 111 111 111 111 111 111 111 111 111 111 111 111 111 111 111 111 111 111 111 111 111 111 111 111 111 111 111 111 111 111 111 111 111 111 111 111 111 111 111 111 111 111 111 111 111 111 111 111 111 111 111 111 111 111 111 111 111 111 111 111 111 111 111 111 111 111 111 111 111 111 111 111 111 111 111 111 111 111 111 111 
111 111 111 111 111 111 111 111 111 111 111 111 111 111 111 111 111 111 111 111 111 111 111 111 111 111 111 111 131 1 131 131 131 176 176 176 131 131 131 131 131 195 190 176 176 142 190 143 142 142 142 143 143 143 143 141 143 143 143 142 142 143 143 141 141 141 141 141 141 141 141 141 141 143 141 141 141 141 141 141 141 141 141 141 141 143 141 141 141 141 141 141 141 152 152 152 141 152 141 141 141 141 141 141 141 141 141 141 141 143 143 143 141 141 141 141 141 141 141 141 141 141 141 141 143 143 143 141 141 141 141 143 152 131 111 111 111 111 111 111 111 111 111 111 111 111 111 111 111 111 111 111 111 111 111 111 111 111 111 111 111 111 111 111 111 111 111 111 111 111 111 111 111 111 111 111 111 111 111 111 111 111 111 111 111 111 111 111 111 111 111 111 111 111 111 111 111 111 111 111 111 111 111 111 111 111 111 111 111 111 111 111 111 111 111 111 111 111 111 111 111 111 111 111 111 111 
111 111 111 111 111 111 111 111 111 111 111 111 111 111 111 111 111 111 111 111 111 111 111 111 111 111 111 111 111 131 131 131 111 111 131 131 131 131 131 131 131 142 142 142 142 142 142 190 190 142 142 142 143 143 143 143 143 143 142 143 143 143 143 141 143 141 141 141 141 141 141 141 143 141 141 141 141 141 141 141 141 141 141 141 141 141 141 141 141 141 141 141 141 152 152 152 141 141 141 141 141 141 141 141 141 141 141 143 143 143 143 143 143 141 141 141 141 141 141 141 141 141 141 141 141 141 141 141 141 141 141 143 195 111 111 111 111 111 111 111 111 111 111 111 111 111 111 111 111 111 111 111 111 111 111 111 111 111 111 111 111 111 111 111 111 111 111 111 111 111 111 111 111 111 111 111 111 111 111 111 111 111 111 111 111 111 111 111 111 111 111 111 111 111 111 111 111 111 111 111 111 111 111 111 111 111 111 111 111 111 111 111 111 111 111 111 111 111 111 111 111 111 111 111 111 111 
111 111 111 111 111 111 111 111 111 111 111 111 111 111 111 111 111 111 111 111 111 111 111 111 111 111 111 111 111 111 111 111 111 111 111 111 131 131 131 131 131 176 176 142 190 176 176 131 28 176 142 190 142 143 143 143 143 142 143 143 141 141 143 143 143 143 143 141 141 141 141 143 141 141 141 141 141 143 141 141 141 141 141 141 141 141 141 141 141 141 141 141 141 141 141 141 141 141 141 141 141 141 141 141 141 141 141 143 143 122 152 143 141 141 141 141 141 141 141 141 141 141 141 141 143 141 141 143 143 36 36 195 131 111 111 111 111 111 111 111 111 111 111 111 111 111 111 111 111 111 111 111 111 111 111 111 111 111 111 111 111 111 111 111 111 111 111 111 111 111 111 111 111 111 111 111 111 111 111 111 111 111 111 111 111 111 111 111 111 111 111 111 111 111 111 111 111 111 111 111 111 111 111 111 111 111 111 111 111 111 111 111 111 111 111 111 111 111 111 111 111 111 111 111 111 111 
111 111 111 111 111 111 111 111 111 111 111 111 111 111 111 111 111 111 111 111 111 111 111 111 111 111 111 111 111 111 111 111 111 111 111 111 111 111 131 131 131 131 195 131 131 131 131 131 131 131 195 190 142 143 143 143 143 143 143 143 141 141 141 143 143 143 143 143 141 141 141 141 141 141 141 141 143 143 141 141 141 143 141 141 141 141 143 141 141 141 141 141 141 143 141 141 141 141 141 141 141 141 143 143 143 143 122 152 122 123 123 143 143 143 143 143 143 141 143 143 143 143 141 143 143 143 143 143 36 131 131 111 111 111 111 111 111 111 111 111 111 111 111 111 111 111 111 111 111 111 111 111 111 111 111 111 111 111 111 111 111 111 111 111 111 111 111 111 111 111 111 111 111 111 111 111 111 111 111 111 111 111 111 111 111 111 111 111 111 111 111 111 111 111 111 111 111 111 111 111 111 111 111 111 111 111 111 111 111 111 111 111 111 111 111 111 111 111 111 111 111 111 111 111 111 111 
111 111 111 111 111 111 111 111 111 111 111 111 111 111 111 111 111 111 111 111 111 111 111 111 111 111 111 111 111 111 111 111 111 111 111 111 111 111 111 111 111 131 111 111 111 111 131 131 131 131 176 142 176 143 190 190 190 190 143 143 141 141 141 143 143 141 141 143 141 141 141 141 141 141 141 143 143 143 141 141 141 143 143 141 141 141 143 143 143 141 141 143 141 143 143 143 143 143 143 141 143 143 143 143 36 176 131 195 131 131 131 195 190 190 143 131 176 36 36 28 141 141 143 176 36 36 36 122 111 111 111 111 111 111 111 111 111 111 111 111 111 111 111 111 111 111 111 111 111 111 111 111 111 111 111 111 111 111 111 111 111 111 111 111 111 111 111 111 111 111 111 111 111 111 111 111 111 111 111 111 111 111 111 111 111 111 111 111 111 111 111 111 111 111 111 111 111 111 111 111 111 111 111 111 111 111 111 111 111 111 111 111 111 111 111 111 111 111 111 111 111 111 111 111 111 111 
111 111 111 111 111 111 111 111 111 111 111 111 111 111 111 111 111 111 111 111 111 111 111 111 111 111 111 111 111 111 111 111 111 111 111 111 111 111 111 111 111 111 111 111 111 111 111 131 131 131 1 131 176 28 28 142 176 190 143 143 143 141 141 143 143 143 143 143 141 141 141 141 141 141 141 141 143 141 143 141 141 141 143 141 143 141 143 141 141 141 141 141 141 141 141 141 141 143 143 141 143 36 1 131 131 111 111 111 111 111 111 111 111 111 131 131 195 131 131 131 131 131 131 131 131 131 131 111 111 111 111 111 111 111 111 111 111 111 111 111 111 111 111 111 111 111 111 111 111 111 111 111 111 111 111 111 111 111 111 111 111 111 111 111 111 111 111 111 111 111 111 111 111 111 111 111 111 111 111 111 111 111 111 111 111 111 111 111 111 111 111 111 111 111 111 111 111 111 111 111 111 111 111 111 111 111 111 111 111 111 111 111 111 111 111 111 111 111 111 111 111 111 111 111 111 111 
111 111 111 111 111 111 111 111 111 111 111 111 111 111 111 111 111 111 111 111 111 111 111 111 111 111 111 111 111 111 111 111 111 111 111 111 111 111 111 111 111 111 111 111 111 111 111 111 111 131 131 131 131 131 131 176 131 176 36 36 143 143 143 143 143 141 141 143 141 141 143 141 141 141 141 141 141 141 141 141 141 141 141 141 141 143 141 141 141 141 141 141 141 141 141 141 143 143 143 143 36 131 131 111 111 111 111 111 111 111 111 111 111 111 111 111 111 111 111 131 131 131 131 111 111 111 111 111 111 111 111 111 111 111 111 111 111 111 111 111 111 111 111 111 111 111 111 111 111 111 111 111 111 111 111 111 111 111 111 111 111 111 111 111 111 111 111 111 111 111 111 111 111 111 111 111 111 111 111 111 111 111 111 111 111 111 111 111 111 111 111 111 111 111 111 111 111 111 111 111 111 111 111 111 111 111 111 111 111 111 111 111 111 111 111 111 111 111 111 111 111 111 111 111 111 111 
111 111 111 111 111 111 111 111 111 111 111 111 111 111 111 111 111 111 111 111 111 111 111 111 111 111 111 111 111 111 111 111 111 111 111 111 111 111 111 111 111 111 111 111 111 111 111 111 111 111 111 111 111 131 131 131 131 176 1 131 190 143 143 143 141 141 141 143 141 141 143 143 141 141 141 143 141 141 141 141 141 141 143 141 141 141 141 141 141 141 141 141 141 141 141 143 143 143 36 176 131 111 111 111 111 111 111 111 111 111 111 111 111 111 111 111 111 111 111 111 111 111 111 111 111 111 111 111 111 111 111 111 111 111 111 111 111 111 111 111 111 111 111 111 111 111 111 111 111 111 111 111 111 111 111 111 111 111 111 111 111 111 111 111 111 111 111 111 111 111 111 111 111 111 111 111 111 111 111 111 111 111 111 111 111 111 111 111 111 111 111 111 111 111 111 111 111 111 111 111 111 111 111 111 111 111 111 111 111 111 111 111 111 111 111 111 111 111 111 111 111 111 111 111 111 111 
111 111 111 111 111 111 111 111 111 111 111 111 111 111 111 111 111 111 111 111 111 111 111 111 111 111 111 111 111 111 111 111 111 111 111 111 111 111 111 111 111 111 111 111 111 111 111 111 111 111 111 111 111 111 111 131 131 131 131 131 176 176 143 143 143 143 143 143 143 141 143 143 141 141 143 141 141 143 143 141 141 141 141 143 141 141 143 141 141 141 141 141 141 143 143 143 143 1 131 111 111 111 111 111 111 111 111 111 111 111 111 111 111 111 111 111 111 111 111 111 111 111 111 111 111 111 111 111 111 111 111 111 111 111 111 111 111 111 111 111 111 111 111 111 111 111 111 111 111 111 111 111 111 111 111 111 111 111 111 111 111 111 111 111 111 111 111 111 111 111 111 111 111 111 111 111 111 111 111 111 111 111 111 111 111 111 111 111 111 111 111 111 111 111 111 111 111 111 111 111 111 111 111 111 111 111 111 111 111 111 111 111 111 111 111 111 111 111 111 111 111 111 111 111 111 111 
111 111 111 111 111 111 111 111 111 111 111 111 111 111 111 111 111 111 111 111 111 111 111 111 111 111 111 111 111 111 111 111 111 111 111 111 111 111 111 111 111 111 111 111 111 111 111 111 111 111 111 111 111 111 111 111 111 111 131 111 131 176 176 143 143 143 143 141 141 141 143 143 143 141 141 143 143 143 143 141 143 143 141 141 141 141 143 141 141 141 141 143 143 143 143 143 131 131 111 111 111 111 111 111 111 111 111 111 111 111 111 111 111 111 111 111 111 111 111 111 111 111 111 111 111 111 111 111 111 111 111 111 111 111 111 111 111 111 111 111 111 111 111 111 111 111 111 111 111 111 111 111 111 111 111 111 111 111 111 111 111 111 111 111 111 111 111 111 111 111 111 111 111 111 111 111 111 111 111 111 111 111 111 111 111 111 111 111 111 111 111 111 111 111 111 111 111 111 111 111 111 111 111 111 111 111 111 111 111 111 111 111 111 111 111 111 111 111 111 111 111 111 111 111 111 111 
111 111 111 111 111 111 111 111 111 111 111 111 111 111 111 111 111 111 111 111 111 111 111 111 111 111 111 111 111 111 111 111 111 111 111 111 111 111 111 111 111 111 111 111 111 111 111 111 111 111 111 111 111 111 111 111 111 111 111 111 131 131 176 143 142 142 143 143 143 143 143 143 143 143 143 36 143 36 36 143 143 143 141 141 141 143 143 143 143 36 143 143 143 143 152 1 131 111 111 111 111 111 111 111 111 111 111 111 111 111 111 111 111 111 111 111 111 111 111 111 111 111 111 111 111 111 111 111 111 111 111 111 111 111 111 111 111 111 111 111 111 111 111 111 111 111 111 111 111 111 111 111 111 111 111 111 111 111 111 111 111 111 111 111 111 111 111 111 111 111 111 111 111 111 111 111 111 111 111 111 111 111 111 111 111 111 111 111 111 111 111 111 111 111 111 111 111 111 111 111 111 111 111 111 111 111 111 111 111 111 111 111 111 111 111 111 111 111 111 111 111 111 111 111 111 111 
111 111 111 111 111 111 111 111 111 111 111 111 111 111 111 111 111 111 111 111 111 111 111 111 111 111 111 111 111 111 111 111 111 111 111 111 111 111 111 111 111 111 111 111 111 111 111 111 111 111 111 111 111 111 111 111 111 111 111 111 111 111 131 195 176 143 176 176 143 143 36 143 143 143 143 143 143 143 152 36 36 152 141 141 152 36 176 176 36 36 36 36 1 1 1 131 131 111 111 111 111 111 111 111 111 111 111 111 111 111 111 111 111 111 111 111 111 111 111 111 111 111 111 111 111 111 111 111 111 111 111 111 111 111 111 111 111 111 111 111 111 111 111 111 111 111 111 111 111 111 111 111 111 111 111 111 111 111 111 111 111 111 111 111 111 111 111 111 111 111 111 111 111 111 111 111 111 111 111 111 111 111 111 111 111 111 111 111 111 111 111 111 111 111 111 111 111 111 111 111 111 111 111 111 111 111 111 111 111 111 111 111 111 111 111 111 111 111 111 111 111 111 111 111 111 111 
111 111 111 111 111 111 111 111 111 111 111 111 111 111 111 111 111 111 111 111 111 111 111 111 111 111 111 111 111 111 111 111 111 111 111 111 111 111 111 111 111 111 111 111 111 111 111 111 111 111 111 111 111 111 111 111 111 111 111 111 111 111 111 131 131 131 131 131 176 36 1 1 1 36 1 36 143 143 143 143 36 36 36 36 36 36 176 176 122 131 131 131 131 111 111 111 111 111 111 111 111 111 111 111 111 111 111 111 111 111 111 111 111 111 111 111 111 111 111 111 111 111 111 111 111 111 111 111 111 111 111 111 111 111 111 111 111 111 111 111 111 111 111 111 111 111 111 111 111 111 111 111 111 111 111 111 111 111 111 111 111 111 111 111 111 111 111 111 111 111 111 111 111 111 111 111 111 111 111 111 111 111 111 111 111 111 111 111 111 111 111 111 111 111 111 111 111 111 111 111 111 111 111 111 111 111 111 111 111 111 111 111 111 111 111 111 111 111 111 111 111 111 111 111 111 111 
111 111 111 111 111 111 111 111 111 111 111 111 111 111 111 111 111 111 111 111 111 111 111 111 111 111 111 111 111 111 111 111 111 111 111 111 111 111 111 111 111 111 111 111 111 111 111 111 111 111 111 111 111 111 111 111 111 111 111 111 111 111 111 111 111 111 131 131 131 131 131 131 111 131 131 131 36 28 36 143 143 36 152 152 36 36 36 36 195 111 111 111 111 111 111 111 111 111 111 111 111 111 111 111 111 111 111 111 111 111 111 111 111 111 111 111 111 111 111 111 111 111 111 111 111 111 111 111 111 111 111 111 111 111 111 111 111 111 111 111 111 111 111 111 111 111 111 111 111 111 111 111 111 111 111 111 111 111 111 111 111 111 111 111 111 111 111 111 111 111 111 111 111 111 111 111 111 111 111 111 111 111 111 111 111 111 111 111 111 111 111 111 111 111 111 111 111 111 111 111 111 111 111 111 111 111 111 111 111 111 111 111 111 111 111 111 111 111 111 111 111 111 111 111 111 111 
111 111 111 111 111 111 111 111 111 111 111 111 111 111 111 111 111 111 111 111 111 111 111 111 111 111 111 111 111 111 111 111 111 111 111 111 111 111 111 111 111 111 111 111 111 111 111 111 111 111 111 111 111 111 111 111 111 111 111 111 111 111 111 111 111 111 111 111 111 111 111 111 111 111 111 111 111 131 1 36 36 143 152 143 143 152 36 111 111 111 111 111 111 111 111 111 111 111 111 111 111 111 111 111 111 111 111 111 111 111 111 111 111 111 111 111 111 111 111 111 111 111 111 111 111 111 111 111 111 111 111 111 111 111 111 111 111 111 111 111 111 111 111 111 111 111 111 111 111 111 111 111 111 111 111 111 111 111 111 111 111 111 111 111 111 111 111 111 111 111 111 111 111 111 111 111 111 111 111 111 111 111 111 111 111 111 111 111 111 111 111 111 111 111 111 111 111 111 111 111 111 111 111 111 111 111 111 111 111 111 111 111 111 111 111 111 111 111 111 111 111 111 111 111 111 111 
111 111 111 111 111 111 111 111 111 111 111 111 111 111 111 111 111 111 111 111 111 111 111 111 111 111 111 111 111 111 111 111 111 111 111 111 111 111 111 111 111 111 111 111 111 111 111 111 111 111 111 111 111 111 111 111 111 111 111 111 111 111 111 111 111 111 111 111 111 111 111 111 111 111 111 111 111 111 131 28 36 152 143 152 36 36 195 111 111 111 111 111 111 111 111 111 111 111 111 111 111 111 111 111 111 111 111 111 111 111 111 111 111 111 111 111 111 111 111 111 111 111 111 111 111 111 111 111 111 111 111 111 111 111 111 111 111 111 111 111 111 111 111 111 111 111 111 111 111 111 111 111 111 111 111 111 111 111 111 111 111 111 111 111 111 111 111 111 111 111 111 111 111 111 111 111 111 111 111 111 111 111 111 111 111 111 111 111 111 111 111 111 111 111 111 111 111 111 111 111 111 111 111 111 111 111 111 111 111 111 111 111 111 111 111 111 111 111 111 111 111 111 111 111 111 111 
111 111 111 111 111 111 111 111 111 111 111 111 111 111 111 111 111 111 111 111 111 111 111 111 111 111 111 111 111 111 111 111 111 111 111 111 111 111 111 111 111 111 111 111 111 111 111 111 111 111 111 111 111 111 111 111 111 111 111 111 111 111 111 111 111 111 111 111 111 111 111 111 111 111 111 111 111 111 111 131 195 36 36 37 195 131 111 111 111 111 111 111 111 111 111 111 111 111 111 111 111 111 111 111 111 111 111 111 111 111 111 111 111 111 111 111 111 111 111 111 111 111 111 111 111 111 111 111 111 111 111 111 111 111 111 111 111 111 111 111 111 111 111 111 111 111 111 111 111 111 111 111 111 111 111 111 111 111 111 111 111 111 111 111 111 111 111 111 111 111 111 111 111 111 111 111 111 111 111 111 111 111 111 111 111 111 111 111 111 111 111 111 111 111 111 111 111 111 111 111 111 111 111 111 111 111 111 111 111 111 111 111 111 111 111 111 111 111 111 111 111 111 111 111 111 111 
111 111 111 111 111 111 111 111 111 111 111 111 111 111 111 111 111 111 111 111 111 111 111 111 111 111 111 111 111 111 111 111 111 111 111 111 111 111 111 111 111 111 111 111 111 111 111 111 111 111 111 111 111 111 111 111 111 111 111 111 111 111 111 111 111 111 111 111 111 111 111 111 111 111 111 111 111 111 111 111 111 195 195 111 111 111 111 111 111 111 111 111 111 111 111 111 111 111 111 111 111 111 111 111 111 111 111 111 111 111 111 111 111 111 111 111 111 111 111 111 111 111 111 111 111 111 111 111 111 111 111 111 111 111 111 111 111 111 111 111 111 111 111 111 111 111 111 111 111 111 111 111 111 111 111 111 111 111 111 111 111 111 111 111 111 111 111 111 111 111 111 111 111 111 111 111 111 111 111 111 111 111 111 111 111 111 111 111 111 111 111 111 111 111 111 111 111 111 111 111 111 111 111 111 111 111 111 111 111 111 111 111 111 111 111 111 111 111 111 111 111 111 111 111 111 111 
111 111 111 111 111 111 111 111 111 111 111 111 111 111 111 111 111 111 111 111 111 111 111 111 111 111 111 111 111 111 111 111 111 111 111 111 111 111 111 111 111 111 111 111 111 111 111 111 111 111 111 111 111 111 111 111 111 111 111 111 111 111 111 111 111 111 111 111 111 111 111 111 111 111 111 111 111 111 111 111 111 111 111 111 111 111 111 111 111 111 111 111 111 111 111 111 111 111 111 111 111 111 111 111 111 111 111 111 111 111 111 111 111 111 111 111 111 111 111 111 111 111 111 111 111 111 111 111 111 111 111 111 111 111 111 111 111 111 111 111 111 111 111 111 111 111 111 111 111 111 111 111 111 111 111 111 111 111 111 111 111 111 111 111 111 111 111 111 111 111 111 111 111 111 111 111 111 111 111 111 111 111 111 111 111 111 111 111 111 111 111 111 111 111 111 111 111 111 111 111 111 111 111 111 111 111 111 111 111 111 111 111 111 111 111 111 111 111 111 111 111 111 111 111 111 111 
111 111 111 111 111 111 111 111 111 111 111 111 111 111 111 111 111 111 111 111 111 111 111 111 111 111 111 111 111 111 111 111 111 111 111 111 111 111 111 111 111 111 111 111 111 111 111 111 111 111 111 111 111 111 111 111 111 111 111 111 111 111 111 111 111 111 111 111 111 111 111 111 111 111 111 111 111 111 111 111 111 111 111 111 111 111 111 111 111 111 111 111 111 111 111 111 111 111 111 111 111 111 111 111 111 111 111 111 111 111 111 111 111 111 111 111 111 111 111 111 111 111 111 111 111 111 111 111 111 111 111 111 111 111 111 111 111 111 111 111 111 111 111 111 111 111 111 111 111 111 111 111 111 111 111 111 111 111 111 111 111 111 111 111 111 111 111 111 111 111 111 111 111 111 111 111 111 111 111 111 111 111 111 111 111 111 111 111 111 111 111 111 111 111 111 111 111 111 111 111 111 111 111 111 111 111 111 111 111 111 111 111 111 111 111 111 111 111 111 111 111 111 111 111 111 111 
111 111 111 111 111 111 111 111 111 111 111 111 111 111 111 111 111 111 111 111 111 111 111 111 111 111 111 111 111 111 111 111 111 111 111 111 111 111 111 111 111 111 111 111 111 111 111 111 111 111 111 111 111 111 111 111 111 111 111 111 111 111 111 111 111 111 111 111 111 111 111 111 111 111 111 111 111 111 111 111 111 111 111 111 111 111 111 111 111 111 111 111 111 111 111 111 111 111 111 111 111 111 111 111 111 111 111 111 111 111 111 111 111 111 111 111 111 111 111 111 111 111 111 111 111 111 111 111 111 111 111 111 111 111 111 111 111 111 111 111 111 111 111 111 111 111 111 111 111 111 111 111 111 111 111 111 111 111 111 111 111 111 111 111 111 111 111 111 111 111 111 111 111 111 111 111 111 111 111 111 111 111 111 111 111 111 111 111 111 111 111 111 111 111 111 111 111 111 111 111 111 111 111 111 111 111 111 111 111 111 111 111 111 111 111 111 111 111 111 111 111 111 111 111 111 111 
111 111 111 111 111 111 111 111 111 111 111 111 111 111 111 111 111 111 111 111 111 111 111 111 111 111 111 111 111 111 111 111 111 111 111 111 111 111 111 111 111 111 111 111 111 111 111 111 111 111 111 111 111 111 111 111 111 111 111 111 111 111 111 111 111 111 111 111 111 111 111 111 111 111 111 111 111 111 111 111 111 111 111 111 111 111 111 111 111 111 111 111 111 111 111 111 111 111 111 111 111 111 111 111 111 111 111 111 111 111 111 111 111 111 111 111 111 111 111 111 111 111 111 111 111 111 111 111 111 111 111 111 111 111 111 111 111 111 111 111 111 111 111 111 111 111 111 111 111 111 111 111 111 111 111 111 111 111 111 111 111 111 111 111 111 111 111 111 111 111 111 111 111 111 111 111 111 111 111 111 111 111 111 111 111 111 111 111 111 111 111 111 111 111 111 111 111 111 111 111 111 111 111 111 111 111 111 111 111 111 111 111 111 111 111 111 111 111 111 111 111 111 111 111 111 111 
111 111 111 111 111 111 111 111 111 111 111 111 111 111 111 111 111 111 111 111 111 111 111 111 111 111 111 111 111 111 111 111 111 111 111 111 111 111 111 111 111 111 111 111 111 111 111 111 111 111 111 111 111 111 111 111 111 111 111 111 111 111 111 111 111 111 111 111 111 111 111 111 111 111 111 111 111 111 111 111 111 111 111 111 111 111 111 111 111 111 111 111 111 111 111 111 111 111 111 111 111 111 111 111 111 111 111 111 111 111 111 111 111 111 111 111 111 111 111 111 111 111 111 111 111 111 111 111 111 111 111 111 111 111 111 111 111 111 111 111 111 111 111 111 111 111 111 111 111 111 111 111 111 111 111 111 111 111 111 111 111 111 111 111 111 111 111 111 111 111 111 111 111 111 111 111 111 111 111 111 111 111 111 111 111 111 111 111 111 111 111 111 111 111 111 111 111 111 111 111 111 111 111 111 111 111 111 111 111 111 111 111 111 111 111 111 111 111 111 111 111 111 111 111 111 111 
111 111 111 111 111 111 111 111 111 111 111 111 111 111 111 111 111 111 111 111 111 111 111 111 111 111 111 111 111 111 111 111 111 111 111 111 111 111 111 111 111 111 111 111 111 111 111 111 111 111 111 111 111 111 111 111 111 111 111 111 111 111 111 111 111 111 111 111 111 111 111 111 111 111 111 111 111 111 111 111 111 111 111 111 111 111 111 111 111 111 111 111 111 111 111 111 111 111 111 111 111 111 111 111 111 111 111 111 111 111 111 111 111 111 111 111 111 111 111 111 111 111 111 111 111 111 111 111 111 111 111 111 111 111 111 111 111 111 111 111 111 111 111 111 111 111 111 111 111 111 111 111 111 111 111 111 111 111 111 111 111 111 111 111 111 111 111 111 111 111 111 111 111 111 111 111 111 111 111 111 111 111 111 111 111 111 111 111 111 111 111 111 111 111 111 111 111 111 111 111 111 111 111 111 111 111 111 111 111 111 111 111 111 111 111 111 111 111 111 111 111 111 111 111 111 111 
111 111 111 111 111 111 111 111 111 111 111 111 111 111 111 111 111 111 111 111 111 111 111 111 111 111 111 111 111 111 111 111 111 111 111 111 111 111 111 111 111 111 111 111 111 111 111 111 111 111 111 111 111 111 111 111 111 111 111 111 111 111 111 111 111 111 111 111 111 111 111 111 111 111 111 111 111 111 111 111 111 111 111 111 111 111 111 111 111 111 111 111 111 111 111 111 111 111 111 111 111 111 111 111 111 111 111 111 111 111 111 111 111 111 111 111 111 111 111 111 111 111 111 111 111 111 111 111 111 111 111 111 111 111 111 111 111 111 111 111 111 111 111 111 111 111 111 111 111 111 111 111 111 111 111 111 111 111 111 111 111 111 111 111 111 111 111 111 111 111 111 111 111 111 111 111 111 111 111 111 111 111 111 111 111 111 111 111 111 111 111 111 111 111 111 111 111 111 111 111 111 111 111 111 111 111 111 111 111 111 111 111 111 111 111 111 111 111 111 111 111 111 111 111 111 111 
111 111 111 111 111 111 111 111 111 111 111 111 111 111 111 111 111 111 111 111 111 111 111 111 111 111 111 111 111 111 111 111 111 111 111 111 111 111 111 111 111 111 111 111 111 111 111 111 111 111 111 111 111 111 111 111 111 111 111 111 111 111 111 111 111 111 111 111 111 111 111 111 111 111 111 111 111 111 111 111 111 111 111 111 111 111 111 111 111 111 111 111 111 111 111 111 111 111 111 111 111 111 111 111 111 111 111 111 111 111 111 111 111 111 111 111 111 111 111 111 111 111 111 111 111 111 111 111 111 111 111 111 111 111 111 111 111 111 111 111 111 111 111 111 111 111 111 111 111 111 111 111 111 111 111 111 111 111 111 111 111 111 111 111 111 111 111 111 111 111 111 111 111 111 111 111 111 111 111 111 111 111 111 111 111 111 111 111 111 111 111 111 111 111 111 111 111 111 111 111 111 111 111 111 111 111 111 111 111 111 111 111 111 111 111 111 111 111 111 111 111 111 111 111 111 111 
111 111 111 111 111 111 111 111 111 111 111 111 111 111 111 111 111 111 111 111 111 111 111 111 111 111 111 111 111 111 111 111 111 111 111 111 111 111 111 111 111 111 111 111 111 111 111 111 111 111 111 111 111 111 111 111 111 111 111 111 111 111 111 111 111 111 111 111 111 111 111 111 111 111 111 111 111 111 111 111 111 111 111 111 111 111 111 111 111 111 111 111 111 111 111 111 111 111 111 111 111 111 111 111 111 111 111 111 111 111 111 111 111 111 111 111 111 111 111 111 111 111 111 111 111 111 111 111 111 111 111 111 111 111 111 111 111 111 111 111 111 111 111 111 111 111 111 111 111 111 111 111 111 111 111 111 111 111 111 111 111 111 111 111 111 111 111 111 111 111 111 111 111 111 111 111 111 111 111 111 111 111 111 111 111 111 111 111 111 111 111 111 111 111 111 111 111 111 111 111 111 111 111 111 111 111 111 111 111 111 111 111 111 111 111 111 111 111 111 111 111 111 111 111 111 111 
111 111 111 111 111 111 111 111 111 111 111 111 111 111 111 111 111 111 111 111 111 111 111 111 111 111 111 111 111 111 111 111 111 111 111 111 111 111 111 111 111 111 111 111 111 111 111 111 111 111 111 111 111 111 111 111 111 111 111 111 111 111 111 111 111 111 111 111 111 111 111 111 111 111 111 111 111 111 111 111 111 111 111 111 111 111 111 111 111 111 111 111 111 111 111 111 111 111 111 111 111 111 111 111 111 111 111 111 111 111 111 111 111 111 111 111 111 111 111 111 111 111 111 111 111 111 111 111 111 111 111 111 111 111 111 111 111 111 111 111 111 111 111 111 111 111 111 111 111 111 111 111 111 111 111 111 111 111 111 111 111 111 111 111 111 111 111 111 111 111 111 111 111 111 111 111 111 111 111 111 111 111 111 111 111 111 111 111 111 111 111 111 111 111 111 111 111 111 111 111 111 111 111 111 111 111 111 111 111 111 111 111 111 111 111 111 111 111 111 111 111 111 111 111 111 111 
111 111 111 111 111 111 111 111 111 111 111 111 111 111 111 111 111 111 111 111 111 111 111 111 111 111 111 111 111 111 111 111 111 111 111 111 111 111 111 111 111 111 111 111 111 111 111 111 111 111 111 111 111 111 111 111 111 111 111 111 111 111 111 111 111 111 111 111 111 111 111 111 111 111 111 111 111 111 111 111 111 111 111 111 111 111 111 111 111 111 111 111 111 111 111 111 111 111 111 111 111 111 111 111 111 111 111 111 111 111 111 111 111 111 111 111 111 111 111 111 111 111 111 111 111 111 111 111 111 111 111 111 111 111 111 111 111 111 111 111 111 111 111 111 111 111 111 111 111 111 111 111 111 111 111 111 111 111 111 111 111 111 111 111 111 111 111 111 111 111 111 111 111 111 111 111 111 111 111 111 111 111 111 111 111 111 111 111 111 111 111 111 111 111 111 111 111 111 111 111 111 111 111 111 111 111 111 111 111 111 111 111 111 111 111 111 111 111 111 111 111 111 111 111 111 111 
111 111 111 111 111 111 111 111 111 111 111 111 111 111 111 111 111 111 111 111 111 111 111 111 111 111 111 111 111 111 111 111 111 111 111 111 111 111 111 111 111 111 111 111 111 111 111 111 111 111 111 111 111 111 111 111 111 111 111 111 111 111 111 111 111 111 111 111 111 111 111 111 111 111 111 111 111 111 111 111 111 111 111 111 111 111 111 111 111 111 111 111 111 111 111 111 111 111 111 111 111 111 111 111 111 111 111 111 111 111 111 111 111 111 111 111 111 111 111 111 111 111 111 111 111 111 111 111 111 111 111 111 111 111 111 111 111 111 111 111 111 111 111 111 111 111 111 111 111 111 111 111 111 111 111 111 111 111 111 111 111 111 111 111 111 111 111 111 111 111 111 111 111 111 111 111 111 111 111 111 111 111 111 111 111 111 111 111 111 111 111 111 111 111 111 111 111 111 111 111 111 111 111 111 111 111 111 111 111 111 111 111 111 111 111 111 111 111 111 111 111 111 111 111 111 111 
111 111 111 111 111 111 111 111 111 111 111 111 111 111 111 111 111 111 111 111 111 111 111 111 111 111 111 111 111 111 111 111 111 111 111 111 111 111 111 111 111 111 111 111 111 111 111 111 111 111 111 111 111 111 111 111 111 111 111 111 111 111 111 111 111 111 111 111 111 111 111 111 111 111 111 111 111 111 111 111 111 111 111 111 111 111 111 111 111 111 111 111 111 111 111 111 111 111 111 111 111 111 111 111 111 111 111 111 111 111 111 111 111 111 111 111 111 111 111 111 111 111 111 111 111 111 111 111 111 111 111 111 111 111 111 111 111 111 111 111 111 111 111 111 111 111 111 111 111 111 111 111 111 111 111 111 111 111 111 111 111 111 111 111 111 111 111 111 111 111 111 111 111 111 111 111 111 111 111 111 111 111 111 111 111 111 111 111 111 111 111 111 111 111 111 111 111 111 111 111 111 111 111 111 111 111 111 111 111 111 111 111 111 111 111 111 111 111 111 111 111 111 111 111 111 111 
111 111 111 111 111 111 111 111 111 111 111 111 111 111 111 111 111 111 111 111 111 111 111 111 111 111 111 111 111 111 111 111 111 111 111 111 111 111 111 111 111 111 111 111 111 111 111 111 111 111 111 111 111 111 111 111 111 111 111 111 111 111 111 111 111 111 111 111 111 111 111 111 111 111 111 111 111 111 111 111 111 111 111 111 111 111 111 111 111 111 111 111 111 111 111 111 111 111 111 111 111 111 111 111 111 111 111 111 111 111 111 111 111 111 111 111 111 111 111 111 111 111 111 111 111 111 111 111 111 111 111 111 111 111 111 111 111 111 111 111 111 111 111 111 111 111 111 111 111 111 111 111 111 111 111 111 111 111 111 111 111 111 111 111 111 111 111 111 111 111 111 111 111 111 111 111 111 111 111 111 111 111 111 111 111 111 111 111 111 111 111 111 111 111 111 111 111 111 111 111 111 111 111 111 111 111 111 111 111 111 111 111 111 111 111 111 111 111 111 111 111 111 111 111 111 111 
111 111 111 111 111 111 111 111 111 111 111 111 111 111 111 111 111 111 111 111 111 111 111 111 111 111 111 111 111 111 111 111 111 111 111 111 111 111 111 111 111 111 111 111 111 111 111 111 111 111 111 111 111 111 111 111 111 111 111 111 111 111 111 111 111 111 111 111 111 111 111 111 111 111 111 111 111 111 111 111 111 111 111 111 111 111 111 111 111 111 111 111 111 111 111 111 111 111 111 111 111 111 111 111 111 111 111 111 111 111 111 111 111 111 111 111 111 111 111 111 111 111 111 111 111 111 111 111 111 111 111 111 111 111 111 111 111 111 111 111 111 111 111 111 111 111 111 111 111 111 111 111 111 111 111 111 111 111 111 111 111 111 111 111 111 111 111 111 111 111 111 111 111 111 111 111 111 111 111 111 111 111 111 111 111 111 111 111 111 111 111 111 111 111 111 111 111 111 111 111 111 111 111 111 111 111 111 111 111 111 111 111 111 111 111 111 111 111 111 111 111 111 111 111 111 111 
111 111 111 111 111 111 111 111 111 111 111 111 111 111 111 111 111 111 111 111 111 111 111 111 111 111 111 111 111 111 111 111 111 111 111 111 111 111 111 111 111 111 111 111 111 111 111 111 111 111 111 111 111 111 111 111 111 111 111 111 111 111 111 111 111 111 111 111 111 111 111 111 111 111 111 111 111 111 111 111 111 111 111 111 111 111 111 111 111 111 111 111 111 111 111 111 111 111 111 111 111 111 111 111 111 111 111 111 111 111 111 111 111 111 111 111 111 111 111 111 111 111 111 111 111 111 111 111 111 111 111 111 111 111 111 111 111 111 111 111 111 111 111 111 111 111 111 111 111 111 111 111 111 111 111 111 111 111 111 111 111 111 111 111 111 111 111 111 111 111 111 111 111 111 111 111 111 111 111 111 111 111 111 111 111 111 111 111 111 111 111 111 111 111 111 111 111 111 111 111 111 111 111 111 111 111 111 111 111 111 111 111 111 111 111 111 111 111 111 111 111 111 111 111 111 111 
111 111 111 111 111 111 111 111 111 111 111 111 111 111 111 111 111 111 111 111 111 111 111 111 111 111 111 111 111 111 111 111 111 111 111 111 111 111 111 111 111 111 111 111 111 111 111 111 111 111 111 111 111 111 111 111 111 111 111 111 111 111 111 111 111 111 111 111 111 111 111 111 111 111 111 111 111 111 111 111 111 111 111 111 111 111 111 111 111 111 111 111 111 111 111 111 111 111 111 111 111 111 111 111 111 111 111 111 111 111 111 111 111 111 111 111 111 111 111 111 111 111 111 111 111 111 111 111 111 111 111 111 111 111 111 111 111 111 111 111 111 111 111 111 111 111 111 111 111 111 111 111 111 111 111 111 111 111 111 111 111 111 111 111 111 111 111 111 111 111 111 111 111 111 111 111 111 111 111 111 111 111 111 111 111 111 111 111 111 111 111 111 111 111 111 111 111 111 111 111 111 111 111 111 111 111 111 111 111 111 111 111 111 111 111 111 111 111 111 111 111 111 111 111 111 111 
111 111 111 111 111 111 111 111 111 111 111 111 111 111 111 111 111 111 111 111 111 111 111 111 111 111 111 111 111 111 111 111 111 111 111 111 111 111 111 111 111 111 111 111 111 111 111 111 111 111 111 111 111 111 111 111 111 111 111 111 111 111 111 111 111 111 111 111 111 111 111 111 111 111 111 111 111 111 111 111 111 111 111 111 111 111 111 111 111 111 111 111 111 111 111 111 111 111 111 111 111 111 111 111 111 111 111 111 111 111 111 111 111 111 111 111 111 111 111 111 111 111 111 111 111 111 111 111 111 111 111 111 111 111 111 111 111 111 111 111 111 111 111 111 111 111 111 111 111 111 111 111 111 111 111 111 111 111 111 111 111 111 111 111 111 111 111 111 111 111 111 111 111 111 111 111 111 111 111 111 111 111 111 111 111 111 111 111 111 111 111 111 111 111 111 111 111 111 111 111 111 111 111 111 111 111 111 111 111 111 111 111 111 111 111 111 111 111 111 111 111 111 111 111 111 111 
111 111 111 111 111 111 111 111 111 111 111 111 111 111 111 111 111 111 111 111 111 111 111 111 111 111 111 111 111 111 111 111 111 111 111 111 111 111 111 111 111 111 111 111 111 111 111 111 111 111 111 111 111 111 111 111 111 111 111 111 111 111 111 111 111 111 111 111 111 111 111 111 111 111 111 111 111 111 111 111 111 111 111 111 111 111 111 111 111 111 111 111 111 111 111 111 111 111 111 111 111 111 111 111 111 111 111 111 111 111 111 111 111 111 111 111 111 111 111 111 111 111 111 111 111 111 111 111 111 111 111 111 111 111 111 111 111 111 111 111 111 111 111 111 111 111 111 111 111 111 111 111 111 111 111 111 111 111 111 111 111 111 111 111 111 111 111 111 111 111 111 111 111 111 111 111 111 111 111 111 111 111 111 111 111 111 111 111 111 111 111 111 111 111 111 111 111 111 111 111 111 111 111 111 111 111 111 111 111 111 111 111 111 111 111 111 111 111 111 111 111 111 111 111 111 111 
111 111 111 111 111 111 111 111 111 111 111 111 111 111 111 111 111 111 111 111 111 111 111 111 111 111 111 111 111 111 111 111 111 111 111 111 111 111 111 111 111 111 111 111 111 111 111 111 111 111 111 111 111 111 111 111 111 111 111 111 111 111 111 111 111 111 111 111 111 111 111 111 111 111 111 111 111 111 111 111 111 111 111 111 111 111 111 111 111 111 111 111 111 111 111 111 111 111 111 111 111 111 111 111 111 111 111 111 111 111 111 111 111 111 111 111 111 111 111 111 111 111 111 111 111 111 111 111 111 111 111 111 111 111 111 111 111 111 111 111 111 111 111 111 111 111 111 111 111 111 111 111 111 111 111 111 111 111 111 111 111 111 111 111 111 111 111 111 111 111 111 111 111 111 111 111 111 111 111 111 111 111 111 111 111 111 111 111 111 111 111 111 111 111 111 111 111 111 111 111 111 111 111 111 111 111 111 111 111 111 111 111 111 111 111 111 111 111 111 111 111 111 111 111 111 111 
111 111 111 111 111 111 111 111 111 111 111 111 111 111 111 111 111 111 111 111 111 111 111 111 111 111 111 111 111 111 111 111 111 111 111 111 111 111 111 111 111 111 111 111 111 111 111 111 111 111 111 111 111 111 111 111 111 111 111 111 111 111 111 111 111 111 111 111 111 111 111 111 111 111 111 111 111 111 111 111 111 111 111 111 111 111 111 111 111 111 111 111 111 111 111 111 111 111 111 111 111 111 111 111 111 111 111 111 111 111 111 111 111 111 111 111 111 111 111 111 111 111 111 111 111 111 111 111 111 111 111 111 111 111 111 111 111 111 111 111 111 111 111 111 111 111 111 111 111 111 111 111 111 111 111 111 111 111 111 111 111 111 111 111 111 111 111 111 111 111 111 111 111 111 111 111 111 111 111 111 111 111 111 111 111 111 111 111 111 111 111 111 111 111 111 111 111 111 111 111 111 111 111 111 111 111 111 111 111 111 111 111 111 111 111 111 111 111 111 111 111 111 111 111 111 111 
